( Knas mechanical pick-and-place tape feeder v1.0 by Karl Ekdahl is licensed under a Creative Commons Attribution-NonCommercial 4.0 International License. )
( Made using CamBam - http://www.cambam.co.uk )
( feeder4_alu2_clean 12/17/2015 4:07:01 PM )
( T1 : 1.8 )
G21 G90 G64 G40
G0 Z3.0
( T1 : 1.8 )
T1 M6
( Route to 1mm thick )
G17
M3 S1000
G0 X6.7265 Y6.5343
G0 Z-1.3
G1 F50.0 Z-2.8
G2 F250.0 X6.5578 Y6.7108 I10.7735 J10.4657
G3 X7.0745 Y6.8283 I-0.1766 J1.9707
G1 X7.036 Y6.7127
G3 X6.9473 Y6.3117 I1.8771 J-0.6256
G2 X6.7265 Y6.5343 I10.5527 J10.6883
G1 F50.0 X6.4682 Y6.2834
G2 F250.0 X5.5891 Y7.2699 I11.0318 J10.7166
G3 X7.5188 Y7.5301 I0.7921 J1.4115
G1 X7.7709 Y7.7792
G1 X7.3775 Y6.5989
G3 X7.4827 Y5.3296 I1.5355 J-0.5117
G2 X6.4682 Y6.2834 I10.0173 J11.6704
G0 Z3.0
G0 X4.5405 Y9.4071
G0 Z-1.3
G1 F50.0 Z-2.8
G2 F250.0 X4.2676 Y9.8934 I12.9595 J7.5929
G3 X4.7971 Y9.8732 I0.3394 J1.9492
G1 X4.73 Y9.7715
G3 X4.5405 Y9.4071 I1.6512 J-1.0901
G1 F50.0 X4.8754 Y9.2751
G3 F250.0 X4.8035 Y8.32 I1.5058 J-0.5937
G2 X3.4766 Y10.6842 I12.6965 J8.68
G3 X5.4079 Y10.4361 I1.1304 J1.1584
G1 X5.7159 Y10.6115
G1 X5.0304 Y9.5732
G3 X4.8754 Y9.2751 I1.3508 J-0.8917
G0 Z3.0
G0 X3.0169 Y13.02
G0 Z-1.3
G1 F50.0 Z-2.8
G2 F250.0 X2.8791 Y13.5604 I14.4831 J3.98
G3 X3.3854 Y13.4038 I0.8324 J1.795
G1 X3.2942 Y13.3229
G3 X3.0169 Y13.02 I1.3128 J-1.4803
G1 F50.0 X2.6698 Y12.9246
G2 F250.0 X2.3198 Y14.529 I14.8302 J4.0754
G3 X4.1211 Y13.7894 I1.3917 J0.8264
G1 X4.4639 Y13.8791
G1 X3.5331 Y13.0536
G3 X2.9895 Y11.9019 I1.0739 J-1.211
G2 X2.6698 Y12.9246 I14.5105 J5.0981
G0 Z3.0
G0 X2.4803 Y16.9041
G0 Z-1.3
G1 F50.0 Z-2.8
G2 F250.0 X2.4871 Y17.4617 I15.0197 J0.0959
G3 X2.9356 Y17.1795 I1.2686 J1.5184
G1 X2.8266 Y17.1249
G3 X2.4803 Y16.9041 I0.8849 J-1.7696
G1 F50.0 X2.7043 Y16.6223
G3 F250.0 X2.1645 Y15.8311 I1.0072 J-1.267
G2 X2.1975 Y18.5421 I15.3355 J1.1689
G3 X3.746 Y17.3616 I1.5582 J0.438
G1 X4.1004 Y17.3594
G1 X2.9876 Y16.803
G3 X2.7043 Y16.6223 I0.7239 J-1.4476
G0 Z3.0
G0 X2.9673 Y20.7948
G0 Z-1.3
G1 F50.0 Z-2.8
G2 F250.0 X3.1182 Y21.3316 I14.5327 J-3.7948
G3 X3.4783 Y20.9429 I1.6183 J1.1383
G1 X3.3589 Y20.9185
G3 X2.9673 Y20.7948 I0.3968 J-1.9384
G1 F50.0 X3.1107 Y20.4646
G3 F250.0 X2.3845 Y19.8401 I0.6449 J-1.4845
G2 X3.118 Y22.4501 I15.1155 J-2.8401
G3 X4.3082 Y20.909 I1.6184 J0.0198
G1 X4.65 Y20.8153
G1 X3.4311 Y20.5658
G3 X3.1107 Y20.4646 I0.3246 J-1.5857
G0 Z3.0
G0 X4.4446 Y24.4268
G0 Z-1.3
G1 F50.0 Z-2.8
G2 F250.0 X4.7293 Y24.9063 I13.0554 J-7.4268
G3 X4.9766 Y24.4376 I1.8578 J0.6807
G1 X4.8549 Y24.4449
G3 X4.4446 Y24.4268 I-0.1184 J-1.975
G1 F50.0 X4.4977 Y24.0708
G3 F250.0 X3.6346 Y23.6555 I0.2388 J-1.6009
G2 X5.0187 Y25.9867 I13.8654 J-6.6555
G3 X5.7694 Y24.1901 I1.5684 J-0.3998
G1 X6.0753 Y24.0111
G1 X4.8334 Y24.0856
G3 X4.4977 Y24.0708 I-0.0969 J-1.6157
G0 Z3.0
G0 X6.8117 Y27.5527
G0 Z-1.3
G1 F50.0 Z-2.8
G2 F250.0 X7.2108 Y27.9422 I10.6883 J-10.5527
G3 X7.3283 Y27.4255 I1.9707 J0.1766
G1 X7.2127 Y27.464
G3 X6.8117 Y27.5527 I-0.6256 J-1.8771
G1 F50.0 X6.7708 Y27.1951
G3 F250.0 X5.8296 Y27.0173 I-0.1837 J-1.6081
G2 X7.7699 Y28.9109 I11.6704 J-10.0173
G3 X8.0301 Y26.9812 I1.4115 J-0.7921
G1 X8.2792 Y26.7291
G1 X7.0989 Y27.1225
G3 X6.7708 Y27.1951 I-0.5117 J-1.5355
G0 Z3.0
G0 X9.9071 Y29.9595
G0 Z-1.3
G1 F50.0 Z-2.8
G2 F250.0 X9.99 Y30.0077 I7.5929 J-12.9595
G2 X10.3934 Y30.2324 I7.51 J-13.0077
G3 X10.3732 Y29.7029 I1.9492 J-0.3394
G1 X10.2715 Y29.77
G3 X9.9071 Y29.9595 I-1.0901 J-1.6512
G1 F50.0 X9.7751 Y29.6246
G3 F250.0 X8.82 Y29.6965 I-0.5937 J-1.5058
G2 X9.81 Y30.3195 I8.68 J-12.6965
G2 X11.1842 Y31.0234 I7.69 J-13.3195
G3 X10.9361 Y29.0921 I1.1584 J-1.1304
G1 X11.1115 Y28.7841
G1 X10.0732 Y29.4696
G3 X9.7751 Y29.6246 I-0.8917 J-1.3508
G0 Z3.0
G0 X13.52 Y31.4831
G0 Z-1.3
G1 F50.0 Z-2.8
G2 F250.0 X14.0604 Y31.6209 I3.98 J-14.4831
G3 X13.9038 Y31.1146 I1.795 J-0.8324
G1 X13.8229 Y31.2058
G3 X13.52 Y31.4831 I-1.4803 J-1.3128
G1 F50.0 X13.3058 Y31.1938
G3 F250.0 X12.4019 Y31.5105 I-0.9632 J-1.3008
G2 X15.029 Y32.1802 I5.0981 J-14.5105
G3 X14.2894 Y30.3789 I0.8264 J-1.3917
G1 X14.3791 Y30.0361
G1 X13.5536 Y30.9669
G3 X13.3058 Y31.1938 I-1.211 J-1.0739
G0 Z3.0
G0 X17.4041 Y32.0197
G0 Z-1.3
G1 F50.0 Z-2.8
G2 F250.0 X17.9617 Y32.0129 I0.0959 J-15.0197
G3 X17.6795 Y31.5644 I1.5184 J-1.2686
G1 X17.6249 Y31.6734
G3 X17.4041 Y32.0197 I-1.7696 J-0.8849
G1 F50.0 X17.4018 Y32.3797
G2 F250.0 X19.0421 Y32.3025 I0.0982 J-15.3797
G3 X17.8616 Y30.754 I0.438 J-1.5582
G1 X17.8594 Y30.3996
G1 X17.303 Y31.5124
G3 X16.3311 Y32.3355 I-1.4476 J-0.7239
G2 X17.4018 Y32.3797 I1.1689 J-15.3355
G0 Z3.0
G0 X21.2948 Y31.5327
G0 Z-1.3
G1 F50.0 Z-2.8
G2 F250.0 X21.8316 Y31.3818 I-3.7948 J-14.5327
G3 X21.4429 Y31.0217 I1.1383 J-1.6183
G1 X21.4185 Y31.1411
G3 X21.2948 Y31.5327 I-1.9384 J-0.3968
G1 F50.0 X20.9646 Y31.3893
G3 F250.0 X20.3401 Y32.1155 I-1.4845 J-0.6449
G2 X22.9501 Y31.382 I-2.8401 J-15.1155
G3 X21.409 Y30.1918 I0.0198 J-1.6184
G1 X21.3153 Y29.85
G1 X21.0658 Y31.0689
G3 X20.9646 Y31.3893 I-1.5857 J-0.3246
G0 Z3.0
G0 X24.9268 Y30.0554
G0 Z-1.3
G1 F50.0 Z-2.8
G2 F250.0 X25.4063 Y29.7707 I-7.4268 J-13.0554
G3 X24.9376 Y29.5234 I0.6807 J-1.8578
G1 X24.9449 Y29.6451
G3 X24.9268 Y30.0554 I-1.975 J0.1184
G1 F50.0 X25.1048 Y30.3683
G2 F250.0 X26.4867 Y29.4813 I-7.6048 J-13.3683
G3 X24.6901 Y28.7306 I-0.3998 J-1.5684
G1 X24.5111 Y28.4247
G1 X24.5856 Y29.6666
G3 X24.1555 Y30.8654 I-1.6157 J0.0969
G2 X25.1048 Y30.3683 I-6.6555 J-13.8654
G0 Z3.0
G0 X28.0527 Y27.6883
G0 Z-1.3
G1 F50.0 Z-2.8
G2 F250.0 X28.4422 Y27.2892 I-10.5527 J-10.6883
G3 X27.9255 Y27.1717 I0.1766 J-1.9707
G1 X27.964 Y27.2873
G3 X28.0527 Y27.6883 I-1.8771 J0.6256
G1 F50.0 X27.6951 Y27.7292
G3 F250.0 X27.5173 Y28.6704 I-1.6081 J0.1837
G2 X29.4109 Y26.7301 I-10.0173 J-11.6704
G3 X27.4812 Y26.4699 I-0.7921 J-1.4115
G1 X27.2291 Y26.2208
G1 X27.6225 Y27.4011
G3 X27.6951 Y27.7292 I-1.5355 J0.5117
G0 Z3.0
G0 X30.4595 Y24.5929
G0 Z-1.3
G1 F50.0 Z-2.8
G2 F250.0 X30.7324 Y24.1066 I-12.9595 J-7.5929
G3 X30.2029 Y24.1268 I-0.3394 J-1.9492
G1 X30.27 Y24.2285
G3 X30.4595 Y24.5929 I-1.6512 J1.0901
G1 F50.0 X30.1246 Y24.7249
G3 F250.0 X30.1965 Y25.68 I-1.5058 J0.5937
G2 X31.5234 Y23.3158 I-12.6965 J-8.68
G3 X29.5921 Y23.5639 I-1.1304 J-1.1584
G1 X29.2841 Y23.3885
G1 X29.9696 Y24.4268
G3 X30.1246 Y24.7249 I-1.3508 J0.8917
G0 Z3.0
G0 X31.9831 Y20.98
G0 Z-1.3
G1 F50.0 Z-2.8
G2 F250.0 X32.1209 Y20.4396 I-14.4831 J-3.98
G3 X31.6146 Y20.5962 I-0.8324 J-1.795
G1 X31.7058 Y20.6771
G3 X31.9831 Y20.98 I-1.3128 J1.4803
G1 F50.0 X31.6938 Y21.1942
G3 F250.0 X32.0105 Y22.0981 I-1.3008 J0.9632
G2 X32.6802 Y19.471 I-14.5105 J-5.0981
G3 X30.8789 Y20.2106 I-1.3917 J-0.8264
G1 X30.5361 Y20.1209
G1 X31.4669 Y20.9464
G3 X31.6938 Y21.1942 I-1.0739 J1.211
G0 Z3.0
G0 X32.5197 Y17.0959
G0 Z-1.3
G1 F50.0 Z-2.8
G2 F250.0 X32.52 Y17.0 I-15.0197 J-0.0959
G2 X32.5129 Y16.5383 I-15.02 J0.0
G3 X32.0644 Y16.8205 I-1.2686 J-1.5184
G1 X32.1734 Y16.8751
G3 X32.5197 Y17.0959 I-0.8849 J1.7696
G1 F50.0 X32.2957 Y17.3777
G3 F250.0 X32.8355 Y18.1689 I-1.0072 J1.267
G2 X32.88 Y17.0 I-15.3355 J-1.1689
G2 X32.8025 Y15.4579 I-15.38 J0.0
G3 X31.254 Y16.6384 I-1.5582 J-0.438
G1 X30.8996 Y16.6406
G1 X32.0124 Y17.197
G3 X32.2957 Y17.3777 I-0.7239 J1.4476
G0 Z3.0
G0 X32.0327 Y13.2052
G0 Z-1.3
G1 F50.0 Z-2.8
G2 F250.0 X31.8818 Y12.6684 I-14.5327 J3.7948
G3 X31.5217 Y13.0571 I-1.6183 J-1.1383
G1 X31.6411 Y13.0815
G3 X32.0327 Y13.2052 I-0.3968 J1.9384
G1 F50.0 X31.8893 Y13.5354
G3 F250.0 X32.6155 Y14.1599 I-0.6449 J1.4845
G2 X31.882 Y11.5499 I-15.1155 J2.8401
G3 X30.6918 Y13.091 I-1.6184 J-0.0198
G1 X30.35 Y13.1847
G1 X31.5689 Y13.4342
G3 X31.8893 Y13.5354 I-0.3246 J1.5857
G0 Z3.0
G0 X30.5554 Y9.5732
G0 Z-1.3
G1 F50.0 Z-2.8
G2 F250.0 X30.2707 Y9.0937 I-13.0554 J7.4268
G3 X30.0234 Y9.5624 I-1.8578 J-0.6807
G1 X30.1451 Y9.5551
G3 X30.5554 Y9.5732 I0.1184 J1.975
G1 F50.0 X30.5023 Y9.9292
G3 F250.0 X31.3654 Y10.3445 I-0.2388 J1.6009
G2 X29.9813 Y8.0133 I-13.8654 J6.6555
G3 X29.2306 Y9.8099 I-1.5684 J0.3998
G1 X28.9247 Y9.9889
G1 X30.1666 Y9.9144
G3 X30.5023 Y9.9292 I0.0969 J1.6157
G0 Z3.0
G0 X28.1883 Y6.4473
G0 Z-1.3
G1 F50.0 Z-2.8
G2 F250.0 X27.7892 Y6.0578 I-10.6883 J10.5527
G3 X27.6717 Y6.5745 I-1.9707 J-0.1766
G1 X27.7873 Y6.536
G3 X28.1883 Y6.4473 I0.6256 J1.8771
G1 F50.0 X28.2292 Y6.8049
G3 F250.0 X29.1704 Y6.9827 I0.1837 J1.6081
G2 X27.2301 Y5.0891 I-11.6704 J10.0173
G3 X26.9699 Y7.0188 I-1.4115 J0.7921
G1 X26.7208 Y7.2709
G1 X27.9011 Y6.8775
G3 X28.2292 Y6.8049 I0.5117 J1.5355
G0 Z3.0
G0 X25.0929 Y4.0405
G0 Z-1.3
G1 F50.0 Z-2.8
G2 F250.0 X24.6066 Y3.7676 I-7.5929 J12.9595
G3 X24.6268 Y4.2971 I-1.9492 J0.3394
G1 X24.7285 Y4.23
G3 X25.0929 Y4.0405 I1.0901 J1.6512
G1 F50.0 X25.2249 Y4.3754
G3 F250.0 X26.18 Y4.3035 I0.5937 J1.5058
G2 X23.8158 Y2.9766 I-8.68 J12.6965
G3 X24.0639 Y4.9079 I-1.1584 J1.1304
G1 X23.8885 Y5.2159
G1 X24.9268 Y4.5304
G3 X25.2249 Y4.3754 I0.8917 J1.3508
G0 Z3.0
G0 X21.48 Y2.5169
G0 Z-1.3
G1 F50.0 Z-2.8
G2 F250.0 X20.9396 Y2.3791 I-3.98 J14.4831
G3 X21.0962 Y2.8854 I-1.795 J0.8324
G1 X21.1771 Y2.7942
G3 X21.48 Y2.5169 I1.4803 J1.3128
G1 F50.0 X21.6942 Y2.8062
G3 F250.0 X22.5981 Y2.4895 I0.9632 J1.3008
G2 X19.971 Y1.8198 I-5.0981 J14.5105
G3 X20.7106 Y3.6211 I-0.8264 J1.3917
G1 X20.6209 Y3.9639
G1 X21.4464 Y3.0331
G3 X21.6942 Y2.8062 I1.211 J1.0739
G0 Z3.0
G0 X17.5959 Y1.9803
G0 Z-1.3
G1 F50.0 Z-2.8
G2 F250.0 X17.0383 Y1.9871 I-0.0959 J15.0197
G3 X17.3205 Y2.4356 I-1.5184 J1.2686
G1 X17.3751 Y2.3266
G3 X17.5959 Y1.9803 I1.7696 J0.8849
G1 F50.0 X17.5982 Y1.6203
G2 F250.0 X15.9579 Y1.6975 I-0.0982 J15.3797
G3 X17.1384 Y3.246 I-0.438 J1.5582
G1 X17.1406 Y3.6004
G1 X17.697 Y2.4876
G3 X18.6689 Y1.6645 I1.4476 J0.7239
G2 X17.5982 Y1.6203 I-1.1689 J15.3355
G0 Z3.0
G0 X13.7052 Y2.4673
G0 Z-1.3
G1 F50.0 Z-2.8
G2 F250.0 X13.1684 Y2.6182 I3.7948 J14.5327
G3 X13.5571 Y2.9783 I-1.1383 J1.6183
G1 X13.5815 Y2.8589
G3 X13.7052 Y2.4673 I1.9384 J0.3968
G1 F50.0 X14.0354 Y2.6107
G3 F250.0 X14.6599 Y1.8845 I1.4845 J0.6449
G2 X12.0499 Y2.618 I2.8401 J15.1155
G3 X13.591 Y3.8082 I-0.0198 J1.6184
G1 X13.6847 Y4.15
G1 X13.9342 Y2.9311
G3 X14.0354 Y2.6107 I1.5857 J0.3246
G0 Z3.0
G0 X10.0732 Y3.9446
G0 Z-1.3
G1 F50.0 Z-2.8
G2 F250.0 X9.99 Y3.9923 I7.4268 J13.0554
G2 X9.5937 Y4.2293 I7.51 J13.0077
G3 X10.0624 Y4.4766 I-0.6807 J1.8578
G1 X10.0551 Y4.3549
G3 X10.0732 Y3.9446 I1.975 J-0.1184
G1 F50.0 X9.8952 Y3.6317
G2 F250.0 X9.81 Y3.6805 I7.6048 J13.3683
G2 X8.5133 Y4.5187 I7.69 J13.3195
G3 X10.3099 Y5.2694 I0.3998 J1.5684
G1 X10.4889 Y5.5753
G1 X10.4144 Y4.3334
G3 X10.8445 Y3.1346 I1.6157 J-0.0969
G2 X9.8952 Y3.6317 I6.6555 J13.8654
G1 F50.0 X9.5392 Y3.0059
G2 F250.0 X9.45 Y3.057 I7.9608 J13.9941
G2 Y30.943 I8.05 J13.943
G2 X33.6 Y17.0 I8.05 J-13.943
G2 X9.5392 Y3.0059 I-16.1 J0.0
G0 Z3.0
G0 X11.2232 Y3.8379
G0 Z-1.3
G1 F50.0 Z-2.8
G3 F250.0 X12.898 Y3.9983 I0.8069 J0.3986
G1 X13.7864 Y7.2363
G1 X14.6382 Y3.0752
G3 X16.4199 Y3.2503 I0.8817 J0.1805
G1 X16.44 Y6.6079
G1 X18.3397 Y2.809
G3 X20.0154 Y3.4392 I0.805 J0.4025
G1 X19.1658 Y6.6876
G1 X21.984 Y3.5099
G3 X23.4395 Y4.5523 I0.6733 J0.5972
G1 X21.7781 Y7.4701
G1 X25.3227 Y5.1301
G3 X26.4588 Y6.5137 I0.4958 J0.7511
G1 X24.0988 Y8.9021
G1 X28.1283 Y7.5592
G3 X28.8676 Y9.1897 I0.2846 J0.8538
G1 X25.9699 Y10.886
G1 X30.2096 Y10.6317
G3 X30.5017 Y12.398 I0.0539 J0.8984
G1 X27.2637 Y13.2864
G1 X31.4248 Y14.1382
G3 X31.2497 Y15.9199 I-0.1805 J0.8817
G1 X27.8921 Y15.94
G1 X31.691 Y17.8397
G3 X31.0608 Y19.5154 I-0.4025 J0.805
G1 X27.8124 Y18.6658
G1 X30.9901 Y21.484
G3 X29.9477 Y22.9395 I-0.5972 J0.6733
G1 X27.0299 Y21.2781
G1 X29.3699 Y24.8227
G3 X27.9863 Y25.9588 I-0.7511 J0.4958
G1 X25.5979 Y23.5988
G1 X26.9408 Y27.6283
G3 X25.3103 Y28.3676 I-0.8538 J0.2846
G1 X23.614 Y25.4699
G1 X23.8683 Y29.7096
G3 X22.102 Y30.0017 I-0.8984 J0.0539
G1 X21.2136 Y26.7637
G1 X20.3618 Y30.9248
G3 X18.5801 Y30.7497 I-0.8817 J-0.1805
G1 X18.56 Y27.3921
G1 X16.6603 Y31.191
G3 X14.9846 Y30.5608 I-0.805 J-0.4025
G1 X15.8342 Y27.3124
G1 X13.016 Y30.4901
G3 X11.5605 Y29.4477 I-0.6733 J-0.5972
G1 X13.2219 Y26.5299
G1 X9.6773 Y28.8699
G3 X8.5412 Y27.4863 I-0.4958 J-0.7511
G1 X10.9012 Y25.0979
G1 X6.8717 Y26.4408
G3 X6.1324 Y24.8103 I-0.2846 J-0.8538
G1 X9.0301 Y23.114
G1 X4.7904 Y23.3683
G3 X4.4983 Y21.602 I-0.0539 J-0.8984
G1 X7.7363 Y20.7136
G1 X3.5752 Y19.8618
G3 X3.7503 Y18.0801 I0.1805 J-0.8817
G1 X7.1079 Y18.06
G1 X3.309 Y16.1603
G3 X3.9392 Y14.4846 I0.4025 J-0.805
G1 X7.1876 Y15.3342
G1 X4.0099 Y12.516
G3 X5.0523 Y11.0605 I0.5972 J-0.6733
G1 X7.9701 Y12.7219
G1 X5.6301 Y9.1773
G3 X7.0137 Y8.0412 I0.7511 J-0.4958
G1 X9.4021 Y10.4012
G1 X8.0592 Y6.3717
G3 X9.6897 Y5.6324 I0.8538 J-0.2846
G1 X11.386 Y8.5301
G1 X11.1317 Y4.2904
G3 X11.2232 Y3.8379 I0.8984 J-0.0539
( Inside holes )
S1000
G0 Z3.0
G0 X16.7244 Y16.2466
G0 Z1.0
G1 F50.0 Z-0.5
G2 F500.0 X16.9594 Y17.9364 I0.7756 J0.7534
G2 X18.5813 Y17.0 I0.5406 J-0.9364
G2 X16.9594 Y16.0636 I-1.0813 J0.0
G2 X16.7244 Y16.2466 I0.5406 J0.9364
G1 F50.0 Z-1.0
G2 F500.0 X16.9594 Y17.9364 I0.7756 J0.7534
G2 X18.5813 Y17.0 I0.5406 J-0.9364
G2 X16.9594 Y16.0636 I-1.0813 J0.0
G2 X16.7244 Y16.2466 I0.5406 J0.9364
G1 F50.0 Z-1.5
G2 F500.0 X16.9594 Y17.9364 I0.7756 J0.7534
G2 X18.5813 Y17.0 I0.5406 J-0.9364
G2 X16.9594 Y16.0636 I-1.0813 J0.0
G2 X16.7244 Y16.2466 I0.5406 J0.9364
G1 F50.0 Z-2.0
G2 F500.0 X16.9594 Y17.9364 I0.7756 J0.7534
G2 X18.5813 Y17.0 I0.5406 J-0.9364
G2 X16.9594 Y16.0636 I-1.0813 J0.0
G2 X16.7244 Y16.2466 I0.5406 J0.9364
G1 F50.0 Z-2.5
G2 F500.0 X16.9594 Y17.9364 I0.7756 J0.7534
G2 X18.5813 Y17.0 I0.5406 J-0.9364
G2 X16.9594 Y16.0636 I-1.0813 J0.0
G2 X16.7244 Y16.2466 I0.5406 J0.9364
G1 F50.0 Z-3.0
G2 F500.0 X16.9594 Y17.9364 I0.7756 J0.7534
G2 X18.5813 Y17.0 I0.5406 J-0.9364
G2 X16.9594 Y16.0636 I-1.0813 J0.0
G2 X16.7244 Y16.2466 I0.5406 J0.9364
G1 F50.0 Z-3.5
G2 F500.0 X16.9594 Y17.9364 I0.7756 J0.7534
G2 X18.5813 Y17.0 I0.5406 J-0.9364
G2 X16.9594 Y16.0636 I-1.0813 J0.0
G2 X16.7244 Y16.2466 I0.5406 J0.9364
( Outlines )
S1000
G0 Z3.0
G0 X5.4443 Y5.0936
G0 Z1.0
G1 F50.0 Z-0.5
G3 F250.0 X5.4655 Y5.0719 I0.5796 J0.5423
G1 X5.6908 Y4.8487
G3 X6.5729 Y4.6879 I0.5585 J0.564
G1 X7.4341 Y5.0724
G3 X7.5178 Y5.1159 I-0.3236 J0.7248
G1 X8.73 Y4.1953
G3 X8.7105 Y4.1029 I0.7656 J-0.2096
G1 X8.5712 Y3.1702
G3 X8.9627 Y2.3636 I0.785 J-0.1172
G1 X9.2382 Y2.2063
G3 X10.1318 Y2.2793 I0.3935 J0.6894
G1 X10.8642 Y2.8736
G3 X10.9338 Y2.9373 I-0.5001 J0.6164
G1 X12.3429 Y2.3617
G3 X12.348 Y2.2675 I0.7937 J-0.0043
G1 X12.4549 Y1.3305
G3 X13.0418 Y0.6527 I0.7886 J0.0899
G1 X13.3486 Y0.5721
G3 X14.1929 Y0.8739 I0.2017 J0.7677
G1 X14.7465 Y1.6375
G3 X14.7972 Y1.717 I-0.6426 J0.4659
G1 X16.3073 Y1.5258
G3 X16.3366 Y1.4361 I0.7678 J0.2013
G1 X16.6823 Y0.5586
G3 X17.4247 Y0.0558 I0.7385 J0.291
G1 X17.7419 Y0.0574
G3 X18.4793 Y0.5674 I-0.0039 J0.7937
G1 X18.8164 Y1.4482
G3 X18.8448 Y1.5382 I-0.7413 J0.2837
G1 X20.353 Y1.7443
G3 X20.4045 Y1.6653 I0.6895 J0.3931
G1 X20.9656 Y0.9072
G3 X21.8128 Y0.6137 I0.638 J0.4722
G1 X22.1187 Y0.6973
G3 X22.699 Y1.3808 I-0.2092 J0.7657
G1 X22.7966 Y2.3189
G3 X22.8008 Y2.4132 I-0.7895 J0.0822
G1 X24.2042 Y3.0026
G3 X24.2745 Y2.9395 I0.5643 J0.5582
G1 X25.0126 Y2.3525
G3 X25.9069 Y2.2883 I0.4941 J0.6212
G1 X26.1808 Y2.4482
G3 X26.5644 Y3.2586 I-0.4003 J0.6854
G1 X26.4159 Y4.19
G3 X26.3955 Y4.2821 I-0.7839 J-0.125
G1 X27.5986 Y5.2147
G3 X27.6827 Y5.172 I0.4006 J0.6852
G1 X28.5477 Y4.796
G3 X29.4281 Y4.9655 I0.3164 J0.7279
G1 X29.6513 Y5.1908
G3 X29.8121 Y6.0729 I-0.564 J0.5585
G1 X29.4276 Y6.9341
G3 X29.3841 Y7.0178 I-0.7248 J-0.3236
G1 X30.3047 Y8.23
G3 X30.3971 Y8.2105 I0.2096 J0.7656
G1 X31.3298 Y8.0712
G3 X32.1364 Y8.4627 I0.1172 J0.785
G1 X32.2937 Y8.7382
G3 X32.2207 Y9.6318 I-0.6894 J0.3935
G1 X31.6264 Y10.3642
G3 X31.5627 Y10.4338 I-0.6164 J-0.5001
G1 X32.1383 Y11.8429
G3 X32.2325 Y11.848 I0.0043 J0.7937
G1 X33.1695 Y11.9549
G3 X33.8473 Y12.5418 I-0.0899 J0.7886
G1 X33.9279 Y12.8486
G3 X33.6261 Y13.6929 I-0.7677 J0.2017
G1 X32.8625 Y14.2465
G3 X32.783 Y14.2972 I-0.4659 J-0.6426
G1 X32.9742 Y15.8073
G3 X33.0639 Y15.8366 I-0.2013 J0.7678
G1 X33.9414 Y16.1823
G3 X34.4442 Y16.9247 I-0.291 J0.7385
G1 X34.4426 Y17.2419
G3 X33.9326 Y17.9793 I-0.7937 J-0.0039
G1 X33.0518 Y18.3164
G3 X32.9618 Y18.3448 I-0.2837 J-0.7413
G1 X32.7557 Y19.853
G3 X32.8347 Y19.9045 I-0.3931 J0.6895
G1 X33.5928 Y20.4656
G3 X33.8863 Y21.3128 I-0.4722 J0.638
G1 X33.8027 Y21.6187
G3 X33.1192 Y22.199 I-0.7657 J-0.2092
G1 X32.1811 Y22.2966
G3 X32.0868 Y22.3008 I-0.0822 J-0.7895
G1 X31.4974 Y23.7042
G3 X31.5605 Y23.7745 I-0.5582 J0.5643
G1 X32.1475 Y24.5126
G3 X32.2117 Y25.4069 I-0.6212 J0.4941
G1 X32.0518 Y25.6808
G3 X31.2414 Y26.0644 I-0.6854 J-0.4003
G1 X30.31 Y25.9159
G3 X30.2179 Y25.8955 I0.125 J-0.7839
G1 X29.2853 Y27.0986
G3 X29.328 Y27.1827 I-0.6852 J0.4006
G1 X29.704 Y28.0477
G3 X29.5345 Y28.9281 I-0.7279 J0.3164
G1 X29.3092 Y29.1513
G3 X28.4271 Y29.3121 I-0.5585 J-0.564
G1 X27.5659 Y28.9276
G3 X27.4822 Y28.8841 I0.3236 J-0.7248
G1 X26.27 Y29.8047
G3 X26.2895 Y29.8971 I-0.7656 J0.2096
G1 X26.4288 Y30.8298
G3 X26.0373 Y31.6364 I-0.785 J0.1172
G1 X25.7618 Y31.7937
G3 X24.8682 Y31.7207 I-0.3935 J-0.6894
G1 X24.1358 Y31.1264
G3 X24.0662 Y31.0627 I0.5001 J-0.6164
G1 X22.6571 Y31.6383
G3 X22.652 Y31.7325 I-0.7937 J0.0043
G1 X22.5451 Y32.6695
G3 X21.9582 Y33.3473 I-0.7886 J-0.0899
G1 X21.6514 Y33.4279
G3 X20.8071 Y33.1261 I-0.2017 J-0.7677
G1 X20.2535 Y32.3625
G3 X20.2028 Y32.283 I0.6426 J-0.4659
G1 X18.6927 Y32.4742
G3 X18.6634 Y32.5639 I-0.7678 J-0.2013
G1 X18.3177 Y33.4414
G3 X17.5753 Y33.9442 I-0.7385 J-0.291
G1 X17.2581 Y33.9426
G3 X16.5207 Y33.4326 I0.0039 J-0.7937
G1 X16.1836 Y32.5518
G3 X16.1552 Y32.4618 I0.7413 J-0.2837
G1 X14.647 Y32.2557
G3 X14.5955 Y32.3347 I-0.6895 J-0.3931
G1 X14.0344 Y33.0928
G3 X13.1872 Y33.3863 I-0.638 J-0.4722
G1 X12.8813 Y33.3027
G3 X12.301 Y32.6192 I0.2092 J-0.7657
G1 X12.2034 Y31.6811
G3 X12.1992 Y31.5868 I0.7895 J-0.0822
G1 X10.7958 Y30.9974
G3 X10.7255 Y31.0605 I-0.5643 J-0.5582
G1 X9.9874 Y31.6475
G3 X9.0931 Y31.7117 I-0.4941 J-0.6212
G1 X8.8192 Y31.5518
G3 X8.4356 Y30.7414 I0.4003 J-0.6854
G1 X8.5841 Y29.81
G3 X8.6045 Y29.7179 I0.7839 J0.125
G1 X7.4014 Y28.7853
G3 X7.3173 Y28.828 I-0.4006 J-0.6852
G1 X6.4523 Y29.204
G3 X5.5719 Y29.0345 I-0.3164 J-0.7279
G1 X5.3487 Y28.8092
G3 X5.1879 Y27.9271 I0.564 J-0.5585
G1 X5.5724 Y27.0659
G3 X5.6159 Y26.9822 I0.7248 J0.3236
G1 X4.6953 Y25.77
G3 X4.6029 Y25.7895 I-0.2096 J-0.7656
G1 X3.6702 Y25.9288
G3 X2.8636 Y25.5373 I-0.1172 J-0.785
G1 X2.7063 Y25.2618
G3 X2.7793 Y24.3682 I0.6894 J-0.3935
G1 X3.3736 Y23.6358
G3 X3.4373 Y23.5662 I0.6164 J0.5001
G1 X2.8617 Y22.1571
G3 X2.7675 Y22.152 I-0.0043 J-0.7937
G1 X1.8305 Y22.0451
G3 X1.1527 Y21.4582 I0.0899 J-0.7886
G1 X1.0721 Y21.1514
G3 X1.3739 Y20.3071 I0.7677 J-0.2017
G1 X2.1375 Y19.7535
G3 X2.217 Y19.7028 I0.4659 J0.6426
G1 X2.0258 Y18.1927
G3 X1.9361 Y18.1634 I0.2013 J-0.7678
G1 X1.0586 Y17.8177
G3 X0.5558 Y17.0753 I0.291 J-0.7385
G1 X0.5574 Y16.7581
G3 X1.0674 Y16.0207 I0.7937 J0.0039
G1 X1.9482 Y15.6836
G3 X2.0382 Y15.6552 I0.2837 J0.7413
G1 X2.2443 Y14.147
G3 X2.1653 Y14.0955 I0.3931 J-0.6895
G1 X1.4072 Y13.5344
G3 X1.1137 Y12.6872 I0.4722 J-0.638
G1 X1.1973 Y12.3813
G3 X1.8808 Y11.801 I0.7657 J0.2092
G1 X2.8189 Y11.7034
G3 X2.9132 Y11.6992 I0.0822 J0.7895
G1 X3.5026 Y10.2958
G3 X3.4395 Y10.2255 I0.5582 J-0.5643
G1 X2.8525 Y9.4874
G3 X2.7883 Y8.5931 I0.6212 J-0.4941
G1 X2.9482 Y8.3192
G3 X3.7586 Y7.9356 I0.6854 J0.4003
G1 X4.69 Y8.0841
G3 X4.7821 Y8.1045 I-0.125 J0.7839
G1 X5.7147 Y6.9014
G3 X5.672 Y6.8173 I0.6852 J-0.4006
G1 X5.296 Y5.9523
G3 X5.4443 Y5.0936 I0.7279 J-0.3164
G1 F50.0 Z-1.0
G3 F250.0 X5.4655 Y5.0719 I0.5796 J0.5423
G1 X5.6908 Y4.8487
G3 X6.5729 Y4.6879 I0.5585 J0.564
G1 X7.4341 Y5.0724
G3 X7.5178 Y5.1159 I-0.3236 J0.7248
G1 X8.73 Y4.1953
G3 X8.7105 Y4.1029 I0.7656 J-0.2096
G1 X8.5712 Y3.1702
G3 X8.9627 Y2.3636 I0.785 J-0.1172
G1 X9.2382 Y2.2063
G3 X10.1318 Y2.2793 I0.3935 J0.6894
G1 X10.8642 Y2.8736
G3 X10.9338 Y2.9373 I-0.5001 J0.6164
G1 X12.3429 Y2.3617
G3 X12.348 Y2.2675 I0.7937 J-0.0043
G1 X12.4549 Y1.3305
G3 X13.0418 Y0.6527 I0.7886 J0.0899
G1 X13.3486 Y0.5721
G3 X14.1929 Y0.8739 I0.2017 J0.7677
G1 X14.7465 Y1.6375
G3 X14.7972 Y1.717 I-0.6426 J0.4659
G1 X16.3073 Y1.5258
G3 X16.3366 Y1.4361 I0.7678 J0.2013
G1 X16.6823 Y0.5586
G3 X17.4247 Y0.0558 I0.7385 J0.291
G1 X17.7419 Y0.0574
G3 X18.4793 Y0.5674 I-0.0039 J0.7937
G1 X18.8164 Y1.4482
G3 X18.8448 Y1.5382 I-0.7413 J0.2837
G1 X20.353 Y1.7443
G3 X20.4045 Y1.6653 I0.6895 J0.3931
G1 X20.9656 Y0.9072
G3 X21.8128 Y0.6137 I0.638 J0.4722
G1 X22.1187 Y0.6973
G3 X22.699 Y1.3808 I-0.2092 J0.7657
G1 X22.7966 Y2.3189
G3 X22.8008 Y2.4132 I-0.7895 J0.0822
G1 X24.2042 Y3.0026
G3 X24.2745 Y2.9395 I0.5643 J0.5582
G1 X25.0126 Y2.3525
G3 X25.9069 Y2.2883 I0.4941 J0.6212
G1 X26.1808 Y2.4482
G3 X26.5644 Y3.2586 I-0.4003 J0.6854
G1 X26.4159 Y4.19
G3 X26.3955 Y4.2821 I-0.7839 J-0.125
G1 X27.5986 Y5.2147
G3 X27.6827 Y5.172 I0.4006 J0.6852
G1 X28.5477 Y4.796
G3 X29.4281 Y4.9655 I0.3164 J0.7279
G1 X29.6513 Y5.1908
G3 X29.8121 Y6.0729 I-0.564 J0.5585
G1 X29.4276 Y6.9341
G3 X29.3841 Y7.0178 I-0.7248 J-0.3236
G1 X30.3047 Y8.23
G3 X30.3971 Y8.2105 I0.2096 J0.7656
G1 X31.3298 Y8.0712
G3 X32.1364 Y8.4627 I0.1172 J0.785
G1 X32.2937 Y8.7382
G3 X32.2207 Y9.6318 I-0.6894 J0.3935
G1 X31.6264 Y10.3642
G3 X31.5627 Y10.4338 I-0.6164 J-0.5001
G1 X32.1383 Y11.8429
G3 X32.2325 Y11.848 I0.0043 J0.7937
G1 X33.1695 Y11.9549
G3 X33.8473 Y12.5418 I-0.0899 J0.7886
G1 X33.9279 Y12.8486
G3 X33.6261 Y13.6929 I-0.7677 J0.2017
G1 X32.8625 Y14.2465
G3 X32.783 Y14.2972 I-0.4659 J-0.6426
G1 X32.9742 Y15.8073
G3 X33.0639 Y15.8366 I-0.2013 J0.7678
G1 X33.9414 Y16.1823
G3 X34.4442 Y16.9247 I-0.291 J0.7385
G1 X34.4426 Y17.2419
G3 X33.9326 Y17.9793 I-0.7937 J-0.0039
G1 X33.0518 Y18.3164
G3 X32.9618 Y18.3448 I-0.2837 J-0.7413
G1 X32.7557 Y19.853
G3 X32.8347 Y19.9045 I-0.3931 J0.6895
G1 X33.5928 Y20.4656
G3 X33.8863 Y21.3128 I-0.4722 J0.638
G1 X33.8027 Y21.6187
G3 X33.1192 Y22.199 I-0.7657 J-0.2092
G1 X32.1811 Y22.2966
G3 X32.0868 Y22.3008 I-0.0822 J-0.7895
G1 X31.4974 Y23.7042
G3 X31.5605 Y23.7745 I-0.5582 J0.5643
G1 X32.1475 Y24.5126
G3 X32.2117 Y25.4069 I-0.6212 J0.4941
G1 X32.0518 Y25.6808
G3 X31.2414 Y26.0644 I-0.6854 J-0.4003
G1 X30.31 Y25.9159
G3 X30.2179 Y25.8955 I0.125 J-0.7839
G1 X29.2853 Y27.0986
G3 X29.328 Y27.1827 I-0.6852 J0.4006
G1 X29.704 Y28.0477
G3 X29.5345 Y28.9281 I-0.7279 J0.3164
G1 X29.3092 Y29.1513
G3 X28.4271 Y29.3121 I-0.5585 J-0.564
G1 X27.5659 Y28.9276
G3 X27.4822 Y28.8841 I0.3236 J-0.7248
G1 X26.27 Y29.8047
G3 X26.2895 Y29.8971 I-0.7656 J0.2096
G1 X26.4288 Y30.8298
G3 X26.0373 Y31.6364 I-0.785 J0.1172
G1 X25.7618 Y31.7937
G3 X24.8682 Y31.7207 I-0.3935 J-0.6894
G1 X24.1358 Y31.1264
G3 X24.0662 Y31.0627 I0.5001 J-0.6164
G1 X22.6571 Y31.6383
G3 X22.652 Y31.7325 I-0.7937 J0.0043
G1 X22.5451 Y32.6695
G3 X21.9582 Y33.3473 I-0.7886 J-0.0899
G1 X21.6514 Y33.4279
G3 X20.8071 Y33.1261 I-0.2017 J-0.7677
G1 X20.2535 Y32.3625
G3 X20.2028 Y32.283 I0.6426 J-0.4659
G1 X18.6927 Y32.4742
G3 X18.6634 Y32.5639 I-0.7678 J-0.2013
G1 X18.3177 Y33.4414
G3 X17.5753 Y33.9442 I-0.7385 J-0.291
G1 X17.2581 Y33.9426
G3 X16.5207 Y33.4326 I0.0039 J-0.7937
G1 X16.1836 Y32.5518
G3 X16.1552 Y32.4618 I0.7413 J-0.2837
G1 X14.647 Y32.2557
G3 X14.5955 Y32.3347 I-0.6895 J-0.3931
G1 X14.0344 Y33.0928
G3 X13.1872 Y33.3863 I-0.638 J-0.4722
G1 X12.8813 Y33.3027
G3 X12.301 Y32.6192 I0.2092 J-0.7657
G1 X12.2034 Y31.6811
G3 X12.1992 Y31.5868 I0.7895 J-0.0822
G1 X10.7958 Y30.9974
G3 X10.7255 Y31.0605 I-0.5643 J-0.5582
G1 X9.9874 Y31.6475
G3 X9.0931 Y31.7117 I-0.4941 J-0.6212
G1 X8.8192 Y31.5518
G3 X8.4356 Y30.7414 I0.4003 J-0.6854
G1 X8.5841 Y29.81
G3 X8.6045 Y29.7179 I0.7839 J0.125
G1 X7.4014 Y28.7853
G3 X7.3173 Y28.828 I-0.4006 J-0.6852
G1 X6.4523 Y29.204
G3 X5.5719 Y29.0345 I-0.3164 J-0.7279
G1 X5.3487 Y28.8092
G3 X5.1879 Y27.9271 I0.564 J-0.5585
G1 X5.5724 Y27.0659
G3 X5.6159 Y26.9822 I0.7248 J0.3236
G1 X4.6953 Y25.77
G3 X4.6029 Y25.7895 I-0.2096 J-0.7656
G1 X3.6702 Y25.9288
G3 X2.8636 Y25.5373 I-0.1172 J-0.785
G1 X2.7063 Y25.2618
G3 X2.7793 Y24.3682 I0.6894 J-0.3935
G1 X3.3736 Y23.6358
G3 X3.4373 Y23.5662 I0.6164 J0.5001
G1 X2.8617 Y22.1571
G3 X2.7675 Y22.152 I-0.0043 J-0.7937
G1 X1.8305 Y22.0451
G3 X1.1527 Y21.4582 I0.0899 J-0.7886
G1 X1.0721 Y21.1514
G3 X1.3739 Y20.3071 I0.7677 J-0.2017
G1 X2.1375 Y19.7535
G3 X2.217 Y19.7028 I0.4659 J0.6426
G1 X2.0258 Y18.1927
G3 X1.9361 Y18.1634 I0.2013 J-0.7678
G1 X1.0586 Y17.8177
G3 X0.5558 Y17.0753 I0.291 J-0.7385
G1 X0.5574 Y16.7581
G3 X1.0674 Y16.0207 I0.7937 J0.0039
G1 X1.9482 Y15.6836
G3 X2.0382 Y15.6552 I0.2837 J0.7413
G1 X2.2443 Y14.147
G3 X2.1653 Y14.0955 I0.3931 J-0.6895
G1 X1.4072 Y13.5344
G3 X1.1137 Y12.6872 I0.4722 J-0.638
G1 X1.1973 Y12.3813
G3 X1.8808 Y11.801 I0.7657 J0.2092
G1 X2.8189 Y11.7034
G3 X2.9132 Y11.6992 I0.0822 J0.7895
G1 X3.5026 Y10.2958
G3 X3.4395 Y10.2255 I0.5582 J-0.5643
G1 X2.8525 Y9.4874
G3 X2.7883 Y8.5931 I0.6212 J-0.4941
G1 X2.9482 Y8.3192
G3 X3.7586 Y7.9356 I0.6854 J0.4003
G1 X4.69 Y8.0841
G3 X4.7821 Y8.1045 I-0.125 J0.7839
G1 X5.7147 Y6.9014
G3 X5.672 Y6.8173 I0.6852 J-0.4006
G1 X5.296 Y5.9523
G3 X5.4443 Y5.0936 I0.7279 J-0.3164
G1 F50.0 Z-1.5
G3 F250.0 X5.4655 Y5.0719 I0.5796 J0.5423
G1 X5.6908 Y4.8487
G3 X6.5729 Y4.6879 I0.5585 J0.564
G1 X7.4341 Y5.0724
G3 X7.5178 Y5.1159 I-0.3236 J0.7248
G1 X8.73 Y4.1953
G3 X8.7105 Y4.1029 I0.7656 J-0.2096
G1 X8.5712 Y3.1702
G3 X8.9627 Y2.3636 I0.785 J-0.1172
G1 X9.2382 Y2.2063
G3 X10.1318 Y2.2793 I0.3935 J0.6894
G1 X10.8642 Y2.8736
G3 X10.9338 Y2.9373 I-0.5001 J0.6164
G1 X12.3429 Y2.3617
G3 X12.348 Y2.2675 I0.7937 J-0.0043
G1 X12.4549 Y1.3305
G3 X13.0418 Y0.6527 I0.7886 J0.0899
G1 X13.3486 Y0.5721
G3 X14.1929 Y0.8739 I0.2017 J0.7677
G1 X14.7465 Y1.6375
G3 X14.7972 Y1.717 I-0.6426 J0.4659
G1 X16.3073 Y1.5258
G3 X16.3366 Y1.4361 I0.7678 J0.2013
G1 X16.6823 Y0.5586
G3 X17.4247 Y0.0558 I0.7385 J0.291
G1 X17.7419 Y0.0574
G3 X18.4793 Y0.5674 I-0.0039 J0.7937
G1 X18.8164 Y1.4482
G3 X18.8448 Y1.5382 I-0.7413 J0.2837
G1 X20.353 Y1.7443
G3 X20.4045 Y1.6653 I0.6895 J0.3931
G1 X20.9656 Y0.9072
G3 X21.8128 Y0.6137 I0.638 J0.4722
G1 X22.1187 Y0.6973
G3 X22.699 Y1.3808 I-0.2092 J0.7657
G1 X22.7966 Y2.3189
G3 X22.8008 Y2.4132 I-0.7895 J0.0822
G1 X24.2042 Y3.0026
G3 X24.2745 Y2.9395 I0.5643 J0.5582
G1 X25.0126 Y2.3525
G3 X25.9069 Y2.2883 I0.4941 J0.6212
G1 X26.1808 Y2.4482
G3 X26.5644 Y3.2586 I-0.4003 J0.6854
G1 X26.4159 Y4.19
G3 X26.3955 Y4.2821 I-0.7839 J-0.125
G1 X27.5986 Y5.2147
G3 X27.6827 Y5.172 I0.4006 J0.6852
G1 X28.5477 Y4.796
G3 X29.4281 Y4.9655 I0.3164 J0.7279
G1 X29.6513 Y5.1908
G3 X29.8121 Y6.0729 I-0.564 J0.5585
G1 X29.4276 Y6.9341
G3 X29.3841 Y7.0178 I-0.7248 J-0.3236
G1 X30.3047 Y8.23
G3 X30.3971 Y8.2105 I0.2096 J0.7656
G1 X31.3298 Y8.0712
G3 X32.1364 Y8.4627 I0.1172 J0.785
G1 X32.2937 Y8.7382
G3 X32.2207 Y9.6318 I-0.6894 J0.3935
G1 X31.6264 Y10.3642
G3 X31.5627 Y10.4338 I-0.6164 J-0.5001
G1 X32.1383 Y11.8429
G3 X32.2325 Y11.848 I0.0043 J0.7937
G1 X33.1695 Y11.9549
G3 X33.8473 Y12.5418 I-0.0899 J0.7886
G1 X33.9279 Y12.8486
G3 X33.6261 Y13.6929 I-0.7677 J0.2017
G1 X32.8625 Y14.2465
G3 X32.783 Y14.2972 I-0.4659 J-0.6426
G1 X32.9742 Y15.8073
G3 X33.0639 Y15.8366 I-0.2013 J0.7678
G1 X33.9414 Y16.1823
G3 X34.4442 Y16.9247 I-0.291 J0.7385
G1 X34.4426 Y17.2419
G3 X33.9326 Y17.9793 I-0.7937 J-0.0039
G1 X33.0518 Y18.3164
G3 X32.9618 Y18.3448 I-0.2837 J-0.7413
G1 X32.7557 Y19.853
G3 X32.8347 Y19.9045 I-0.3931 J0.6895
G1 X33.5928 Y20.4656
G3 X33.8863 Y21.3128 I-0.4722 J0.638
G1 X33.8027 Y21.6187
G3 X33.1192 Y22.199 I-0.7657 J-0.2092
G1 X32.1811 Y22.2966
G3 X32.0868 Y22.3008 I-0.0822 J-0.7895
G1 X31.4974 Y23.7042
G3 X31.5605 Y23.7745 I-0.5582 J0.5643
G1 X32.1475 Y24.5126
G3 X32.2117 Y25.4069 I-0.6212 J0.4941
G1 X32.0518 Y25.6808
G3 X31.2414 Y26.0644 I-0.6854 J-0.4003
G1 X30.31 Y25.9159
G3 X30.2179 Y25.8955 I0.125 J-0.7839
G1 X29.2853 Y27.0986
G3 X29.328 Y27.1827 I-0.6852 J0.4006
G1 X29.704 Y28.0477
G3 X29.5345 Y28.9281 I-0.7279 J0.3164
G1 X29.3092 Y29.1513
G3 X28.4271 Y29.3121 I-0.5585 J-0.564
G1 X27.5659 Y28.9276
G3 X27.4822 Y28.8841 I0.3236 J-0.7248
G1 X26.27 Y29.8047
G3 X26.2895 Y29.8971 I-0.7656 J0.2096
G1 X26.4288 Y30.8298
G3 X26.0373 Y31.6364 I-0.785 J0.1172
G1 X25.7618 Y31.7937
G3 X24.8682 Y31.7207 I-0.3935 J-0.6894
G1 X24.1358 Y31.1264
G3 X24.0662 Y31.0627 I0.5001 J-0.6164
G1 X22.6571 Y31.6383
G3 X22.652 Y31.7325 I-0.7937 J0.0043
G1 X22.5451 Y32.6695
G3 X21.9582 Y33.3473 I-0.7886 J-0.0899
G1 X21.6514 Y33.4279
G3 X20.8071 Y33.1261 I-0.2017 J-0.7677
G1 X20.2535 Y32.3625
G3 X20.2028 Y32.283 I0.6426 J-0.4659
G1 X18.6927 Y32.4742
G3 X18.6634 Y32.5639 I-0.7678 J-0.2013
G1 X18.3177 Y33.4414
G3 X17.5753 Y33.9442 I-0.7385 J-0.291
G1 X17.2581 Y33.9426
G3 X16.5207 Y33.4326 I0.0039 J-0.7937
G1 X16.1836 Y32.5518
G3 X16.1552 Y32.4618 I0.7413 J-0.2837
G1 X14.647 Y32.2557
G3 X14.5955 Y32.3347 I-0.6895 J-0.3931
G1 X14.0344 Y33.0928
G3 X13.1872 Y33.3863 I-0.638 J-0.4722
G1 X12.8813 Y33.3027
G3 X12.301 Y32.6192 I0.2092 J-0.7657
G1 X12.2034 Y31.6811
G3 X12.1992 Y31.5868 I0.7895 J-0.0822
G1 X10.7958 Y30.9974
G3 X10.7255 Y31.0605 I-0.5643 J-0.5582
G1 X9.9874 Y31.6475
G3 X9.0931 Y31.7117 I-0.4941 J-0.6212
G1 X8.8192 Y31.5518
G3 X8.4356 Y30.7414 I0.4003 J-0.6854
G1 X8.5841 Y29.81
G3 X8.6045 Y29.7179 I0.7839 J0.125
G1 X7.4014 Y28.7853
G3 X7.3173 Y28.828 I-0.4006 J-0.6852
G1 X6.4523 Y29.204
G3 X5.5719 Y29.0345 I-0.3164 J-0.7279
G1 X5.3487 Y28.8092
G3 X5.1879 Y27.9271 I0.564 J-0.5585
G1 X5.5724 Y27.0659
G3 X5.6159 Y26.9822 I0.7248 J0.3236
G1 X4.6953 Y25.77
G3 X4.6029 Y25.7895 I-0.2096 J-0.7656
G1 X3.6702 Y25.9288
G3 X2.8636 Y25.5373 I-0.1172 J-0.785
G1 X2.7063 Y25.2618
G3 X2.7793 Y24.3682 I0.6894 J-0.3935
G1 X3.3736 Y23.6358
G3 X3.4373 Y23.5662 I0.6164 J0.5001
G1 X2.8617 Y22.1571
G3 X2.7675 Y22.152 I-0.0043 J-0.7937
G1 X1.8305 Y22.0451
G3 X1.1527 Y21.4582 I0.0899 J-0.7886
G1 X1.0721 Y21.1514
G3 X1.3739 Y20.3071 I0.7677 J-0.2017
G1 X2.1375 Y19.7535
G3 X2.217 Y19.7028 I0.4659 J0.6426
G1 X2.0258 Y18.1927
G3 X1.9361 Y18.1634 I0.2013 J-0.7678
G1 X1.0586 Y17.8177
G3 X0.5558 Y17.0753 I0.291 J-0.7385
G1 X0.5574 Y16.7581
G3 X1.0674 Y16.0207 I0.7937 J0.0039
G1 X1.9482 Y15.6836
G3 X2.0382 Y15.6552 I0.2837 J0.7413
G1 X2.2443 Y14.147
G3 X2.1653 Y14.0955 I0.3931 J-0.6895
G1 X1.4072 Y13.5344
G3 X1.1137 Y12.6872 I0.4722 J-0.638
G1 X1.1973 Y12.3813
G3 X1.8808 Y11.801 I0.7657 J0.2092
G1 X2.8189 Y11.7034
G3 X2.9132 Y11.6992 I0.0822 J0.7895
G1 X3.5026 Y10.2958
G3 X3.4395 Y10.2255 I0.5582 J-0.5643
G1 X2.8525 Y9.4874
G3 X2.7883 Y8.5931 I0.6212 J-0.4941
G1 X2.9482 Y8.3192
G3 X3.7586 Y7.9356 I0.6854 J0.4003
G1 X4.69 Y8.0841
G3 X4.7821 Y8.1045 I-0.125 J0.7839
G1 X5.7147 Y6.9014
G3 X5.672 Y6.8173 I0.6852 J-0.4006
G1 X5.296 Y5.9523
G3 X5.4443 Y5.0936 I0.7279 J-0.3164
G1 F50.0 Z-2.0
G3 F250.0 X5.4655 Y5.0719 I0.5796 J0.5423
G1 X5.6908 Y4.8487
G3 X6.5729 Y4.6879 I0.5585 J0.564
G1 X7.4341 Y5.0724
G3 X7.5178 Y5.1159 I-0.3236 J0.7248
G1 X8.73 Y4.1953
G3 X8.7105 Y4.1029 I0.7656 J-0.2096
G1 X8.5712 Y3.1702
G3 X8.9627 Y2.3636 I0.785 J-0.1172
G1 X9.2382 Y2.2063
G3 X10.1318 Y2.2793 I0.3935 J0.6894
G1 X10.8642 Y2.8736
G3 X10.9338 Y2.9373 I-0.5001 J0.6164
G1 X12.3429 Y2.3617
G3 X12.348 Y2.2675 I0.7937 J-0.0043
G1 X12.4549 Y1.3305
G3 X13.0418 Y0.6527 I0.7886 J0.0899
G1 X13.3486 Y0.5721
G3 X14.1929 Y0.8739 I0.2017 J0.7677
G1 X14.7465 Y1.6375
G3 X14.7972 Y1.717 I-0.6426 J0.4659
G1 X16.3073 Y1.5258
G3 X16.3366 Y1.4361 I0.7678 J0.2013
G1 X16.6823 Y0.5586
G3 X17.4247 Y0.0558 I0.7385 J0.291
G1 X17.7419 Y0.0574
G3 X18.4793 Y0.5674 I-0.0039 J0.7937
G1 X18.8164 Y1.4482
G3 X18.8448 Y1.5382 I-0.7413 J0.2837
G1 X20.353 Y1.7443
G3 X20.4045 Y1.6653 I0.6895 J0.3931
G1 X20.9656 Y0.9072
G3 X21.8128 Y0.6137 I0.638 J0.4722
G1 X22.1187 Y0.6973
G3 X22.699 Y1.3808 I-0.2092 J0.7657
G1 X22.7966 Y2.3189
G3 X22.8008 Y2.4132 I-0.7895 J0.0822
G1 X24.2042 Y3.0026
G3 X24.2745 Y2.9395 I0.5643 J0.5582
G1 X25.0126 Y2.3525
G3 X25.9069 Y2.2883 I0.4941 J0.6212
G1 X26.1808 Y2.4482
G3 X26.5644 Y3.2586 I-0.4003 J0.6854
G1 X26.4159 Y4.19
G3 X26.3955 Y4.2821 I-0.7839 J-0.125
G1 X27.5986 Y5.2147
G3 X27.6827 Y5.172 I0.4006 J0.6852
G1 X28.5477 Y4.796
G3 X29.4281 Y4.9655 I0.3164 J0.7279
G1 X29.6513 Y5.1908
G3 X29.8121 Y6.0729 I-0.564 J0.5585
G1 X29.4276 Y6.9341
G3 X29.3841 Y7.0178 I-0.7248 J-0.3236
G1 X30.3047 Y8.23
G3 X30.3971 Y8.2105 I0.2096 J0.7656
G1 X31.3298 Y8.0712
G3 X32.1364 Y8.4627 I0.1172 J0.785
G1 X32.2937 Y8.7382
G3 X32.2207 Y9.6318 I-0.6894 J0.3935
G1 X31.6264 Y10.3642
G3 X31.5627 Y10.4338 I-0.6164 J-0.5001
G1 X32.1383 Y11.8429
G3 X32.2325 Y11.848 I0.0043 J0.7937
G1 X33.1695 Y11.9549
G3 X33.8473 Y12.5418 I-0.0899 J0.7886
G1 X33.9279 Y12.8486
G3 X33.6261 Y13.6929 I-0.7677 J0.2017
G1 X32.8625 Y14.2465
G3 X32.783 Y14.2972 I-0.4659 J-0.6426
G1 X32.9742 Y15.8073
G3 X33.0639 Y15.8366 I-0.2013 J0.7678
G1 X33.9414 Y16.1823
G3 X34.4442 Y16.9247 I-0.291 J0.7385
G1 X34.4426 Y17.2419
G3 X33.9326 Y17.9793 I-0.7937 J-0.0039
G1 X33.0518 Y18.3164
G3 X32.9618 Y18.3448 I-0.2837 J-0.7413
G1 X32.7557 Y19.853
G3 X32.8347 Y19.9045 I-0.3931 J0.6895
G1 X33.5928 Y20.4656
G3 X33.8863 Y21.3128 I-0.4722 J0.638
G1 X33.8027 Y21.6187
G3 X33.1192 Y22.199 I-0.7657 J-0.2092
G1 X32.1811 Y22.2966
G3 X32.0868 Y22.3008 I-0.0822 J-0.7895
G1 X31.4974 Y23.7042
G3 X31.5605 Y23.7745 I-0.5582 J0.5643
G1 X32.1475 Y24.5126
G3 X32.2117 Y25.4069 I-0.6212 J0.4941
G1 X32.0518 Y25.6808
G3 X31.2414 Y26.0644 I-0.6854 J-0.4003
G1 X30.31 Y25.9159
G3 X30.2179 Y25.8955 I0.125 J-0.7839
G1 X29.2853 Y27.0986
G3 X29.328 Y27.1827 I-0.6852 J0.4006
G1 X29.704 Y28.0477
G3 X29.5345 Y28.9281 I-0.7279 J0.3164
G1 X29.3092 Y29.1513
G3 X28.4271 Y29.3121 I-0.5585 J-0.564
G1 X27.5659 Y28.9276
G3 X27.4822 Y28.8841 I0.3236 J-0.7248
G1 X26.27 Y29.8047
G3 X26.2895 Y29.8971 I-0.7656 J0.2096
G1 X26.4288 Y30.8298
G3 X26.0373 Y31.6364 I-0.785 J0.1172
G1 X25.7618 Y31.7937
G3 X24.8682 Y31.7207 I-0.3935 J-0.6894
G1 X24.1358 Y31.1264
G3 X24.0662 Y31.0627 I0.5001 J-0.6164
G1 X22.6571 Y31.6383
G3 X22.652 Y31.7325 I-0.7937 J0.0043
G1 X22.5451 Y32.6695
G3 X21.9582 Y33.3473 I-0.7886 J-0.0899
G1 X21.6514 Y33.4279
G3 X20.8071 Y33.1261 I-0.2017 J-0.7677
G1 X20.2535 Y32.3625
G3 X20.2028 Y32.283 I0.6426 J-0.4659
G1 X18.6927 Y32.4742
G3 X18.6634 Y32.5639 I-0.7678 J-0.2013
G1 X18.3177 Y33.4414
G3 X17.5753 Y33.9442 I-0.7385 J-0.291
G1 X17.2581 Y33.9426
G3 X16.5207 Y33.4326 I0.0039 J-0.7937
G1 X16.1836 Y32.5518
G3 X16.1552 Y32.4618 I0.7413 J-0.2837
G1 X14.647 Y32.2557
G3 X14.5955 Y32.3347 I-0.6895 J-0.3931
G1 X14.0344 Y33.0928
G3 X13.1872 Y33.3863 I-0.638 J-0.4722
G1 X12.8813 Y33.3027
G3 X12.301 Y32.6192 I0.2092 J-0.7657
G1 X12.2034 Y31.6811
G3 X12.1992 Y31.5868 I0.7895 J-0.0822
G1 X10.7958 Y30.9974
G3 X10.7255 Y31.0605 I-0.5643 J-0.5582
G1 X9.9874 Y31.6475
G3 X9.0931 Y31.7117 I-0.4941 J-0.6212
G1 X8.8192 Y31.5518
G3 X8.4356 Y30.7414 I0.4003 J-0.6854
G1 X8.5841 Y29.81
G3 X8.6045 Y29.7179 I0.7839 J0.125
G1 X7.4014 Y28.7853
G3 X7.3173 Y28.828 I-0.4006 J-0.6852
G1 X6.4523 Y29.204
G3 X5.5719 Y29.0345 I-0.3164 J-0.7279
G1 X5.3487 Y28.8092
G3 X5.1879 Y27.9271 I0.564 J-0.5585
G1 X5.5724 Y27.0659
G3 X5.6159 Y26.9822 I0.7248 J0.3236
G1 X4.6953 Y25.77
G3 X4.6029 Y25.7895 I-0.2096 J-0.7656
G1 X3.6702 Y25.9288
G3 X2.8636 Y25.5373 I-0.1172 J-0.785
G1 X2.7063 Y25.2618
G3 X2.7793 Y24.3682 I0.6894 J-0.3935
G1 X3.3736 Y23.6358
G3 X3.4373 Y23.5662 I0.6164 J0.5001
G1 X2.8617 Y22.1571
G3 X2.7675 Y22.152 I-0.0043 J-0.7937
G1 X1.8305 Y22.0451
G3 X1.1527 Y21.4582 I0.0899 J-0.7886
G1 X1.0721 Y21.1514
G3 X1.3739 Y20.3071 I0.7677 J-0.2017
G1 X2.1375 Y19.7535
G3 X2.217 Y19.7028 I0.4659 J0.6426
G1 X2.0258 Y18.1927
G3 X1.9361 Y18.1634 I0.2013 J-0.7678
G1 X1.0586 Y17.8177
G3 X0.5558 Y17.0753 I0.291 J-0.7385
G1 X0.5574 Y16.7581
G3 X1.0674 Y16.0207 I0.7937 J0.0039
G1 X1.9482 Y15.6836
G3 X2.0382 Y15.6552 I0.2837 J0.7413
G1 X2.2443 Y14.147
G3 X2.1653 Y14.0955 I0.3931 J-0.6895
G1 X1.4072 Y13.5344
G3 X1.1137 Y12.6872 I0.4722 J-0.638
G1 X1.1973 Y12.3813
G3 X1.8808 Y11.801 I0.7657 J0.2092
G1 X2.8189 Y11.7034
G3 X2.9132 Y11.6992 I0.0822 J0.7895
G1 X3.5026 Y10.2958
G3 X3.4395 Y10.2255 I0.5582 J-0.5643
G1 X2.8525 Y9.4874
G3 X2.7883 Y8.5931 I0.6212 J-0.4941
G1 X2.9482 Y8.3192
G3 X3.7586 Y7.9356 I0.6854 J0.4003
G1 X4.69 Y8.0841
G3 X4.7821 Y8.1045 I-0.125 J0.7839
G1 X5.7147 Y6.9014
G3 X5.672 Y6.8173 I0.6852 J-0.4006
G1 X5.296 Y5.9523
G3 X5.4443 Y5.0936 I0.7279 J-0.3164
G1 F50.0 Z-2.5
G3 F250.0 X5.4655 Y5.0719 I0.5796 J0.5423
G1 X5.6908 Y4.8487
G3 X6.5729 Y4.6879 I0.5585 J0.564
G1 X7.4341 Y5.0724
G3 X7.5178 Y5.1159 I-0.3236 J0.7248
G1 X8.73 Y4.1953
G3 X8.7105 Y4.1029 I0.7656 J-0.2096
G1 X8.5712 Y3.1702
G3 X8.9627 Y2.3636 I0.785 J-0.1172
G1 X9.2382 Y2.2063
G3 X10.1318 Y2.2793 I0.3935 J0.6894
G1 X10.8642 Y2.8736
G3 X10.9338 Y2.9373 I-0.5001 J0.6164
G1 X12.3429 Y2.3617
G3 X12.348 Y2.2675 I0.7937 J-0.0043
G1 X12.4549 Y1.3305
G3 X13.0418 Y0.6527 I0.7886 J0.0899
G1 X13.3486 Y0.5721
G3 X14.1929 Y0.8739 I0.2017 J0.7677
G1 X14.7465 Y1.6375
G3 X14.7972 Y1.717 I-0.6426 J0.4659
G1 X16.3073 Y1.5258
G3 X16.3366 Y1.4361 I0.7678 J0.2013
G1 X16.6823 Y0.5586
G3 X17.4247 Y0.0558 I0.7385 J0.291
G1 X17.7419 Y0.0574
G3 X18.4793 Y0.5674 I-0.0039 J0.7937
G1 X18.8164 Y1.4482
G3 X18.8448 Y1.5382 I-0.7413 J0.2837
G1 X20.353 Y1.7443
G3 X20.4045 Y1.6653 I0.6895 J0.3931
G1 X20.9656 Y0.9072
G3 X21.8128 Y0.6137 I0.638 J0.4722
G1 X22.1187 Y0.6973
G3 X22.699 Y1.3808 I-0.2092 J0.7657
G1 X22.7966 Y2.3189
G3 X22.8008 Y2.4132 I-0.7895 J0.0822
G1 X24.2042 Y3.0026
G3 X24.2745 Y2.9395 I0.5643 J0.5582
G1 X25.0126 Y2.3525
G3 X25.9069 Y2.2883 I0.4941 J0.6212
G1 X26.1808 Y2.4482
G3 X26.5644 Y3.2586 I-0.4003 J0.6854
G1 X26.4159 Y4.19
G3 X26.3955 Y4.2821 I-0.7839 J-0.125
G1 X27.5986 Y5.2147
G3 X27.6827 Y5.172 I0.4006 J0.6852
G1 X28.5477 Y4.796
G3 X29.4281 Y4.9655 I0.3164 J0.7279
G1 X29.6513 Y5.1908
G3 X29.8121 Y6.0729 I-0.564 J0.5585
G1 X29.4276 Y6.9341
G3 X29.3841 Y7.0178 I-0.7248 J-0.3236
G1 X30.3047 Y8.23
G3 X30.3971 Y8.2105 I0.2096 J0.7656
G1 X31.3298 Y8.0712
G3 X32.1364 Y8.4627 I0.1172 J0.785
G1 X32.2937 Y8.7382
G3 X32.2207 Y9.6318 I-0.6894 J0.3935
G1 X31.6264 Y10.3642
G3 X31.5627 Y10.4338 I-0.6164 J-0.5001
G1 X32.1383 Y11.8429
G3 X32.2325 Y11.848 I0.0043 J0.7937
G1 X33.1695 Y11.9549
G3 X33.8473 Y12.5418 I-0.0899 J0.7886
G1 X33.9279 Y12.8486
G3 X33.6261 Y13.6929 I-0.7677 J0.2017
G1 X32.8625 Y14.2465
G3 X32.783 Y14.2972 I-0.4659 J-0.6426
G1 X32.9742 Y15.8073
G3 X33.0639 Y15.8366 I-0.2013 J0.7678
G1 X33.9414 Y16.1823
G3 X34.4442 Y16.9247 I-0.291 J0.7385
G1 X34.4426 Y17.2419
G3 X33.9326 Y17.9793 I-0.7937 J-0.0039
G1 X33.0518 Y18.3164
G3 X32.9618 Y18.3448 I-0.2837 J-0.7413
G1 X32.7557 Y19.853
G3 X32.8347 Y19.9045 I-0.3931 J0.6895
G1 X33.5928 Y20.4656
G3 X33.8863 Y21.3128 I-0.4722 J0.638
G1 X33.8027 Y21.6187
G3 X33.1192 Y22.199 I-0.7657 J-0.2092
G1 X32.1811 Y22.2966
G3 X32.0868 Y22.3008 I-0.0822 J-0.7895
G1 X31.4974 Y23.7042
G3 X31.5605 Y23.7745 I-0.5582 J0.5643
G1 X32.1475 Y24.5126
G3 X32.2117 Y25.4069 I-0.6212 J0.4941
G1 X32.0518 Y25.6808
G3 X31.2414 Y26.0644 I-0.6854 J-0.4003
G1 X30.31 Y25.9159
G3 X30.2179 Y25.8955 I0.125 J-0.7839
G1 X29.2853 Y27.0986
G3 X29.328 Y27.1827 I-0.6852 J0.4006
G1 X29.704 Y28.0477
G3 X29.5345 Y28.9281 I-0.7279 J0.3164
G1 X29.3092 Y29.1513
G3 X28.4271 Y29.3121 I-0.5585 J-0.564
G1 X27.5659 Y28.9276
G3 X27.4822 Y28.8841 I0.3236 J-0.7248
G1 X26.27 Y29.8047
G3 X26.2895 Y29.8971 I-0.7656 J0.2096
G1 X26.4288 Y30.8298
G3 X26.0373 Y31.6364 I-0.785 J0.1172
G1 X25.7618 Y31.7937
G3 X24.8682 Y31.7207 I-0.3935 J-0.6894
G1 X24.1358 Y31.1264
G3 X24.0662 Y31.0627 I0.5001 J-0.6164
G1 X22.6571 Y31.6383
G3 X22.652 Y31.7325 I-0.7937 J0.0043
G1 X22.5451 Y32.6695
G3 X21.9582 Y33.3473 I-0.7886 J-0.0899
G1 X21.6514 Y33.4279
G3 X20.8071 Y33.1261 I-0.2017 J-0.7677
G1 X20.2535 Y32.3625
G3 X20.2028 Y32.283 I0.6426 J-0.4659
G1 X18.6927 Y32.4742
G3 X18.6634 Y32.5639 I-0.7678 J-0.2013
G1 X18.3177 Y33.4414
G3 X17.5753 Y33.9442 I-0.7385 J-0.291
G1 X17.2581 Y33.9426
G3 X16.5207 Y33.4326 I0.0039 J-0.7937
G1 X16.1836 Y32.5518
G3 X16.1552 Y32.4618 I0.7413 J-0.2837
G1 X14.647 Y32.2557
G3 X14.5955 Y32.3347 I-0.6895 J-0.3931
G1 X14.0344 Y33.0928
G3 X13.1872 Y33.3863 I-0.638 J-0.4722
G1 X12.8813 Y33.3027
G3 X12.301 Y32.6192 I0.2092 J-0.7657
G1 X12.2034 Y31.6811
G3 X12.1992 Y31.5868 I0.7895 J-0.0822
G1 X10.7958 Y30.9974
G3 X10.7255 Y31.0605 I-0.5643 J-0.5582
G1 X9.9874 Y31.6475
G3 X9.0931 Y31.7117 I-0.4941 J-0.6212
G1 X8.8192 Y31.5518
G3 X8.4356 Y30.7414 I0.4003 J-0.6854
G1 X8.5841 Y29.81
G3 X8.6045 Y29.7179 I0.7839 J0.125
G1 X7.4014 Y28.7853
G3 X7.3173 Y28.828 I-0.4006 J-0.6852
G1 X6.4523 Y29.204
G3 X5.5719 Y29.0345 I-0.3164 J-0.7279
G1 X5.3487 Y28.8092
G3 X5.1879 Y27.9271 I0.564 J-0.5585
G1 X5.5724 Y27.0659
G3 X5.6159 Y26.9822 I0.7248 J0.3236
G1 X4.6953 Y25.77
G3 X4.6029 Y25.7895 I-0.2096 J-0.7656
G1 X3.6702 Y25.9288
G3 X2.8636 Y25.5373 I-0.1172 J-0.785
G1 X2.7063 Y25.2618
G3 X2.7793 Y24.3682 I0.6894 J-0.3935
G1 X3.3736 Y23.6358
G3 X3.4373 Y23.5662 I0.6164 J0.5001
G1 X2.8617 Y22.1571
G3 X2.7675 Y22.152 I-0.0043 J-0.7937
G1 X1.8305 Y22.0451
G3 X1.1527 Y21.4582 I0.0899 J-0.7886
G1 X1.0721 Y21.1514
G3 X1.3739 Y20.3071 I0.7677 J-0.2017
G1 X2.1375 Y19.7535
G3 X2.217 Y19.7028 I0.4659 J0.6426
G1 X2.0258 Y18.1927
G3 X1.9361 Y18.1634 I0.2013 J-0.7678
G1 X1.0586 Y17.8177
G3 X0.5558 Y17.0753 I0.291 J-0.7385
G1 X0.5574 Y16.7581
G3 X1.0674 Y16.0207 I0.7937 J0.0039
G1 X1.9482 Y15.6836
G3 X2.0382 Y15.6552 I0.2837 J0.7413
G1 X2.2443 Y14.147
G3 X2.1653 Y14.0955 I0.3931 J-0.6895
G1 X1.4072 Y13.5344
G3 X1.1137 Y12.6872 I0.4722 J-0.638
G1 X1.1973 Y12.3813
G3 X1.8808 Y11.801 I0.7657 J0.2092
G1 X2.8189 Y11.7034
G3 X2.9132 Y11.6992 I0.0822 J0.7895
G1 X3.5026 Y10.2958
G3 X3.4395 Y10.2255 I0.5582 J-0.5643
G1 X2.8525 Y9.4874
G3 X2.7883 Y8.5931 I0.6212 J-0.4941
G1 X2.9482 Y8.3192
G3 X3.7586 Y7.9356 I0.6854 J0.4003
G1 X4.69 Y8.0841
G3 X4.7821 Y8.1045 I-0.125 J0.7839
G1 X5.7147 Y6.9014
G3 X5.672 Y6.8173 I0.6852 J-0.4006
G1 X5.296 Y5.9523
G3 X5.4443 Y5.0936 I0.7279 J-0.3164
G1 F50.0 Z-3.0
G3 F250.0 X5.4655 Y5.0719 I0.5796 J0.5423
G1 X5.6908 Y4.8487
G3 X6.5729 Y4.6879 I0.5585 J0.564
G1 X7.4341 Y5.0724
G3 X7.5178 Y5.1159 I-0.3236 J0.7248
G1 X8.73 Y4.1953
G3 X8.7105 Y4.1029 I0.7656 J-0.2096
G1 X8.5712 Y3.1702
G3 X8.9627 Y2.3636 I0.785 J-0.1172
G1 X9.2382 Y2.2063
G3 X10.1318 Y2.2793 I0.3935 J0.6894
G1 X10.8642 Y2.8736
G3 X10.9338 Y2.9373 I-0.5001 J0.6164
G1 X12.3429 Y2.3617
G3 X12.348 Y2.2675 I0.7937 J-0.0043
G1 X12.4549 Y1.3305
G3 X13.0418 Y0.6527 I0.7886 J0.0899
G1 X13.3486 Y0.5721
G3 X14.1929 Y0.8739 I0.2017 J0.7677
G1 X14.7465 Y1.6375
G3 X14.7972 Y1.717 I-0.6426 J0.4659
G1 X16.3073 Y1.5258
G3 X16.3366 Y1.4361 I0.7678 J0.2013
G1 X16.6823 Y0.5586
G3 X17.4247 Y0.0558 I0.7385 J0.291
G1 X17.7419 Y0.0574
G3 X18.4793 Y0.5674 I-0.0039 J0.7937
G1 X18.8164 Y1.4482
G3 X18.8448 Y1.5382 I-0.7413 J0.2837
G1 X20.353 Y1.7443
G3 X20.4045 Y1.6653 I0.6895 J0.3931
G1 X20.5766 Y1.4327
G1 X20.9656 Y0.9072 Z-2.3462
G3 X21.3111 Y0.6415 Z-2.5 I0.638 J0.4722
G3 X21.8128 Y0.6137 I0.2924 J0.7379
G1 X22.1187 Y0.6973
G3 X22.699 Y1.3808 I-0.2092 J0.7657
G1 X22.7144 Y1.5287
G1 X22.7966 Y2.3189 Z-3.0
G3 X22.8008 Y2.4132 I-0.7895 J0.0822
G1 X22.9715 Y2.4848
G1 X24.2042 Y3.0026
G3 X24.2745 Y2.9395 I0.5643 J0.5582
G1 X25.0126 Y2.3525
G3 X25.9069 Y2.2883 I0.4941 J0.6212
G1 X26.1808 Y2.4482
G3 X26.5644 Y3.2586 I-0.4003 J0.6854
G1 X26.4159 Y4.19
G3 X26.3955 Y4.2821 I-0.7839 J-0.125
G1 X27.5986 Y5.2147
G3 X27.6827 Y5.172 I0.4006 J0.6852
G1 X28.5477 Y4.796
G3 X29.4281 Y4.9655 I0.3164 J0.7279
G1 X29.6513 Y5.1908
G3 X29.8121 Y6.0729 I-0.564 J0.5585
G1 X29.4276 Y6.9341
G3 X29.3841 Y7.0178 I-0.7248 J-0.3236
G1 X30.3047 Y8.23
G3 X30.3971 Y8.2105 I0.2096 J0.7656
G1 X31.3298 Y8.0712
G3 X32.1364 Y8.4627 I0.1172 J0.785
G1 X32.2937 Y8.7382
G3 X32.2207 Y9.6318 I-0.6894 J0.3935
G1 X31.6264 Y10.3642
G3 X31.5627 Y10.4338 I-0.6164 J-0.5001
G1 X32.1383 Y11.8429
G3 X32.2325 Y11.848 I0.0043 J0.7937
G1 X33.1695 Y11.9549
G3 X33.8473 Y12.5418 I-0.0899 J0.7886
G1 X33.9279 Y12.8486
G3 X33.6261 Y13.6929 I-0.7677 J0.2017
G1 X32.8625 Y14.2465
G3 X32.783 Y14.2972 I-0.4659 J-0.6426
G1 X32.9742 Y15.8073
G3 X33.0639 Y15.8366 I-0.2013 J0.7678
G1 X33.9414 Y16.1823
G3 X34.4442 Y16.9247 I-0.291 J0.7385
G1 X34.4426 Y17.2419
G3 X33.9326 Y17.9793 I-0.7937 J-0.0039
G1 X33.0518 Y18.3164
G3 X32.9618 Y18.3448 I-0.2837 J-0.7413
G1 X32.7557 Y19.853
G3 X32.8347 Y19.9045 I-0.3931 J0.6895
G1 X33.5928 Y20.4656
G3 X33.8863 Y21.3128 I-0.4722 J0.638
G1 X33.8027 Y21.6187
G3 X33.1192 Y22.199 I-0.7657 J-0.2092
G1 X32.1811 Y22.2966
G3 X32.0868 Y22.3008 I-0.0822 J-0.7895
G1 X31.4974 Y23.7042
G3 X31.5605 Y23.7745 I-0.5582 J0.5643
G1 X32.1475 Y24.5126
G3 X32.2117 Y25.4069 I-0.6212 J0.4941
G1 X32.0518 Y25.6808
G3 X31.2414 Y26.0644 I-0.6854 J-0.4003
G1 X30.31 Y25.9159
G3 X30.2179 Y25.8955 I0.125 J-0.7839
G1 X29.2853 Y27.0986
G3 X29.328 Y27.1827 I-0.6852 J0.4006
G1 X29.704 Y28.0477
G3 X29.5345 Y28.9281 I-0.7279 J0.3164
G1 X29.3092 Y29.1513
G3 X28.4271 Y29.3121 I-0.5585 J-0.564
G1 X27.5659 Y28.9276
G3 X27.4822 Y28.8841 I0.3236 J-0.7248
G1 X26.27 Y29.8047
G3 X26.2895 Y29.8971 I-0.7656 J0.2096
G1 X26.4288 Y30.8298
G3 X26.0373 Y31.6364 I-0.785 J0.1172
G1 X25.7618 Y31.7937
G3 X24.8682 Y31.7207 I-0.3935 J-0.6894
G1 X24.1358 Y31.1264
G3 X24.0662 Y31.0627 I0.5001 J-0.6164
G1 X22.6571 Y31.6383
G3 X22.652 Y31.7325 I-0.7937 J0.0043
G1 X22.5451 Y32.6695
G3 X21.9582 Y33.3473 I-0.7886 J-0.0899
G1 X21.6514 Y33.4279
G3 X20.8071 Y33.1261 I-0.2017 J-0.7677
G1 X20.2535 Y32.3625
G3 X20.2028 Y32.283 I0.6426 J-0.4659
G1 X18.6927 Y32.4742
G3 X18.6634 Y32.5639 I-0.7678 J-0.2013
G1 X18.3177 Y33.4414
G3 X17.5753 Y33.9442 I-0.7385 J-0.291
G1 X17.2581 Y33.9426
G3 X16.5207 Y33.4326 I0.0039 J-0.7937
G1 X16.1836 Y32.5518
G3 X16.1552 Y32.4618 I0.7413 J-0.2837
G1 X14.647 Y32.2557
G3 X14.5955 Y32.3347 I-0.6895 J-0.3931
G1 X14.0344 Y33.0928
G3 X13.1872 Y33.3863 I-0.638 J-0.4722
G1 X12.8813 Y33.3027
G3 X12.301 Y32.6192 I0.2092 J-0.7657
G1 X12.2034 Y31.6811
G3 X12.1992 Y31.5868 I0.7895 J-0.0822
G1 X10.7958 Y30.9974
G3 X10.7255 Y31.0605 I-0.5643 J-0.5582
G1 X9.9874 Y31.6475
G3 X9.0931 Y31.7117 I-0.4941 J-0.6212
G1 X8.8192 Y31.5518
G3 X8.4356 Y30.7414 I0.4003 J-0.6854
G1 X8.5841 Y29.81
G3 X8.6045 Y29.7179 I0.7839 J0.125
G1 X7.4014 Y28.7853
G3 X7.3173 Y28.828 I-0.4006 J-0.6852
G1 X6.4523 Y29.204
G3 X5.5719 Y29.0345 I-0.3164 J-0.7279
G1 X5.3487 Y28.8092
G3 X5.1879 Y27.9271 I0.564 J-0.5585
G1 X5.5724 Y27.0659
G3 X5.6159 Y26.9822 I0.7248 J0.3236
G1 X4.6953 Y25.77
G3 X4.6029 Y25.7895 I-0.2096 J-0.7656
G1 X3.6702 Y25.9288
G3 X2.8636 Y25.5373 I-0.1172 J-0.785
G1 X2.7063 Y25.2618
G3 X2.7793 Y24.3682 I0.6894 J-0.3935
G1 X3.3736 Y23.6358
G3 X3.4373 Y23.5662 I0.6164 J0.5001
G1 X2.8617 Y22.1571
G3 X2.7675 Y22.152 I-0.0043 J-0.7937
G1 X1.8305 Y22.0451
G3 X1.1527 Y21.4582 I0.0899 J-0.7886
G1 X1.0721 Y21.1514
G3 X1.3739 Y20.3071 I0.7677 J-0.2017
G1 X2.1375 Y19.7535
G3 X2.217 Y19.7028 I0.4659 J0.6426
G1 X2.0258 Y18.1927
G3 X1.9361 Y18.1634 I0.2013 J-0.7678
G1 X1.6668 Y18.0573
G1 X1.0586 Y17.8177 Z-2.3462
G3 X0.7125 Y17.5526 Z-2.5 I0.291 J-0.7385
G3 X0.5558 Y17.0753 I0.6371 J-0.4735
G1 X0.5574 Y16.7581
G3 X1.0674 Y16.0207 I0.7937 J0.0039
G1 X1.2063 Y15.9675
G1 X1.9482 Y15.6836 Z-3.0
G3 X2.0382 Y15.6552 I0.2837 J0.7413
G1 X2.0633 Y15.4717
G1 X2.2443 Y14.147
G3 X2.1653 Y14.0955 I0.3931 J-0.6895
G1 X1.4072 Y13.5344
G3 X1.1137 Y12.6872 I0.4722 J-0.638
G1 X1.1973 Y12.3813
G3 X1.8808 Y11.801 I0.7657 J0.2092
G1 X2.8189 Y11.7034
G3 X2.9132 Y11.6992 I0.0822 J0.7895
G1 X3.5026 Y10.2958
G3 X3.4395 Y10.2255 I0.5582 J-0.5643
G1 X2.8525 Y9.4874
G3 X2.7883 Y8.5931 I0.6212 J-0.4941
G1 X2.9482 Y8.3192
G3 X3.7586 Y7.9356 I0.6854 J0.4003
G1 X4.69 Y8.0841
G3 X4.7821 Y8.1045 I-0.125 J0.7839
G1 X5.7147 Y6.9014
G3 X5.672 Y6.8173 I0.6852 J-0.4006
G1 X5.296 Y5.9523
G3 X5.4443 Y5.0936 I0.7279 J-0.3164
G1 F50.0 Z-3.5
G3 F250.0 X5.4655 Y5.0719 I0.5796 J0.5423
G1 X5.6908 Y4.8487
G3 X6.5729 Y4.6879 I0.5585 J0.564
G1 X7.4341 Y5.0724
G3 X7.5178 Y5.1159 I-0.3236 J0.7248
G1 X8.73 Y4.1953
G3 X8.7105 Y4.1029 I0.7656 J-0.2096
G1 X8.5712 Y3.1702
G3 X8.9627 Y2.3636 I0.785 J-0.1172
G1 X9.2382 Y2.2063
G3 X10.1318 Y2.2793 I0.3935 J0.6894
G1 X10.8642 Y2.8736
G3 X10.9338 Y2.9373 I-0.5001 J0.6164
G1 X12.3429 Y2.3617
G3 X12.348 Y2.2675 I0.7937 J-0.0043
G1 X12.4549 Y1.3305
G3 X13.0418 Y0.6527 I0.7886 J0.0899
G1 X13.3486 Y0.5721
G3 X14.1929 Y0.8739 I0.2017 J0.7677
G1 X14.7465 Y1.6375
G3 X14.7972 Y1.717 I-0.6426 J0.4659
G1 X16.3073 Y1.5258
G3 X16.3366 Y1.4361 I0.7678 J0.2013
G1 X16.6823 Y0.5586
G3 X17.4247 Y0.0558 I0.7385 J0.291
G1 X17.7419 Y0.0574
G3 X18.4793 Y0.5674 I-0.0039 J0.7937
G1 X18.8164 Y1.4482
G3 X18.8448 Y1.5382 I-0.7413 J0.2837
G1 X20.353 Y1.7443
G3 X20.4045 Y1.6653 I0.6895 J0.3931
G1 X20.5766 Y1.4327
G1 X20.9656 Y0.9072 Z-2.1925
G3 X21.3111 Y0.6415 Z-2.5 I0.638 J0.4722
G3 X21.8128 Y0.6137 I0.2924 J0.7379
G1 X22.1187 Y0.6973
G3 X22.699 Y1.3808 I-0.2092 J0.7657
G1 X22.7144 Y1.5287
G1 X22.7966 Y2.3189 Z-3.5
G3 X22.8008 Y2.4132 I-0.7895 J0.0822
G1 X22.9715 Y2.4848
G1 X24.2042 Y3.0026
G3 X24.2745 Y2.9395 I0.5643 J0.5582
G1 X25.0126 Y2.3525
G3 X25.9069 Y2.2883 I0.4941 J0.6212
G1 X26.1808 Y2.4482
G3 X26.5644 Y3.2586 I-0.4003 J0.6854
G1 X26.4159 Y4.19
G3 X26.3955 Y4.2821 I-0.7839 J-0.125
G1 X27.5986 Y5.2147
G3 X27.6827 Y5.172 I0.4006 J0.6852
G1 X28.5477 Y4.796
G3 X29.4281 Y4.9655 I0.3164 J0.7279
G1 X29.6513 Y5.1908
G3 X29.8121 Y6.0729 I-0.564 J0.5585
G1 X29.4276 Y6.9341
G3 X29.3841 Y7.0178 I-0.7248 J-0.3236
G1 X30.3047 Y8.23
G3 X30.3971 Y8.2105 I0.2096 J0.7656
G1 X31.3298 Y8.0712
G3 X32.1364 Y8.4627 I0.1172 J0.785
G1 X32.2937 Y8.7382
G3 X32.2207 Y9.6318 I-0.6894 J0.3935
G1 X31.6264 Y10.3642
G3 X31.5627 Y10.4338 I-0.6164 J-0.5001
G1 X32.1383 Y11.8429
G3 X32.2325 Y11.848 I0.0043 J0.7937
G1 X33.1695 Y11.9549
G3 X33.8473 Y12.5418 I-0.0899 J0.7886
G1 X33.9279 Y12.8486
G3 X33.6261 Y13.6929 I-0.7677 J0.2017
G1 X32.8625 Y14.2465
G3 X32.783 Y14.2972 I-0.4659 J-0.6426
G1 X32.9742 Y15.8073
G3 X33.0639 Y15.8366 I-0.2013 J0.7678
G1 X33.9414 Y16.1823
G3 X34.4442 Y16.9247 I-0.291 J0.7385
G1 X34.4426 Y17.2419
G3 X33.9326 Y17.9793 I-0.7937 J-0.0039
G1 X33.0518 Y18.3164
G3 X32.9618 Y18.3448 I-0.2837 J-0.7413
G1 X32.7557 Y19.853
G3 X32.8347 Y19.9045 I-0.3931 J0.6895
G1 X33.5928 Y20.4656
G3 X33.8863 Y21.3128 I-0.4722 J0.638
G1 X33.8027 Y21.6187
G3 X33.1192 Y22.199 I-0.7657 J-0.2092
G1 X32.1811 Y22.2966
G3 X32.0868 Y22.3008 I-0.0822 J-0.7895
G1 X31.4974 Y23.7042
G3 X31.5605 Y23.7745 I-0.5582 J0.5643
G1 X32.1475 Y24.5126
G3 X32.2117 Y25.4069 I-0.6212 J0.4941
G1 X32.0518 Y25.6808
G3 X31.2414 Y26.0644 I-0.6854 J-0.4003
G1 X30.31 Y25.9159
G3 X30.2179 Y25.8955 I0.125 J-0.7839
G1 X29.2853 Y27.0986
G3 X29.328 Y27.1827 I-0.6852 J0.4006
G1 X29.704 Y28.0477
G3 X29.5345 Y28.9281 I-0.7279 J0.3164
G1 X29.3092 Y29.1513
G3 X28.4271 Y29.3121 I-0.5585 J-0.564
G1 X27.5659 Y28.9276
G3 X27.4822 Y28.8841 I0.3236 J-0.7248
G1 X26.27 Y29.8047
G3 X26.2895 Y29.8971 I-0.7656 J0.2096
G1 X26.4288 Y30.8298
G3 X26.0373 Y31.6364 I-0.785 J0.1172
G1 X25.7618 Y31.7937
G3 X24.8682 Y31.7207 I-0.3935 J-0.6894
G1 X24.1358 Y31.1264
G3 X24.0662 Y31.0627 I0.5001 J-0.6164
G1 X22.6571 Y31.6383
G3 X22.652 Y31.7325 I-0.7937 J0.0043
G1 X22.5451 Y32.6695
G3 X21.9582 Y33.3473 I-0.7886 J-0.0899
G1 X21.6514 Y33.4279
G3 X20.8071 Y33.1261 I-0.2017 J-0.7677
G1 X20.2535 Y32.3625
G3 X20.2028 Y32.283 I0.6426 J-0.4659
G1 X18.6927 Y32.4742
G3 X18.6634 Y32.5639 I-0.7678 J-0.2013
G1 X18.3177 Y33.4414
G3 X17.5753 Y33.9442 I-0.7385 J-0.291
G1 X17.2581 Y33.9426
G3 X16.5207 Y33.4326 I0.0039 J-0.7937
G1 X16.1836 Y32.5518
G3 X16.1552 Y32.4618 I0.7413 J-0.2837
G1 X14.647 Y32.2557
G3 X14.5955 Y32.3347 I-0.6895 J-0.3931
G1 X14.0344 Y33.0928
G3 X13.1872 Y33.3863 I-0.638 J-0.4722
G1 X12.8813 Y33.3027
G3 X12.301 Y32.6192 I0.2092 J-0.7657
G1 X12.2034 Y31.6811
G3 X12.1992 Y31.5868 I0.7895 J-0.0822
G1 X10.7958 Y30.9974
G3 X10.7255 Y31.0605 I-0.5643 J-0.5582
G1 X9.9874 Y31.6475
G3 X9.0931 Y31.7117 I-0.4941 J-0.6212
G1 X8.8192 Y31.5518
G3 X8.4356 Y30.7414 I0.4003 J-0.6854
G1 X8.5841 Y29.81
G3 X8.6045 Y29.7179 I0.7839 J0.125
G1 X7.4014 Y28.7853
G3 X7.3173 Y28.828 I-0.4006 J-0.6852
G1 X6.4523 Y29.204
G3 X5.5719 Y29.0345 I-0.3164 J-0.7279
G1 X5.3487 Y28.8092
G3 X5.1879 Y27.9271 I0.564 J-0.5585
G1 X5.5724 Y27.0659
G3 X5.6159 Y26.9822 I0.7248 J0.3236
G1 X4.6953 Y25.77
G3 X4.6029 Y25.7895 I-0.2096 J-0.7656
G1 X3.6702 Y25.9288
G3 X2.8636 Y25.5373 I-0.1172 J-0.785
G1 X2.7063 Y25.2618
G3 X2.7793 Y24.3682 I0.6894 J-0.3935
G1 X3.3736 Y23.6358
G3 X3.4373 Y23.5662 I0.6164 J0.5001
G1 X2.8617 Y22.1571
G3 X2.7675 Y22.152 I-0.0043 J-0.7937
G1 X1.8305 Y22.0451
G3 X1.1527 Y21.4582 I0.0899 J-0.7886
G1 X1.0721 Y21.1514
G3 X1.3739 Y20.3071 I0.7677 J-0.2017
G1 X2.1375 Y19.7535
G3 X2.217 Y19.7028 I0.4659 J0.6426
G1 X2.0258 Y18.1927
G3 X1.9361 Y18.1634 I0.2013 J-0.7678
G1 X1.6668 Y18.0573
G1 X1.0586 Y17.8177 Z-2.1925
G3 X0.7125 Y17.5526 Z-2.5 I0.291 J-0.7385
G3 X0.5558 Y17.0753 I0.6371 J-0.4735
G1 X0.5574 Y16.7581
G3 X1.0674 Y16.0207 I0.7937 J0.0039
G1 X1.2063 Y15.9675
G1 X1.9482 Y15.6836 Z-3.5
G3 X2.0382 Y15.6552 I0.2837 J0.7413
G1 X2.0633 Y15.4717
G1 X2.2443 Y14.147
G3 X2.1653 Y14.0955 I0.3931 J-0.6895
G1 X1.4072 Y13.5344
G3 X1.1137 Y12.6872 I0.4722 J-0.638
G1 X1.1973 Y12.3813
G3 X1.8808 Y11.801 I0.7657 J0.2092
G1 X2.8189 Y11.7034
G3 X2.9132 Y11.6992 I0.0822 J0.7895
G1 X3.5026 Y10.2958
G3 X3.4395 Y10.2255 I0.5582 J-0.5643
G1 X2.8525 Y9.4874
G3 X2.7883 Y8.5931 I0.6212 J-0.4941
G1 X2.9482 Y8.3192
G3 X3.7586 Y7.9356 I0.6854 J0.4003
G1 X4.69 Y8.0841
G3 X4.7821 Y8.1045 I-0.125 J0.7839
G1 X5.7147 Y6.9014
G3 X5.672 Y6.8173 I0.6852 J-0.4006
G1 X5.296 Y5.9523
G3 X5.4443 Y5.0936 I0.7279 J-0.3164
G0 Z3.0
M5
M30
