( Knas mechanical pick-and-place tape feeder v1.0 by Karl Ekdahl is licensed under a Creative Commons Attribution-NonCommercial 4.0 International License. )
( Made using CamBam - http://www.cambam.co.uk )
( feeder4_alu2_clean 12/17/2015 6:25:17 PM )
( T2 : 3.175 )
G21 G90 G64 G40
G0 Z3.0
( T2 : 3.175 )
T2 M6
( Back wall 1mm )
G17
M3 S1000
G0 X23.9929 Y45.165
G1 F2000.0 Z-0.3
G1 F4000.0 X25.4935 Y47.3325
G1 X30.7942
G1 X31.3361 Y45.165
G1 X23.9929
G1 F2000.0 X22.9487 Y45.8879
G1 F4000.0 X24.828 Y48.6025
G1 X31.7858
G1 X32.7637 Y44.6909
G3 X33.0299 Y43.895 I5.2363 J1.3091
G1 X21.569
G1 X22.9487 Y45.8879
G1 F2000.0 X21.9045 Y46.6108
G1 F4000.0 X24.1626 Y49.8725
G1 X32.7773
G1 X33.9957 Y44.9989
G3 X35.624 Y42.625 I4.0043 J1.0011
G1 X19.1451
G1 X21.9045 Y46.6108
G0 Z3.0
G0 X83.5459 Y59.135
G1 F2000.0 Z-0.3
G3 F4000.0 X83.6847 Y59.3625 I-17.5459 J10.865
G1 X100.5
G3 X104.3625 Y59.7272 I0.0 J20.6375
G1 Y59.135
G1 X83.5459
G1 F2000.0 Y57.865
G1 F4000.0 X81.0944
G3 X82.9514 Y60.6326 I-15.0944 J12.135
G3 X83.0 Y60.6325 I0.0486 J19.3674
G1 X100.5
G3 X105.6325 Y61.3249 I0.0 J19.3675
G1 Y57.865
G1 X83.5459
G1 F2000.0 Y56.595
G1 F4000.0 X78.1583
G3 X82.1938 Y61.9205 I-12.1583 J13.405
G3 X83.0 Y61.9025 I0.8062 J18.0795
G1 X100.5
G3 X106.9025 Y63.0729 I0.0 J18.0975
G1 Y56.595
G1 X83.5459
G1 F2000.0 Y55.325
G1 F4000.0 X74.2346
G3 X81.4132 Y63.2475 I-8.2346 J14.675
G3 X83.0 Y63.1725 I1.5868 J16.7525
G1 X100.5
G3 X108.1725 Y65.0234 I0.0 J16.8275
G1 Y55.325
G1 X83.5459
G1 F2000.0 Y54.055
G1 F4000.0 X70.5575
G1 Y55.0671
G1 X71.7779 Y55.5552
G3 X80.6008 Y64.6286 I-5.7779 J14.4448
G3 X83.0 Y64.4425 I2.3992 J15.3714
G1 X100.5
G3 X109.4425 Y67.2694 I0.0 J15.5575
G1 Y54.055
G1 X83.5459
G1 F2000.0 Y52.785
G1 F4000.0 X69.2875
G1 Y55.9269
G1 X71.3062 Y56.7344
G3 X79.7418 Y66.089 I-5.3062 J13.2656
G3 X83.0 Y65.7125 I3.2582 J13.911
G1 X100.5
G3 X110.7125 Y70.0081 I0.0 J14.2875
G1 Y52.785
G1 X83.5459
G1 F2000.0 Y51.515
G1 F4000.0 X68.0175
G1 Y56.7867
G1 X70.8346 Y57.9136
G3 X78.8083 Y67.6758 I-4.8346 J12.0864
G3 X83.0 Y66.9825 I4.1917 J12.3242
G1 X100.5
G3 X111.9825 Y73.8675 I0.0 J13.0175
G1 Y51.515
G1 X83.5459
G1 F2000.0 Y50.245
G1 F4000.0 X66.7475
G1 Y57.6466
G1 X70.3629 Y59.0927
G3 X77.7367 Y69.4975 I-4.3629 J10.9073
G3 X83.0 Y68.2525 I5.2633 J10.5025
G1 X100.5
G3 X112.241 Y79.6086 I0.0 J11.7475
G1 X112.3624 Y83.2525
G1 X113.4705
G3 X113.2525 Y81.0 I11.5295 J-2.2525
G1 Y50.245
G1 X83.5459
G1 F2000.0 Y48.975
G1 F4000.0 X65.4775
G1 Y58.5064
G1 X69.8912 Y60.2719
G3 X76.4775 Y70.0 I-3.8912 J9.7281
G1 Y71.8003
G3 X83.0 Y69.5225 I6.5225 J8.1997
G1 X100.5
G3 X110.9717 Y79.6509 I0.0 J10.4775
G1 X111.1341 Y84.5225
G1 X115.1324
G3 X114.5225 Y81.0 I9.8676 J-3.5225
G1 Y48.975
G1 X83.5459
G1 F2000.0 Y47.705
G1 F4000.0 X64.2075
G1 Y59.3662
G1 X69.4196 Y61.4511
G3 X75.2075 Y70.0 I-3.4196 J8.5489
G1 Y75.0954
G3 X83.0 Y70.7925 I7.7925 J4.9046
G1 X100.5
G3 X109.7024 Y79.6933 I0.0 J9.2075
G1 X109.9057 Y85.7925
G1 X117.1381
G3 X115.7925 Y81.0 I7.8619 J-4.7925
G1 Y48.0
G3 X115.7972 Y47.705 I9.2075 J0.0
G1 X83.5459
G1 F2000.0 Y46.435
G1 F4000.0 X62.9375
G1 Y60.2261
G1 X68.9479 Y62.6302
G3 X73.9375 Y70.0 I-2.9479 J7.3698
G1 Y103.0625
G1 X75.0625
G1 Y91.0
G1 Y88.0
G1 Y80.0
G3 X83.0 Y72.0625 I7.9375 J0.0
G1 X100.5
G3 X108.4331 Y79.7356 I0.0 J7.9375
G1 X108.6773 Y87.0625
G1 X119.8765
G3 X117.0625 Y81.0 I5.1235 J-6.0625
G1 Y48.0
G3 X117.2183 Y46.435 I7.9375 J0.0
G1 X83.5459
G1 F2000.0 Y45.165
G1 F4000.0 X61.615
G3 X61.6675 Y46.0 I-6.615 J0.835
G1 Y61.0859
G1 X68.4762 Y63.8094
G3 X72.6675 Y70.0 I-2.4762 J6.1906
G1 Y104.3325
G1 X76.3325
G1 Y91.0
G1 Y88.0
G1 Y80.0
G3 X83.0 Y73.3325 I6.6675 J0.0
G1 X100.5
G3 X107.1638 Y79.7779 I0.0 J6.6675
G1 X107.449 Y88.3325
G1 X128.3325
G1 Y87.6675
G1 X125.0
G3 X118.3325 Y81.0 I0.0 J-6.6675
G1 Y48.0
G3 X118.9653 Y45.165 I6.6675 J0.0
G1 X83.5459
G1 F2000.0 Y43.895
G1 F4000.0 X59.9701
G3 X60.3975 Y46.0 I-4.9701 J2.105
G1 Y61.9457
G1 X68.0046 Y64.9885
G3 X71.3975 Y70.0 I-2.0046 J5.0115
G1 Y105.6025
G1 X77.6025
G1 Y91.0
G1 Y88.0
G1 Y80.0
G3 X83.0 Y74.6025 I5.3975 J0.0
G1 X100.5
G3 X105.8945 Y79.8202 I0.0 J5.3975
G1 X106.2206 Y89.6025
G1 X129.6025
G1 Y86.3975
G1 X125.0
G3 X119.6025 Y81.0 I0.0 J-5.3975
G1 Y48.0
G3 X121.4955 Y43.895 I5.3975 J0.0
G1 X83.5459
G1 F2000.0 Y42.625
G1 F4000.0 X57.376
G3 X59.1275 Y46.0 I-2.376 J3.375
G1 Y62.8055
G1 X67.5329 Y66.1677
G3 X70.1275 Y70.0 I-1.5329 J3.8323
G1 Y106.8725
G1 X78.8725
G1 Y91.0
G1 Y88.0
G1 Y80.0
G3 X83.0 Y75.8725 I4.1275 J0.0
G1 X100.5
G3 X104.6252 Y79.8625 I0.0 J4.1275
G1 X104.9922 Y90.8725
G1 X130.8725
G1 Y85.1275
G1 X125.0
G3 X120.8725 Y81.0 I0.0 J-4.1275
G1 Y48.0
G3 X123.8725 Y44.0295 I4.1275 J0.0
G1 Y42.625
G1 X83.5459
G1 F2000.0 Y41.355
G1 F4000.0 X16.7212
G1 X23.4972 Y51.1425
G1 X33.7689
G1 X35.2278 Y45.307
G3 X38.0 Y43.1425 I2.7722 J0.693
G1 X55.0
G3 X57.8575 Y46.0 I0.0 J2.8575
G1 Y63.6654
G1 X67.0612 Y67.3469
G3 X68.8575 Y70.0 I-1.0612 J2.6531
G1 Y108.1425
G1 X80.1425
G1 Y91.0
G1 Y88.0
G1 Y80.0
G3 X83.0 Y77.1425 I2.8575 J0.0
G1 X100.5
G3 X103.3559 Y79.9048 I0.0 J2.8575
G1 X103.7638 Y92.1425
G1 X132.1425
G1 Y83.8575
G1 X125.0
G3 X122.1425 Y81.0 I0.0 J-2.8575
G1 Y48.0
G3 X125.0 Y45.1425 I2.8575 J0.0
G1 X125.1425
G1 Y41.1164
G3 X124.0 Y41.355 I-1.1425 J-2.6164
G1 X83.5459
G0 Z3.0
G0 X114.9991 Y30.335
G1 F2000.0 Z-0.3
G1 F4000.0 X118.3325
G1 Y28.0
G1 Y7.6675
G1 X117.6675
G1 Y25.0
G3 X114.9991 Y30.335 I-6.6675 J0.0
G1 F2000.0 X114.2374 Y29.3188
G3 F4000.0 X111.0 Y30.3975 I-3.2374 J-4.3188
G1 X8.3975
G1 Y31.605
G1 X119.6025
G1 Y28.0
G1 Y6.3975
G1 X116.3975
G1 Y25.0
G3 X114.2374 Y29.3188 I-5.3975 J0.0
G1 F2000.0 X113.4756 Y28.3026
G3 F4000.0 X111.0 Y29.1275 I-2.4756 J-3.3026
G1 X7.1275
G1 Y32.875
G1 X120.8725
G1 Y28.0
G1 Y5.1275
G1 X115.1275
G1 Y25.0
G3 X113.4756 Y28.3026 I-4.1275 J0.0
G1 F2000.0 X112.7139 Y27.2864
G3 F4000.0 X111.0 Y27.8575 I-1.7139 J-2.2864
G1 X5.8575
G1 Y34.145
G1 X122.3819
G3 X122.1425 Y33.0 I2.6181 J-1.145
G1 Y28.0
G1 Y3.8575
G1 X113.8575
G1 Y25.0
G3 X112.7139 Y27.2864 I-2.8575 J0.0
G1 F2000.0 X111.9522 Y26.2702
G3 F4000.0 X111.0 Y26.5875 I-0.9522 J-1.2702
G1 X4.5875
G1 Y35.467
G3 X5.0 Y35.4125 I0.4125 J1.533
G1 X124.0
G3 X125.5875 Y37.0 I0.0 J1.5875
G1 Y38.5
G3 X124.0 Y40.0875 I-1.5875 J0.0
G1 X14.299
G3 X14.3052 Y40.0964 I-1.299 J0.9125
G1 X22.8318 Y52.4125
G1 X34.7605
G1 X36.4599 Y45.615
G3 X38.0 Y44.4125 I1.5401 J0.385
G1 X55.0
G3 X56.5875 Y46.0 I0.0 J1.5875
G1 Y64.5252
G3 X56.5896 Y64.526 I-0.5875 J1.4748
G1 X66.5896 Y68.526
G3 X67.5875 Y70.0 I-0.5896 J1.474
G1 Y109.4125
G1 X81.4125
G1 Y91.0
G1 Y88.0
G1 Y80.0
G3 X83.0 Y78.4125 I1.5875 J0.0
G1 X100.5
G3 X102.0866 Y79.9471 I0.0 J1.5875
G1 X102.5355 Y93.4125
G1 X133.4125
G1 Y82.5875
G1 X125.0
G3 X123.4125 Y81.0 I0.0 J-1.5875
G1 Y48.0
G3 X125.0 Y46.4125 I1.5875 J0.0
G1 X126.4125
G1 Y34.5875
G1 X125.0
G3 X123.4125 Y33.0 I0.0 J-1.5875
G1 Y28.0
G1 Y2.5875
G1 X112.5875
G1 Y25.0
G3 X111.9522 Y26.2702 I-1.5875 J0.0
G0 Z3.0
G0 X114.9991 Y30.335
G0 Z0.7
G1 F2000.0 Z-0.5
G1 F4000.0 X118.3325
G1 Y28.0
G1 Y7.6675
G1 X117.6675
G1 Y25.0
G3 X114.9991 Y30.335 I-6.6675 J0.0
G1 F2000.0 X114.2374 Y29.3188
G3 F4000.0 X111.0 Y30.3975 I-3.2374 J-4.3188
G1 X8.3975
G1 Y31.605
G1 X119.6025
G1 Y28.0
G1 Y6.3975
G1 X116.3975
G1 Y25.0
G3 X114.2374 Y29.3188 I-5.3975 J0.0
G1 F2000.0 X113.4756 Y28.3026
G3 F4000.0 X111.0 Y29.1275 I-2.4756 J-3.3026
G1 X7.1275
G1 Y32.875
G1 X120.8725
G1 Y28.0
G1 Y5.1275
G1 X115.1275
G1 Y25.0
G3 X113.4756 Y28.3026 I-4.1275 J0.0
G1 F2000.0 X112.7139 Y27.2864
G3 F4000.0 X111.0 Y27.8575 I-1.7139 J-2.2864
G1 X5.8575
G1 Y34.145
G1 X122.3819
G3 X122.1425 Y33.0 I2.6181 J-1.145
G1 Y28.0
G1 Y3.8575
G1 X113.8575
G1 Y25.0
G3 X112.7139 Y27.2864 I-2.8575 J0.0
G0 Z3.0
G0 X104.3625 Y59.135
G0 Z0.7
G1 F2000.0 Z-0.5
G1 F4000.0 X83.5459
G3 X83.6847 Y59.3625 I-17.5459 J10.865
G1 X100.5
G3 X104.3625 Y59.7272 I0.0 J20.6375
G1 Y59.135
G1 F2000.0 X105.6325
G1 F4000.0 Y57.865
G1 X81.0944
G3 X82.9514 Y60.6326 I-15.0944 J12.135
G3 X83.0 Y60.6325 I0.0486 J19.3674
G1 X100.5
G3 X105.6325 Y61.3249 I0.0 J19.3675
G1 Y59.135
G1 F2000.0 X106.9025
G1 F4000.0 Y56.595
G1 X78.1583
G3 X82.1938 Y61.9205 I-12.1583 J13.405
G3 X83.0 Y61.9025 I0.8062 J18.0795
G1 X100.5
G3 X106.9025 Y63.0729 I0.0 J18.0975
G1 Y59.135
G1 F2000.0 X108.1725
G1 F4000.0 Y55.325
G1 X74.2346
G3 X81.4132 Y63.2475 I-8.2346 J14.675
G3 X83.0 Y63.1725 I1.5868 J16.7525
G1 X100.5
G3 X108.1725 Y65.0234 I0.0 J16.8275
G1 Y59.135
G1 F2000.0 X109.4425
G1 F4000.0 Y54.055
G1 X70.5575
G1 Y55.0671
G1 X71.7779 Y55.5552
G3 X80.6008 Y64.6286 I-5.7779 J14.4448
G3 X83.0 Y64.4425 I2.3992 J15.3714
G1 X100.5
G3 X109.4425 Y67.2694 I0.0 J15.5575
G1 Y59.135
G1 F2000.0 X110.7125
G1 F4000.0 Y52.785
G1 X69.2875
G1 Y55.9269
G1 X71.3062 Y56.7344
G3 X79.7418 Y66.089 I-5.3062 J13.2656
G3 X83.0 Y65.7125 I3.2582 J13.911
G1 X100.5
G3 X110.7125 Y70.0081 I0.0 J14.2875
G1 Y59.135
G1 F2000.0 X111.9825
G1 F4000.0 Y51.515
G1 X68.0175
G1 Y56.7867
G1 X70.8346 Y57.9136
G3 X78.8083 Y67.6758 I-4.8346 J12.0864
G3 X83.0 Y66.9825 I4.1917 J12.3242
G1 X100.5
G3 X111.9825 Y73.8675 I0.0 J13.0175
G1 Y59.135
G1 F2000.0 X113.2525
G1 F4000.0 Y50.245
G1 X66.7475
G1 Y57.6466
G1 X70.3629 Y59.0927
G3 X77.7367 Y69.4975 I-4.3629 J10.9073
G3 X83.0 Y68.2525 I5.2633 J10.5025
G1 X100.5
G3 X112.241 Y79.6086 I0.0 J11.7475
G1 X112.3624 Y83.2525
G1 X113.4705
G3 X113.2525 Y81.0 I11.5295 J-2.2525
G1 Y59.135
G1 F2000.0 X114.5225
G1 F4000.0 Y48.975
G1 X65.4775
G1 Y58.5064
G1 X69.8912 Y60.2719
G3 X76.4775 Y70.0 I-3.8912 J9.7281
G1 Y71.8003
G3 X83.0 Y69.5225 I6.5225 J8.1997
G1 X100.5
G3 X110.9717 Y79.6509 I0.0 J10.4775
G1 X111.1341 Y84.5225
G1 X115.1324
G3 X114.5225 Y81.0 I9.8676 J-3.5225
G1 Y59.135
G1 F2000.0 X115.7925
G1 F4000.0 Y48.0
G3 X115.7972 Y47.705 I9.2075 J0.0
G1 X64.2075
G1 Y59.3662
G1 X69.4196 Y61.4511
G3 X75.2075 Y70.0 I-3.4196 J8.5489
G1 Y75.0954
G3 X83.0 Y70.7925 I7.7925 J4.9046
G1 X100.5
G3 X109.7024 Y79.6933 I0.0 J9.2075
G1 X109.9057 Y85.7925
G1 X117.1381
G3 X115.7925 Y81.0 I7.8619 J-4.7925
G1 Y59.135
G1 F2000.0 X117.0625
G1 F4000.0 Y48.0
G3 X117.2183 Y46.435 I7.9375 J0.0
G1 X62.9375
G1 Y60.2261
G1 X68.9479 Y62.6302
G3 X73.9375 Y70.0 I-2.9479 J7.3698
G1 Y103.0625
G1 X75.0625
G1 Y91.0
G1 Y88.0
G1 Y80.0
G3 X83.0 Y72.0625 I7.9375 J0.0
G1 X100.5
G3 X108.4331 Y79.7356 I0.0 J7.9375
G1 X108.6773 Y87.0625
G1 X119.8765
G3 X117.0625 Y81.0 I5.1235 J-6.0625
G1 Y59.135
G1 F2000.0 X118.3325
G1 F4000.0 Y48.0
G3 X118.9653 Y45.165 I6.6675 J0.0
G1 X61.615
G3 X61.6675 Y46.0 I-6.615 J0.835
G1 Y61.0859
G1 X68.4762 Y63.8094
G3 X72.6675 Y70.0 I-2.4762 J6.1906
G1 Y104.3325
G1 X76.3325
G1 Y91.0
G1 Y88.0
G1 Y80.0
G3 X83.0 Y73.3325 I6.6675 J0.0
G1 X100.5
G3 X107.1638 Y79.7779 I0.0 J6.6675
G1 X107.449 Y88.3325
G1 X128.3325
G1 Y87.6675
G1 X125.0
G3 X118.3325 Y81.0 I0.0 J-6.6675
G1 Y59.135
G1 F2000.0 X119.6025
G1 F4000.0 Y48.0
G3 X121.4955 Y43.895 I5.3975 J0.0
G1 X59.9701
G3 X60.3975 Y46.0 I-4.9701 J2.105
G1 Y61.9457
G1 X68.0046 Y64.9885
G3 X71.3975 Y70.0 I-2.0046 J5.0115
G1 Y105.6025
G1 X77.6025
G1 Y91.0
G1 Y88.0
G1 Y80.0
G3 X83.0 Y74.6025 I5.3975 J0.0
G1 X100.5
G3 X105.8945 Y79.8202 I0.0 J5.3975
G1 X106.2206 Y89.6025
G1 X129.6025
G1 Y86.3975
G1 X125.0
G3 X119.6025 Y81.0 I0.0 J-5.3975
G1 Y59.135
G1 F2000.0 X120.8725
G1 F4000.0 Y48.0
G3 X123.8725 Y44.0295 I4.1275 J0.0
G1 Y42.625
G1 X57.376
G3 X59.1275 Y46.0 I-2.376 J3.375
G1 Y62.8055
G1 X67.5329 Y66.1677
G3 X70.1275 Y70.0 I-1.5329 J3.8323
G1 Y106.8725
G1 X78.8725
G1 Y91.0
G1 Y88.0
G1 Y80.0
G3 X83.0 Y75.8725 I4.1275 J0.0
G1 X100.5
G3 X104.6252 Y79.8625 I0.0 J4.1275
G1 X104.9922 Y90.8725
G1 X130.8725
G1 Y85.1275
G1 X125.0
G3 X120.8725 Y81.0 I0.0 J-4.1275
G1 Y59.135
G0 Z3.0
G0 X31.3361 Y45.165
G0 Z0.7
G1 F2000.0 Z-0.5
G1 F4000.0 X23.9929
G1 X25.4935 Y47.3325
G1 X30.7942
G1 X31.3361 Y45.165
G1 F2000.0 Y43.895
G1 F4000.0 X21.569
G1 X24.828 Y48.6025
G1 X31.7858
G1 X32.7637 Y44.6909
G3 X33.0299 Y43.895 I5.2363 J1.3091
G1 X31.3361
G1 F2000.0 Y42.625
G1 F4000.0 X19.1451
G1 X24.1626 Y49.8725
G1 X32.7773
G1 X33.9957 Y44.9989
G3 X35.624 Y42.625 I4.0043 J1.0011
G1 X31.3361
G1 F2000.0 Y41.355
G1 F4000.0 X16.7212
G1 X23.4972 Y51.1425
G1 X33.7689
G1 X35.2278 Y45.307
G3 X38.0 Y43.1425 I2.7722 J0.693
G1 X55.0
G3 X57.8575 Y46.0 I0.0 J2.8575
G1 Y63.6654
G1 X67.0612 Y67.3469
G3 X68.8575 Y70.0 I-1.0612 J2.6531
G1 Y108.1425
G1 X80.1425
G1 Y91.0
G1 Y88.0
G1 Y80.0
G3 X83.0 Y77.1425 I2.8575 J0.0
G1 X100.5
G3 X103.3559 Y79.9048 I0.0 J2.8575
G1 X103.7638 Y92.1425
G1 X132.1425
G1 Y83.8575
G1 X125.0
G3 X122.1425 Y81.0 I0.0 J-2.8575
G1 Y48.0
G3 X125.0 Y45.1425 I2.8575 J0.0
G1 X125.1425
G1 Y41.1164
G3 X124.0 Y41.355 I-1.1425 J-2.6164
G1 X31.3361
G1 F2000.0 Y40.0875
G1 F4000.0 X14.299
G3 X14.3052 Y40.0964 I-1.299 J0.9125
G1 X22.8318 Y52.4125
G1 X34.7605
G1 X36.4599 Y45.615
G3 X38.0 Y44.4125 I1.5401 J0.385
G1 X55.0
G3 X56.5875 Y46.0 I0.0 J1.5875
G1 Y64.5252
G3 X56.5896 Y64.526 I-0.5875 J1.4748
G1 X66.5896 Y68.526
G3 X67.5875 Y70.0 I-0.5896 J1.474
G1 Y109.4125
G1 X81.4125
G1 Y91.0
G1 Y88.0
G1 Y80.0
G3 X83.0 Y78.4125 I1.5875 J0.0
G1 X100.5
G3 X102.0866 Y79.9471 I0.0 J1.5875
G1 X102.5355 Y93.4125
G1 X133.4125
G1 Y82.5875
G1 X125.0
G3 X123.4125 Y81.0 I0.0 J-1.5875
G1 Y48.0
G3 X125.0 Y46.4125 I1.5875 J0.0
G1 X126.4125
G1 Y34.5875
G1 X125.0
G3 X123.4125 Y33.0 I0.0 J-1.5875
G1 Y28.0
G1 Y2.5875
G1 X112.5875
G1 Y25.0
G3 X111.0 Y26.5875 I-1.5875 J0.0
G1 X4.5875
G1 Y35.467
G3 X5.0 Y35.4125 I0.4125 J1.533
G1 X124.0
G3 X125.5875 Y37.0 I0.0 J1.5875
G1 Y38.5
G3 X124.0 Y40.0875 I-1.5875 J0.0
G1 X31.3361
( Shelf outline )
S1000
G0 Z3.0
G0 X5.0 Y35.4125
G1 F2000.0 Z-0.3
G1 F4000.0 X124.0
G3 X125.5875 Y37.0 I0.0 J1.5875
G1 Y38.5
G3 X124.0 Y40.0875 I-1.5875 J0.0
G1 X5.0
G3 X3.4125 Y38.5 I0.0 J-1.5875
G1 Y37.0
G3 X5.0 Y35.4125 I1.5875 J0.0
G1 F2000.0 Z-0.5
G1 F4000.0 X124.0
G3 X125.5875 Y37.0 I0.0 J1.5875
G1 Y38.5
G3 X124.0 Y40.0875 I-1.5875 J0.0
G1 X5.0
G3 X3.4125 Y38.5 I0.0 J-1.5875
G1 Y37.0
G3 X5.0 Y35.4125 I1.5875 J0.0
( Drill to wall 1mm )
S1000
G0 Z3.0
G0 X29.3 Y47.5
G98
G81 X29.3 Y47.5 Z-3.5 R3.0 F2000.0
G81 X64.1937 Y50.7124 Z-3.5
G81 X90.5 Y54.5 Z-3.5
G81 Y75.5 Z-3.5
G81 X74.3 Y104.5 Z-3.5
G81 X128.3 Y88.5 Z-3.5
G81 X118.0 Y48.0 Z-3.5
G81 X116.0 Y28.0 Z-3.5
G81 Y10.0 Z-3.5
G80
( Holes )
S1000
G0 Z3.0
G0 X37.0875 Y41.0875
G0 Z0.875
G1 F2000.0 Z-3.3
G1 F4000.0 Y41.1125
G1 X38.9125
G1 Y41.0875
G1 X37.0875
G1 F2000.0 Z-3.5
G1 F4000.0 Y41.1125
G1 X38.9125
G1 Y41.0875
G1 X37.0875
G0 Z3.0
G0 X59.0875
G0 Z0.875
G1 F2000.0 Z-3.3
G1 F4000.0 Y41.1125
G1 X60.9125
G1 Y41.0875
G1 X59.0875
G1 F2000.0 Z-3.5
G1 F4000.0 Y41.1125
G1 X60.9125
G1 Y41.0875
G1 X59.0875
G0 Z3.0
G0 X106.0875
G0 Z0.875
G1 F2000.0 Z-3.3
G1 F4000.0 Y41.1125
G1 X107.9125
G1 Y41.0875
G1 X106.0875
G1 F2000.0 Z-3.5
G1 F4000.0 Y41.1125
G1 X107.9125
G1 Y41.0875
G1 X106.0875
( Outline )
S1000
G0 Z3.0
G0 X4.7109 Y25.439
G0 Z1.0
G1 F2000.0 Z-1.0
G3 F4000.0 X5.0 Y25.4125 I0.2891 J1.561
G1 X71.5705
G1 X73.0705 Z-0.5
G1 X76.2455
G1 X77.7455 Z-1.0
G1 X88.0
G3 X89.5875 Y27.0 I0.0 J1.5875
G1 Y27.4125
G1 X108.0
G1 X111.4125
G1 Y4.5
G3 X113.0 Y2.9125 I1.5875 J0.0
G1 X123.0
G3 X124.5875 Y4.5 I0.0 J1.5875
G1 Y9.8588
G1 Y11.3588 Z-0.5
G1 Y14.5338
G1 Y16.0338 Z-1.0
G1 Y29.0
G1 Y82.9125
G1 X132.3
G3 X133.7471 Y83.8472 I0.0 J1.5875
G3 X133.8875 Y84.5 Z-0.7774 I-1.4471 J0.6528
G1 Y85.3472 Z-0.5
G1 Y88.5222
G1 Y90.0222 Z-1.0
G1 Y92.5
G3 X132.3 Y94.0875 I-1.5875 J0.0
G1 X102.5
G3 X100.9125 Y92.5 I0.0 J-1.5875
G1 Y80.0875
G1 X82.5875
G1 Y87.8355
G1 Y89.3355 Z-0.5
G1 Y90.0
G1 Y92.5105
G1 Y94.0105 Z-1.0
G1 Y108.5
G3 X81.0 Y110.0875 I-1.5875 J0.0
G1 X68.0
G3 X66.4125 Y108.5 I0.0 J-1.5875
G1 Y93.0
G1 Y78.0
G1 Y68.1697
G1 X56.5297 Y65.1045
G3 X55.4125 Y63.5882 I0.4703 J-1.5162
G1 Y45.5875
G1 X36.6174
G3 X34.7158 Y51.218 I-20.4146 J-3.7581
G3 X34.2843 Y51.7455 I-1.4158 J-0.718
G3 X24.3157 I-4.9843 J-6.3067
G3 X23.8842 Y51.218 I0.9843 J-1.2455
G3 X21.9826 Y45.5875 I18.5131 J-9.3887
G1 X18.3
G3 X16.956 Y44.8448 I0.0 J-1.5875
G1 X14.1228 Y40.3375
G1 X9.9679
G1 X8.4679 Z-0.5
G1 X5.2929
G1 X5.0 Z-0.5976
G3 X3.7929 Y39.781 Z-1.0 I0.0 J-1.5875
G3 X3.4125 Y38.75 I1.2071 J-1.031
G1 Y29.0
G1 Y27.0
G3 X4.7109 Y25.439 I1.5875 J0.0
G1 F2000.0 Z-2.0
G3 F4000.0 X5.0 Y25.4125 I0.2891 J1.561
G1 X71.5705
G1 X73.0705 Z-0.5
G1 X76.2455
G1 X77.7455 Z-2.0
G1 X88.0
G3 X89.5875 Y27.0 I0.0 J1.5875
G1 Y27.4125
G1 X108.0
G1 X111.4125
G1 Y4.5
G3 X113.0 Y2.9125 I1.5875 J0.0
G1 X123.0
G3 X124.5875 Y4.5 I0.0 J1.5875
G1 Y9.8588
G1 Y11.3588 Z-0.5
G1 Y14.5338
G1 Y16.0338 Z-2.0
G1 Y29.0
G1 Y82.9125
G1 X132.3
G3 X133.7471 Y83.8472 I0.0 J1.5875
G3 X133.8875 Y84.5 Z-1.3322 I-1.4471 J0.6528
G1 Y85.3472 Z-0.5
G1 Y88.5222
G1 Y90.0222 Z-2.0
G1 Y92.5
G3 X132.3 Y94.0875 I-1.5875 J0.0
G1 X102.5
G3 X100.9125 Y92.5 I0.0 J-1.5875
G1 Y80.0875
G1 X82.5875
G1 Y87.8355
G1 Y89.3355 Z-0.5
G1 Y90.0
G1 Y92.5105
G1 Y94.0105 Z-2.0
G1 Y108.5
G3 X81.0 Y110.0875 I-1.5875 J0.0
G1 X68.0
G3 X66.4125 Y108.5 I0.0 J-1.5875
G1 Y93.0
G1 Y78.0
G1 Y68.1697
G1 X56.5297 Y65.1045
G3 X55.4125 Y63.5882 I0.4703 J-1.5162
G1 Y45.5875
G1 X36.6174
G3 X34.7158 Y51.218 I-20.4146 J-3.7581
G3 X34.2843 Y51.7455 I-1.4158 J-0.718
G3 X24.3157 I-4.9843 J-6.3067
G3 X23.8842 Y51.218 I0.9843 J-1.2455
G3 X21.9826 Y45.5875 I18.5131 J-9.3887
G1 X18.3
G3 X16.956 Y44.8448 I0.0 J-1.5875
G1 X14.1228 Y40.3375
G1 X9.9679
G1 X8.4679 Z-0.5
G1 X5.2929
G1 X5.0 Z-0.7929
G3 X3.7929 Y39.781 Z-2.0 I0.0 J-1.5875
G3 X3.4125 Y38.75 I1.2071 J-1.031
G1 Y29.0
G1 Y27.0
G3 X4.7109 Y25.439 I1.5875 J0.0
G1 F2000.0 Z-3.0
G3 F4000.0 X5.0 Y25.4125 I0.2891 J1.561
G1 X71.5705
G1 X73.0705 Z-0.5
G1 X76.2455
G1 X77.7455 Z-3.0
G1 X88.0
G3 X89.5875 Y27.0 I0.0 J1.5875
G1 Y27.4125
G1 X108.0
G1 X111.4125
G1 Y4.5
G3 X113.0 Y2.9125 I1.5875 J0.0
G1 X123.0
G3 X124.5875 Y4.5 I0.0 J1.5875
G1 Y9.8588
G1 Y11.3588 Z-0.5
G1 Y14.5338
G1 Y16.0338 Z-3.0
G1 Y29.0
G1 Y82.9125
G1 X132.3
G3 X133.7471 Y83.8472 I0.0 J1.5875
G3 X133.8875 Y84.5 Z-1.8871 I-1.4471 J0.6528
G1 Y85.3472 Z-0.5
G1 Y88.5222
G1 Y90.0222 Z-3.0
G1 Y92.5
G3 X132.3 Y94.0875 I-1.5875 J0.0
G1 X102.5
G3 X100.9125 Y92.5 I0.0 J-1.5875
G1 Y80.0875
G1 X82.5875
G1 Y87.8355
G1 Y89.3355 Z-0.5
G1 Y90.0
G1 Y92.5105
G1 Y94.0105 Z-3.0
G1 Y108.5
G3 X81.0 Y110.0875 I-1.5875 J0.0
G1 X68.0
G3 X66.4125 Y108.5 I0.0 J-1.5875
G1 Y93.0
G1 Y78.0
G1 Y68.1697
G1 X56.5297 Y65.1045
G3 X55.4125 Y63.5882 I0.4703 J-1.5162
G1 Y45.5875
G1 X36.6174
G3 X34.7158 Y51.218 I-20.4146 J-3.7581
G3 X34.2843 Y51.7455 I-1.4158 J-0.718
G3 X24.3157 I-4.9843 J-6.3067
G3 X23.8842 Y51.218 I0.9843 J-1.2455
G3 X21.9826 Y45.5875 I18.5131 J-9.3887
G1 X18.3
G3 X16.956 Y44.8448 I0.0 J-1.5875
G1 X14.1228 Y40.3375
G1 X9.9679
G1 X8.4679 Z-0.5
G1 X5.2929
G1 X5.0 Z-0.9881
G3 X3.7929 Y39.781 Z-3.0 I0.0 J-1.5875
G3 X3.4125 Y38.75 I1.2071 J-1.031
G1 Y29.0
G1 Y27.0
G3 X4.7109 Y25.439 I1.5875 J0.0
G1 F2000.0 Z-3.3
G3 F4000.0 X5.0 Y25.4125 I0.2891 J1.561
G1 X71.5705
G1 X73.0705 Z-0.5
G1 X76.2455
G1 X77.7455 Z-3.3
G1 X88.0
G3 X89.5875 Y27.0 I0.0 J1.5875
G1 Y27.4125
G1 X108.0
G1 X111.4125
G1 Y4.5
G3 X113.0 Y2.9125 I1.5875 J0.0
G1 X123.0
G3 X124.5875 Y4.5 I0.0 J1.5875
G1 Y9.8588
G1 Y11.3588 Z-0.5
G1 Y14.5338
G1 Y16.0338 Z-3.3
G1 Y29.0
G1 Y82.9125
G1 X132.3
G3 X133.7471 Y83.8472 I0.0 J1.5875
G3 X133.8875 Y84.5 Z-2.0535 I-1.4471 J0.6528
G1 Y85.3472 Z-0.5
G1 Y88.5222
G1 Y90.0222 Z-3.3
G1 Y92.5
G3 X132.3 Y94.0875 I-1.5875 J0.0
G1 X102.5
G3 X100.9125 Y92.5 I0.0 J-1.5875
G1 Y80.0875
G1 X82.5875
G1 Y87.8355
G1 Y89.3355 Z-0.5
G1 Y90.0
G1 Y92.5105
G1 Y94.0105 Z-3.3
G1 Y108.5
G3 X81.0 Y110.0875 I-1.5875 J0.0
G1 X68.0
G3 X66.4125 Y108.5 I0.0 J-1.5875
G1 Y93.0
G1 Y78.0
G1 Y68.1697
G1 X56.5297 Y65.1045
G3 X55.4125 Y63.5882 I0.4703 J-1.5162
G1 Y45.5875
G1 X36.6174
G3 X34.7158 Y51.218 I-20.4146 J-3.7581
G3 X34.2843 Y51.7455 I-1.4158 J-0.718
G3 X24.3157 I-4.9843 J-6.3067
G3 X23.8842 Y51.218 I0.9843 J-1.2455
G3 X21.9826 Y45.5875 I18.5131 J-9.3887
G1 X18.3
G3 X16.956 Y44.8448 I0.0 J-1.5875
G1 X14.1228 Y40.3375
G1 X9.9679
G1 X8.4679 Z-0.5
G1 X5.2929
G1 X5.0 Z-1.0467
G3 X3.7929 Y39.781 Z-3.3 I0.0 J-1.5875
G3 X3.4125 Y38.75 I1.2071 J-1.031
G1 Y29.0
G1 Y27.0
G3 X4.7109 Y25.439 I1.5875 J0.0
G1 F2000.0 Z-3.5
G3 F4000.0 X5.0 Y25.4125 I0.2891 J1.561
G1 X71.5705
G1 X73.0705 Z-0.5
G1 X76.2455
G1 X77.7455 Z-3.5
G1 X88.0
G3 X89.5875 Y27.0 I0.0 J1.5875
G1 Y27.4125
G1 X108.0
G1 X111.4125
G1 Y4.5
G3 X113.0 Y2.9125 I1.5875 J0.0
G1 X123.0
G3 X124.5875 Y4.5 I0.0 J1.5875
G1 Y9.8588
G1 Y11.3588 Z-0.5
G1 Y14.5338
G1 Y16.0338 Z-3.5
G1 Y29.0
G1 Y82.9125
G1 X132.3
G3 X133.7471 Y83.8472 I0.0 J1.5875
G3 X133.8875 Y84.5 Z-2.1645 I-1.4471 J0.6528
G1 Y85.3472 Z-0.5
G1 Y88.5222
G1 Y90.0222 Z-3.5
G1 Y92.5
G3 X132.3 Y94.0875 I-1.5875 J0.0
G1 X102.5
G3 X100.9125 Y92.5 I0.0 J-1.5875
G1 Y80.0875
G1 X82.5875
G1 Y87.8355
G1 Y89.3355 Z-0.5
G1 Y90.0
G1 Y92.5105
G1 Y94.0105 Z-3.5
G1 Y108.5
G3 X81.0 Y110.0875 I-1.5875 J0.0
G1 X68.0
G3 X66.4125 Y108.5 I0.0 J-1.5875
G1 Y93.0
G1 Y78.0
G1 Y68.1697
G1 X56.5297 Y65.1045
G3 X55.4125 Y63.5882 I0.4703 J-1.5162
G1 Y45.5875
G1 X36.6174
G3 X34.7158 Y51.218 I-20.4146 J-3.7581
G3 X34.2843 Y51.7455 I-1.4158 J-0.718
G3 X24.3157 I-4.9843 J-6.3067
G3 X23.8842 Y51.218 I0.9843 J-1.2455
G3 X21.9826 Y45.5875 I18.5131 J-9.3887
G1 X18.3
G3 X16.956 Y44.8448 I0.0 J-1.5875
G1 X14.1228 Y40.3375
G1 X9.9679
G1 X8.4679 Z-0.5
G1 X5.2929
G1 X5.0 Z-1.0857
G3 X3.7929 Y39.781 Z-3.5 I0.0 J-1.5875
G3 X3.4125 Y38.75 I1.2071 J-1.031
G1 Y29.0
G1 Y27.0
G3 X4.7109 Y25.439 I1.5875 J0.0
G0 Z3.0
M5
M30
