( Knas mechanical pick-and-place tape feeder v1.0 by Karl Ekdahl is licensed under a Creative Commons Attribution-NonCommercial 4.0 International License. )
( Made using CamBam - http://www.cambam.co.uk )
( feeder4_alu2_clean 12/17/2015 6:19:09 PM )
( T2 : 3.175 )
G21 G90 G64 G40
G0 Z3.0
( T2 : 3.175 )
T2 M6
( Drill1 )
G17
M3 S1000
G0 X62.5 Y7.5
G98
G81 X62.5 Y7.5 Z-3.5 R3.0 F2000.0
G80
( Slits )
S1000
G0 Z3.0
G0 X66.5875 Y7.3375
G0 Z0.875
G1 F1250.0 Z-3.3
G1 F2500.0 Y8.6625
G1 X67.5
G1 X90.5
G1 X91.4125
G1 Y7.3375
G1 X90.5
G1 X67.5
G1 X66.5875
G1 F1250.0 Z-3.5
G1 F2500.0 Y8.6625
G1 X67.5
G1 X90.5
G1 X91.4125
G1 Y7.3375
G1 X90.5
G1 X67.5
G1 X66.5875
( Outline )
S1000
G0 Z3.0
G0 X46.3173 Y14.19
G0 Z1.0
G1 F2000.0 Z-1.0
G3 F4000.0 X45.2126 Y14.6375 I-1.1048 J-1.14
G1 X43.0
G1 X30.7874
G3 X29.6827 Y14.19 I0.0 J-1.5875
G3 X30.0875 Y15.249 I-1.1827 J1.059
G1 Y16.05
G3 X28.5 Y17.6375 I-1.5875 J0.0
G1 X25.5
G3 X23.9125 Y16.05 I0.0 J-1.5875
G1 Y15.249
G3 X24.3173 Y14.19 I1.5875 J0.0
G3 X23.2126 Y14.6375 I-1.1048 J-1.14
G1 X21.0
G1 X16.0
G1 X3.0
G3 X1.4125 Y13.05 I0.0 J-1.5875
G1 Y12.0
G3 X2.4125 Y10.5252 I1.5875 J0.0
G1 Y9.4748
G3 X1.4125 Y8.0 I0.5875 J-1.4748
G1 Y5.0
G3 X3.0 Y3.4125 I1.5875 J0.0
G1 X16.0
G1 X21.0
G1 X23.251
G3 X24.4902 Y4.0078 I0.0 J1.5875
G2 X24.5 Y4.0125 I0.0098 J-0.0078
G2 X24.5108 Y3.9938 I0.0 J-0.0125
G2 X24.5078 Y3.9902 I-0.0108 J0.0063
G3 X23.9125 Y2.751 I0.9922 J-1.2392
G1 Y2.0
G3 X25.5 Y0.4125 I1.5875 J0.0
G1 X28.5
G3 X30.0875 Y2.0 I0.0 J1.5875
G1 Y2.751
G3 X29.4922 Y3.9902 I-1.5875 J0.0
G2 X29.4892 Y3.9938 I0.0078 J0.0098
G2 X29.5 Y4.0125 I0.0108 J0.0062
G2 X29.5098 Y4.0078 I0.0 J-0.0125
G3 X30.749 Y3.4125 I1.2392 J0.9922
G1 X43.0
G1 X45.251
G3 X46.4902 Y4.0078 I0.0 J1.5875
G2 X46.5 Y4.0125 I0.0098 J-0.0078
G2 X46.5108 Y3.9938 I0.0 J-0.0125
G2 X46.5078 Y3.9902 I-0.0108 J0.0062
G3 X45.9125 Y2.751 I0.9922 J-1.2392
G1 Y2.0
G3 X47.5 Y0.4125 I1.5875 J0.0
G1 X50.5
G3 X52.0875 Y2.0 I0.0 J1.5875
G1 Y2.751
G3 X51.4922 Y3.9902 I-1.5875 J0.0
G2 X51.4892 Y3.9938 I0.0078 J0.0098
G2 X51.5 Y4.0125 I0.0108 J0.0062
G2 X51.5098 Y4.0078 I0.0 J-0.0125
G3 X52.749 Y3.4125 I1.2392 J0.9922
G1 X92.251
G3 X93.4902 Y4.0078 I0.0 J1.5875
G2 X93.5 Y4.0125 I0.0098 J-0.0078
G2 X93.5108 Y3.9938 I0.0 J-0.0125
G2 X93.5078 Y3.9902 I-0.0108 J0.0062
G3 X92.9125 Y2.751 I0.9922 J-1.2392
G1 Y2.0
G3 X94.5 Y0.4125 I1.5875 J0.0
G1 X97.5
G3 X99.0875 Y2.0 I0.0 J1.5875
G1 Y2.751
G3 X98.4922 Y3.9902 I-1.5875 J0.0
G2 X98.4892 Y3.9937 I0.0078 J0.0098
G2 X98.5 Y4.0125 I0.0108 J0.0063
G2 X98.5098 Y4.0078 I0.0 J-0.0125
G3 X99.749 Y3.4125 I1.2392 J0.9922
G1 X100.5
G1 X111.5
G3 X113.0875 Y5.0 I0.0 J1.5875
G1 Y13.05
G3 X111.5 Y14.6375 I-1.5875 J0.0
G1 X100.5
G1 X99.7874
G3 X98.6827 Y14.19 I0.0 J-1.5875
G3 X99.0875 Y15.249 I-1.1827 J1.059
G1 Y16.05
G3 X97.5 Y17.6375 I-1.5875 J0.0
G1 X94.5
G3 X92.9125 Y16.05 I0.0 J-1.5875
G1 Y15.249
G3 X93.3173 Y14.19 I1.5875 J0.0
G3 X92.2126 Y14.6375 I-1.1048 J-1.14
G1 X52.7874
G3 X51.6827 Y14.19 I0.0 J-1.5875
G3 X52.0875 Y15.249 I-1.1827 J1.059
G1 Y16.05
G3 X50.5 Y17.6375 I-1.5875 J0.0
G1 X47.5
G3 X45.9125 Y16.05 I0.0 J-1.5875
G1 Y15.249
G3 X46.3173 Y14.19 I1.5875 J0.0
G1 F2000.0 Z-2.0
G3 F4000.0 X45.2126 Y14.6375 I-1.1048 J-1.14
G1 X43.0
G1 X30.7874
G3 X29.6827 Y14.19 I0.0 J-1.5875
G3 X30.0875 Y15.249 I-1.1827 J1.059
G1 Y16.05
G3 X28.5 Y17.6375 I-1.5875 J0.0
G1 X25.5
G3 X23.9125 Y16.05 I0.0 J-1.5875
G1 Y15.249
G3 X24.3173 Y14.19 I1.5875 J0.0
G3 X23.2126 Y14.6375 I-1.1048 J-1.14
G1 X21.0
G1 X16.0
G1 X3.0
G3 X1.4125 Y13.05 I0.0 J-1.5875
G1 Y12.0
G3 X2.4125 Y10.5252 I1.5875 J0.0
G1 Y9.4748
G3 X1.4125 Y8.0 I0.5875 J-1.4748
G1 Y5.0
G3 X3.0 Y3.4125 I1.5875 J0.0
G1 X11.9125
G1 X13.4125 Z-1.5
G1 X16.0
G1 X16.5875
G1 X18.0875 Z-2.0
G1 X21.0
G1 X23.251
G3 X24.4902 Y4.0078 I0.0 J1.5875
G2 X24.5 Y4.0125 I0.0098 J-0.0078
G2 X24.5108 Y3.9938 I0.0 J-0.0125
G2 X24.5078 Y3.9902 I-0.0108 J0.0063
G3 X23.9125 Y2.751 I0.9922 J-1.2392
G1 Y2.0
G3 X25.5 Y0.4125 I1.5875 J0.0
G1 X28.5
G3 X30.0875 Y2.0 I0.0 J1.5875
G1 Y2.751
G3 X29.4922 Y3.9902 I-1.5875 J0.0
G2 X29.4892 Y3.9938 I0.0078 J0.0098
G2 X29.5 Y4.0125 I0.0108 J0.0062
G2 X29.5098 Y4.0078 I0.0 J-0.0125
G3 X30.749 Y3.4125 I1.2392 J0.9922
G1 X43.0
G1 X45.251
G3 X46.4902 Y4.0078 I0.0 J1.5875
G2 X46.5 Y4.0125 I0.0098 J-0.0078
G2 X46.5108 Y3.9938 I0.0 J-0.0125
G2 X46.5078 Y3.9902 I-0.0108 J0.0062
G3 X45.9125 Y2.751 I0.9922 J-1.2392
G1 Y2.0
G3 X47.5 Y0.4125 I1.5875 J0.0
G1 X50.5
G3 X52.0875 Y2.0 I0.0 J1.5875
G1 Y2.751
G3 X51.4922 Y3.9902 I-1.5875 J0.0
G2 X51.4892 Y3.9938 I0.0078 J0.0098
G2 X51.5 Y4.0125 I0.0108 J0.0062
G2 X51.5098 Y4.0078 I0.0 J-0.0125
G3 X52.749 Y3.4125 I1.2392 J0.9922
G1 X92.251
G3 X93.4902 Y4.0078 I0.0 J1.5875
G2 X93.5 Y4.0125 I0.0098 J-0.0078
G2 X93.5108 Y3.9938 I0.0 J-0.0125
G2 X93.5078 Y3.9902 I-0.0108 J0.0062
G3 X92.9125 Y2.751 I0.9922 J-1.2392
G1 Y2.0
G3 X94.5 Y0.4125 I1.5875 J0.0
G1 X97.5
G3 X99.0875 Y2.0 I0.0 J1.5875
G1 Y2.751
G3 X98.4922 Y3.9902 I-1.5875 J0.0
G2 X98.4892 Y3.9937 I0.0078 J0.0098
G2 X98.5 Y4.0125 I0.0108 J0.0063
G2 X98.5098 Y4.0078 I0.0 J-0.0125
G3 X99.749 Y3.4125 I1.2392 J0.9922
G1 X100.5
G1 X111.5
G3 X113.0875 Y5.0 I0.0 J1.5875
G1 Y13.05
G3 X111.5 Y14.6375 I-1.5875 J0.0
G1 X100.5
G1 X99.7874
G3 X98.6827 Y14.19 I0.0 J-1.5875
G3 X99.0875 Y15.249 I-1.1827 J1.059
G1 Y16.05
G3 X97.5 Y17.6375 I-1.5875 J0.0
G1 X94.5
G3 X92.9125 Y16.05 I0.0 J-1.5875
G1 Y15.249
G3 X93.3173 Y14.19 I1.5875 J0.0
G3 X92.2126 Y14.6375 I-1.1048 J-1.14
G1 X71.7694
G1 X70.2694 Z-1.5
G1 X67.0944
G1 X65.5944 Z-2.0
G1 X52.7874
G3 X51.6827 Y14.19 I0.0 J-1.5875
G3 X52.0875 Y15.249 I-1.1827 J1.059
G1 Y16.05
G3 X50.5 Y17.6375 I-1.5875 J0.0
G1 X47.5
G3 X45.9125 Y16.05 I0.0 J-1.5875
G1 Y15.249
G3 X46.3173 Y14.19 I1.5875 J0.0
G1 F2000.0 Z-3.0
G3 F4000.0 X45.2126 Y14.6375 I-1.1048 J-1.14
G1 X43.0
G1 X30.7874
G3 X29.6827 Y14.19 I0.0 J-1.5875
G3 X30.0875 Y15.249 I-1.1827 J1.059
G1 Y16.05
G3 X28.5 Y17.6375 I-1.5875 J0.0
G1 X25.5
G3 X23.9125 Y16.05 I0.0 J-1.5875
G1 Y15.249
G3 X24.3173 Y14.19 I1.5875 J0.0
G3 X23.2126 Y14.6375 I-1.1048 J-1.14
G1 X21.0
G1 X16.0
G1 X3.0
G3 X1.4125 Y13.05 I0.0 J-1.5875
G1 Y12.0
G3 X2.4125 Y10.5252 I1.5875 J0.0
G1 Y9.4748
G3 X1.4125 Y8.0 I0.5875 J-1.4748
G1 Y5.0
G3 X3.0 Y3.4125 I1.5875 J0.0
G1 X11.9125
G1 X13.4125 Z-1.5
G1 X16.0
G1 X16.5875
G1 X18.0875 Z-3.0
G1 X21.0
G1 X23.251
G3 X24.4902 Y4.0078 I0.0 J1.5875
G2 X24.5 Y4.0125 I0.0098 J-0.0078
G2 X24.5108 Y3.9938 I0.0 J-0.0125
G2 X24.5078 Y3.9902 I-0.0108 J0.0063
G3 X23.9125 Y2.751 I0.9922 J-1.2392
G1 Y2.0
G3 X25.5 Y0.4125 I1.5875 J0.0
G1 X28.5
G3 X30.0875 Y2.0 I0.0 J1.5875
G1 Y2.751
G3 X29.4922 Y3.9902 I-1.5875 J0.0
G2 X29.4892 Y3.9938 I0.0078 J0.0098
G2 X29.5 Y4.0125 I0.0108 J0.0062
G2 X29.5098 Y4.0078 I0.0 J-0.0125
G3 X30.749 Y3.4125 I1.2392 J0.9922
G1 X43.0
G1 X45.251
G3 X46.4902 Y4.0078 I0.0 J1.5875
G2 X46.5 Y4.0125 I0.0098 J-0.0078
G2 X46.5108 Y3.9938 I0.0 J-0.0125
G2 X46.5078 Y3.9902 I-0.0108 J0.0062
G3 X45.9125 Y2.751 I0.9922 J-1.2392
G1 Y2.0
G3 X47.5 Y0.4125 I1.5875 J0.0
G1 X50.5
G3 X52.0875 Y2.0 I0.0 J1.5875
G1 Y2.751
G3 X51.4922 Y3.9902 I-1.5875 J0.0
G2 X51.4892 Y3.9938 I0.0078 J0.0098
G2 X51.5 Y4.0125 I0.0108 J0.0062
G2 X51.5098 Y4.0078 I0.0 J-0.0125
G3 X52.749 Y3.4125 I1.2392 J0.9922
G1 X92.251
G3 X93.4902 Y4.0078 I0.0 J1.5875
G2 X93.5 Y4.0125 I0.0098 J-0.0078
G2 X93.5108 Y3.9938 I0.0 J-0.0125
G2 X93.5078 Y3.9902 I-0.0108 J0.0062
G3 X92.9125 Y2.751 I0.9922 J-1.2392
G1 Y2.0
G3 X94.5 Y0.4125 I1.5875 J0.0
G1 X97.5
G3 X99.0875 Y2.0 I0.0 J1.5875
G1 Y2.751
G3 X98.4922 Y3.9902 I-1.5875 J0.0
G2 X98.4892 Y3.9937 I0.0078 J0.0098
G2 X98.5 Y4.0125 I0.0108 J0.0063
G2 X98.5098 Y4.0078 I0.0 J-0.0125
G3 X99.749 Y3.4125 I1.2392 J0.9922
G1 X100.5
G1 X111.5
G3 X113.0875 Y5.0 I0.0 J1.5875
G1 Y13.05
G3 X111.5 Y14.6375 I-1.5875 J0.0
G1 X100.5
G1 X99.7874
G3 X98.6827 Y14.19 I0.0 J-1.5875
G3 X99.0875 Y15.249 I-1.1827 J1.059
G1 Y16.05
G3 X97.5 Y17.6375 I-1.5875 J0.0
G1 X94.5
G3 X92.9125 Y16.05 I0.0 J-1.5875
G1 Y15.249
G3 X93.3173 Y14.19 I1.5875 J0.0
G3 X92.2126 Y14.6375 I-1.1048 J-1.14
G1 X71.7694
G1 X70.2694 Z-1.5
G1 X67.0944
G1 X65.5944 Z-3.0
G1 X52.7874
G3 X51.6827 Y14.19 I0.0 J-1.5875
G3 X52.0875 Y15.249 I-1.1827 J1.059
G1 Y16.05
G3 X50.5 Y17.6375 I-1.5875 J0.0
G1 X47.5
G3 X45.9125 Y16.05 I0.0 J-1.5875
G1 Y15.249
G3 X46.3173 Y14.19 I1.5875 J0.0
G1 F2000.0 Z-3.3
G3 F4000.0 X45.2126 Y14.6375 I-1.1048 J-1.14
G1 X43.0
G1 X30.7874
G3 X29.6827 Y14.19 I0.0 J-1.5875
G3 X30.0875 Y15.249 I-1.1827 J1.059
G1 Y16.05
G3 X28.5 Y17.6375 I-1.5875 J0.0
G1 X25.5
G3 X23.9125 Y16.05 I0.0 J-1.5875
G1 Y15.249
G3 X24.3173 Y14.19 I1.5875 J0.0
G3 X23.2126 Y14.6375 I-1.1048 J-1.14
G1 X21.0
G1 X16.0
G1 X3.0
G3 X1.4125 Y13.05 I0.0 J-1.5875
G1 Y12.0
G3 X2.4125 Y10.5252 I1.5875 J0.0
G1 Y9.4748
G3 X1.4125 Y8.0 I0.5875 J-1.4748
G1 Y5.0
G3 X3.0 Y3.4125 I1.5875 J0.0
G1 X11.9125
G1 X13.4125 Z-1.5
G1 X16.0
G1 X16.5875
G1 X18.0875 Z-3.3
G1 X21.0
G1 X23.251
G3 X24.4902 Y4.0078 I0.0 J1.5875
G2 X24.5 Y4.0125 I0.0098 J-0.0078
G2 X24.5108 Y3.9938 I0.0 J-0.0125
G2 X24.5078 Y3.9902 I-0.0108 J0.0063
G3 X23.9125 Y2.751 I0.9922 J-1.2392
G1 Y2.0
G3 X25.5 Y0.4125 I1.5875 J0.0
G1 X28.5
G3 X30.0875 Y2.0 I0.0 J1.5875
G1 Y2.751
G3 X29.4922 Y3.9902 I-1.5875 J0.0
G2 X29.4892 Y3.9938 I0.0078 J0.0098
G2 X29.5 Y4.0125 I0.0108 J0.0062
G2 X29.5098 Y4.0078 I0.0 J-0.0125
G3 X30.749 Y3.4125 I1.2392 J0.9922
G1 X43.0
G1 X45.251
G3 X46.4902 Y4.0078 I0.0 J1.5875
G2 X46.5 Y4.0125 I0.0098 J-0.0078
G2 X46.5108 Y3.9938 I0.0 J-0.0125
G2 X46.5078 Y3.9902 I-0.0108 J0.0062
G3 X45.9125 Y2.751 I0.9922 J-1.2392
G1 Y2.0
G3 X47.5 Y0.4125 I1.5875 J0.0
G1 X50.5
G3 X52.0875 Y2.0 I0.0 J1.5875
G1 Y2.751
G3 X51.4922 Y3.9902 I-1.5875 J0.0
G2 X51.4892 Y3.9938 I0.0078 J0.0098
G2 X51.5 Y4.0125 I0.0108 J0.0062
G2 X51.5098 Y4.0078 I0.0 J-0.0125
G3 X52.749 Y3.4125 I1.2392 J0.9922
G1 X92.251
G3 X93.4902 Y4.0078 I0.0 J1.5875
G2 X93.5 Y4.0125 I0.0098 J-0.0078
G2 X93.5108 Y3.9938 I0.0 J-0.0125
G2 X93.5078 Y3.9902 I-0.0108 J0.0062
G3 X92.9125 Y2.751 I0.9922 J-1.2392
G1 Y2.0
G3 X94.5 Y0.4125 I1.5875 J0.0
G1 X97.5
G3 X99.0875 Y2.0 I0.0 J1.5875
G1 Y2.751
G3 X98.4922 Y3.9902 I-1.5875 J0.0
G2 X98.4892 Y3.9937 I0.0078 J0.0098
G2 X98.5 Y4.0125 I0.0108 J0.0063
G2 X98.5098 Y4.0078 I0.0 J-0.0125
G3 X99.749 Y3.4125 I1.2392 J0.9922
G1 X100.5
G1 X111.5
G3 X113.0875 Y5.0 I0.0 J1.5875
G1 Y13.05
G3 X111.5 Y14.6375 I-1.5875 J0.0
G1 X100.5
G1 X99.7874
G3 X98.6827 Y14.19 I0.0 J-1.5875
G3 X99.0875 Y15.249 I-1.1827 J1.059
G1 Y16.05
G3 X97.5 Y17.6375 I-1.5875 J0.0
G1 X94.5
G3 X92.9125 Y16.05 I0.0 J-1.5875
G1 Y15.249
G3 X93.3173 Y14.19 I1.5875 J0.0
G3 X92.2126 Y14.6375 I-1.1048 J-1.14
G1 X71.7694
G1 X70.2694 Z-1.5
G1 X67.0944
G1 X65.5944 Z-3.3
G1 X52.7874
G3 X51.6827 Y14.19 I0.0 J-1.5875
G3 X52.0875 Y15.249 I-1.1827 J1.059
G1 Y16.05
G3 X50.5 Y17.6375 I-1.5875 J0.0
G1 X47.5
G3 X45.9125 Y16.05 I0.0 J-1.5875
G1 Y15.249
G3 X46.3173 Y14.19 I1.5875 J0.0
G1 F2000.0 Z-3.5
G3 F4000.0 X45.2126 Y14.6375 I-1.1048 J-1.14
G1 X43.0
G1 X30.7874
G3 X29.6827 Y14.19 I0.0 J-1.5875
G3 X30.0875 Y15.249 I-1.1827 J1.059
G1 Y16.05
G3 X28.5 Y17.6375 I-1.5875 J0.0
G1 X25.5
G3 X23.9125 Y16.05 I0.0 J-1.5875
G1 Y15.249
G3 X24.3173 Y14.19 I1.5875 J0.0
G3 X23.2126 Y14.6375 I-1.1048 J-1.14
G1 X21.0
G1 X16.0
G1 X3.0
G3 X1.4125 Y13.05 I0.0 J-1.5875
G1 Y12.0
G3 X2.4125 Y10.5252 I1.5875 J0.0
G1 Y9.4748
G3 X1.4125 Y8.0 I0.5875 J-1.4748
G1 Y5.0
G3 X3.0 Y3.4125 I1.5875 J0.0
G1 X11.9125
G1 X13.4125 Z-1.5
G1 X16.0
G1 X16.5875
G1 X18.0875 Z-3.5
G1 X21.0
G1 X23.251
G3 X24.4902 Y4.0078 I0.0 J1.5875
G2 X24.5 Y4.0125 I0.0098 J-0.0078
G2 X24.5108 Y3.9938 I0.0 J-0.0125
G2 X24.5078 Y3.9902 I-0.0108 J0.0063
G3 X23.9125 Y2.751 I0.9922 J-1.2392
G1 Y2.0
G3 X25.5 Y0.4125 I1.5875 J0.0
G1 X28.5
G3 X30.0875 Y2.0 I0.0 J1.5875
G1 Y2.751
G3 X29.4922 Y3.9902 I-1.5875 J0.0
G2 X29.4892 Y3.9938 I0.0078 J0.0098
G2 X29.5 Y4.0125 I0.0108 J0.0062
G2 X29.5098 Y4.0078 I0.0 J-0.0125
G3 X30.749 Y3.4125 I1.2392 J0.9922
G1 X43.0
G1 X45.251
G3 X46.4902 Y4.0078 I0.0 J1.5875
G2 X46.5 Y4.0125 I0.0098 J-0.0078
G2 X46.5108 Y3.9938 I0.0 J-0.0125
G2 X46.5078 Y3.9902 I-0.0108 J0.0062
G3 X45.9125 Y2.751 I0.9922 J-1.2392
G1 Y2.0
G3 X47.5 Y0.4125 I1.5875 J0.0
G1 X50.5
G3 X52.0875 Y2.0 I0.0 J1.5875
G1 Y2.751
G3 X51.4922 Y3.9902 I-1.5875 J0.0
G2 X51.4892 Y3.9938 I0.0078 J0.0098
G2 X51.5 Y4.0125 I0.0108 J0.0062
G2 X51.5098 Y4.0078 I0.0 J-0.0125
G3 X52.749 Y3.4125 I1.2392 J0.9922
G1 X92.251
G3 X93.4902 Y4.0078 I0.0 J1.5875
G2 X93.5 Y4.0125 I0.0098 J-0.0078
G2 X93.5108 Y3.9938 I0.0 J-0.0125
G2 X93.5078 Y3.9902 I-0.0108 J0.0062
G3 X92.9125 Y2.751 I0.9922 J-1.2392
G1 Y2.0
G3 X94.5 Y0.4125 I1.5875 J0.0
G1 X97.5
G3 X99.0875 Y2.0 I0.0 J1.5875
G1 Y2.751
G3 X98.4922 Y3.9902 I-1.5875 J0.0
G2 X98.4892 Y3.9937 I0.0078 J0.0098
G2 X98.5 Y4.0125 I0.0108 J0.0063
G2 X98.5098 Y4.0078 I0.0 J-0.0125
G3 X99.749 Y3.4125 I1.2392 J0.9922
G1 X100.5
G1 X111.5
G3 X113.0875 Y5.0 I0.0 J1.5875
G1 Y13.05
G3 X111.5 Y14.6375 I-1.5875 J0.0
G1 X100.5
G1 X99.7874
G3 X98.6827 Y14.19 I0.0 J-1.5875
G3 X99.0875 Y15.249 I-1.1827 J1.059
G1 Y16.05
G3 X97.5 Y17.6375 I-1.5875 J0.0
G1 X94.5
G3 X92.9125 Y16.05 I0.0 J-1.5875
G1 Y15.249
G3 X93.3173 Y14.19 I1.5875 J0.0
G3 X92.2126 Y14.6375 I-1.1048 J-1.14
G1 X71.7694
G1 X70.2694 Z-1.5
G1 X67.0944
G1 X65.5944 Z-3.5
G1 X52.7874
G3 X51.6827 Y14.19 I0.0 J-1.5875
G3 X52.0875 Y15.249 I-1.1827 J1.059
G1 Y16.05
G3 X50.5 Y17.6375 I-1.5875 J0.0
G1 X47.5
G3 X45.9125 Y16.05 I0.0 J-1.5875
G1 Y15.249
G3 X46.3173 Y14.19 I1.5875 J0.0
G0 Z3.0
M5
M30
