( Knas mechanical pick-and-place tape feeder v1.0 by Karl Ekdahl is licensed under a Creative Commons Attribution-NonCommercial 4.0 International License. )
( Made using CamBam - http://www.cambam.co.uk )
( feeder4_alu2_clean 12/17/2015 2:47:56 PM )
( T2 : 3.175 )
G21 G90 G64 G40
G0 Z3.0
( T2 : 3.175 )
T2 M6
( Back wall 1mm )
G17
M3 S1000
G0 X37.2645 Y43.5675
G0 Z1.0
G1 F2000.0 Z-3.175
G3 F4000.0 X37.2223 Y43.7837 I-6.5645 J-1.1675
G3 X37.5017 Y43.5675 I7.2777 J9.1163
G1 X37.2645
G0 Z3.0
G0 X56.1311 Y52.0124
G0 Z1.0
G1 F2000.0 Z-3.175
G3 F4000.0 X56.165 Y52.9 I-11.6311 J0.8876
G3 X56.1214 Y53.9075 I-11.665 J0.0
G3 X57.4981 Y53.0383 I4.2213 J5.1611
G1 X57.6486 Y52.9673
G3 X56.1311 Y52.0124 I2.7586 J-6.0673
G0 Z3.0
G0 X60.0812 Y39.545
G0 Z1.0
G1 F2000.0 Z-3.175
G1 F4000.0 X61.1
G3 X62.7478 Y40.0686 I0.0 J2.855
G3 X64.4 Y39.5425 I1.6522 J2.3314
G1 X64.4126
G3 X63.4794 Y38.9206 I1.0874 J-2.6425
G1 X61.9794 Y37.4206
G3 X61.8342 Y37.264 I2.0206 J-2.0206
G3 X60.0812 Y39.545 I-2.8342 J-0.364
G0 Z3.0
G0 X63.3975 Y82.2036
G0 Z1.0
G1 F2000.0 Z-3.175
G1 F4000.0 Y87.6714
G3 X63.6025 Y87.5642 I2.6025 J4.7286
G1 Y82.2383
G3 X63.3975 Y82.2036 I0.7975 J-5.3383
G1 F2000.0 X63.6334 Y80.9557
G3 F4000.0 X62.75 Y80.6834 I0.7666 J-4.0557
G3 X62.1275 Y80.8976 I-1.65 J-3.7834
G1 Y90.9717
G3 X64.8725 Y88.4295 I3.8725 J1.4283
G1 Y81.0275
G1 X64.4
G3 X63.6334 Y80.9557 I0.0 J-4.1275
G1 F2000.0 X63.8693 Y79.7078
G3 F4000.0 X62.75 Y79.233 I0.5307 J-2.8078
G3 X61.1 Y79.7575 I-1.65 J-2.333
G1 X60.8575
G1 Y96.5425
G1 X63.1425
G1 Y92.4
G3 X66.0 Y89.5425 I2.8575 J0.0
G1 X66.1425
G1 Y79.7575
G1 X64.4
G3 X63.8693 Y79.7078 I0.0 J-2.8575
G0 Z3.0
G0 X105.3675 Y45.2325
G0 Z1.0
G1 F2000.0 Z-3.175
G1 F4000.0 X106.0325
G1 Y43.9663
G3 X106.0444 Y43.5675 I6.6675 J0.0
G1 X105.3418
G3 X105.3675 Y44.152 I-6.6418 J0.5845
G1 Y45.2325
G1 F2000.0 X104.0975
G1 F4000.0 Y46.5025
G1 X107.3025
G1 Y43.9663
G3 X107.567 Y42.2975 I5.3975 J0.0
G1 X103.7689
G3 X104.0975 Y44.152 I-5.0689 J1.8545
G1 Y45.2325
G1 F2000.0 X102.8275
G1 F4000.0 Y47.7725
G1 X108.5725
G1 Y43.9663
G3 X109.8018 Y41.0275 I4.1275 J0.0
G1 X101.397
G3 X102.8275 Y44.152 I-2.697 J3.1245
G1 Y45.2325
G1 F2000.0 X101.5575
G1 F4000.0 Y49.0425
G1 X109.8425
G1 Y43.9663
G3 X112.6621 Y41.1091 I2.8575 J0.0
G1 X116.5007 Y41.0582
G1 X117.8014 Y39.7575
G1 X83.5
G1 X81.0874
G3 X82.7141 Y41.5063 I-1.0874 J2.6425
G1 X98.6621 Y41.2947
G3 X101.5575 Y44.152 I0.0379 J2.8572
G1 Y45.2325
G0 Z3.0
G0 X52.285 Y51.8538
G0 Z1.0
G1 F2000.0 Z-3.175
G3 F4000.0 X52.355 Y52.9 I-7.785 J1.0462
G3 X40.5725 Y59.7026 I-7.855 J0.0
G3 Y46.0974 I3.9275 J-6.8026
G3 X52.285 Y51.8538 I3.9275 J6.8026
G1 F2000.0 X51.0288 Y52.0226
G3 F4000.0 X51.0875 Y52.9 I-6.5288 J0.8774
G3 X41.2063 Y58.6049 I-6.5875 J0.0
G3 Y47.1951 I3.2938 J-5.7049
G3 X51.0288 Y52.0226 I3.2938 J5.7049
G0 Z3.0
G0 X53.5437 Y51.6847
G0 Z1.0
G1 F2000.0 Z-3.175
G2 F4000.0 X39.9375 Y44.9976 I-9.0437 J1.2153
G2 Y60.8024 I4.5625 J7.9024
G2 X53.625 Y52.9 I4.5625 J-7.9024
G2 X53.5437 Y51.6847 I-9.125 J0.0
G1 F2000.0 X54.8024 Y51.5155
G2 F4000.0 X39.3025 Y43.8977 I-10.3024 J1.3845
G2 Y61.9023 I5.1975 J9.0023
G2 X54.895 Y52.9 I5.1975 J-9.0023
G2 X54.8024 Y51.5155 I-10.395 J0.0
G1 F2000.0 X56.2426 Y50.3295
G3 F4000.0 X55.3594 Y48.804 I4.1646 J-3.4295
G2 X53.6282 Y45.732 I-10.8594 J4.096
G3 X52.4773 Y42.2975 I4.2431 J-3.332
G1 X49.0714
G3 X47.5669 Y42.0836 I0.0 J-5.3975
G2 X41.4331 I-3.0669 J10.5664
G3 X39.9286 Y42.2975 I-1.5045 J-5.1836
G1 X36.0965
G3 X35.0783 Y45.5565 I-5.3965 J0.1025
G2 X44.6799 Y64.5023 I9.6975 J6.9913
G2 X55.3129 Y57.1102 I-0.1799 J-11.6023
G3 X58.0399 Y54.1869 I5.0297 J1.9584
G1 X58.3973 Y54.0183
G3 X59.0025 Y53.7764 I2.3027 J4.8817
G1 Y52.1089
G3 X56.2426 Y50.3295 I1.4047 J-5.2089
G1 F2000.0 X57.223 Y49.5222
G3 F4000.0 X56.5477 Y48.3558 I3.1842 J-2.6222
G2 X54.627 Y44.9476 I-12.0477 J4.5442
G3 X53.9813 Y41.0275 I3.2442 J-2.5476
G1 X49.0714
G3 X47.9209 Y40.8639 I0.0 J-4.1275
G2 X41.0791 I-3.4209 J11.7861
G3 X39.9286 Y41.0275 I-1.1505 J-3.9639
G1 X34.5926
G3 X34.0481 Y44.8138 I-3.8926 J1.3725
G2 X44.6847 Y65.7724 I10.7277 J7.734
G2 X56.4964 Y57.571 I-0.1847 J-12.8724
G3 X58.5818 Y55.3355 I3.8462 J1.4976
G1 X58.9391 Y55.167
G3 X60.2725 Y54.7947 I1.7609 J3.733
G1 Y51.0228
G3 X57.223 Y49.5222 I0.1347 J-4.1228
G1 F2000.0 X58.2034 Y48.7149
G3 F4000.0 X57.736 Y47.9076 I2.2039 J-1.8149
G2 X55.6258 Y44.1632 I-13.236 J4.9924
G3 X56.7905 Y39.7575 I2.2454 J-1.7632
G1 X49.0714
G3 X48.2749 Y39.6442 I0.0 J-2.8575
G2 X40.7251 I-3.7749 J13.0058
G3 X39.9286 Y39.7575 I-0.7965 J-2.7442
G1 X31.7874
G3 X33.0179 Y44.0711 I-1.0874 J2.6425
G2 X44.6894 Y67.0424 I11.7579 J8.4767
G2 X57.6798 Y58.0318 I-0.1894 J-14.1424
G3 X59.1236 Y56.4842 I2.6628 J1.0368
G1 X59.4809 Y56.3156
G3 X61.5425 Y56.1695 I1.2191 J2.5844
G1 Y49.5195
G3 X58.2034 Y48.7149 I-1.1353 J-2.6195
G0 Z3.0
G0 X62.8125
G0 Z1.0
G1 F2000.0 Z-3.175
G1 F4000.0 Y42.4
G3 X64.4 Y40.8125 I1.5875 J0.0
G1 X80.0
G3 X81.5875 Y42.4 I0.0 J1.5875
G1 Y42.7913
G1 X98.6789 Y42.5646
G3 X100.2875 Y44.152 I0.0211 J1.5874
G1 Y50.3125
G1 X111.1125
G1 Y43.9663
G3 X112.6789 Y42.379 I1.5875 J0.0
G1 X117.0337 Y42.3212
G1 X119.5775 Y39.7775
G3 X120.7702 Y39.3141 I1.1225 J1.1225
G1 X130.4125 Y39.7407
G1 Y38.4875
G1 X83.5
G1 X65.5
G3 X64.3775 Y38.0225 I0.0 J-1.5875
G1 X62.8775 Y36.5225
G3 X62.4125 Y35.4 I1.1225 J-1.1225
G1 Y30.9875
G1 X60.5875
G1 Y36.9
G3 X59.0 Y38.4875 I-1.5875 J0.0
G1 X49.0714
G3 X48.6289 Y38.4246 I0.0 J-1.5875
G2 X40.3711 I-4.1289 J14.2254
G3 X39.9286 Y38.4875 I-0.4425 J-1.5246
G1 X20.0
G1 X11.0
G1 X10.5875
G1 Y40.8125
G1 X11.0
G1 X20.0
G1 X30.7
G3 X31.9877 Y43.3284 I0.0 J1.5875
G2 X44.6941 Y68.3125 I12.7881 J9.2194
G2 X58.8633 Y58.4926 I-0.1941 J-15.4125
G3 X59.6654 Y57.6328 I1.4793 J0.576
G1 X60.0227 Y57.4642
G3 X62.0095 Y58.0026 I0.6773 J1.4358
G1 X62.3238 Y58.4612
G3 X62.5823 Y59.1104 I-1.3095 J0.8974
G1 X62.668 Y59.6518
G3 X62.6875 Y59.9 I-1.568 J0.2482
G1 Y76.9
G3 X61.1 Y78.4875 I-1.5875 J0.0
G1 X59.5875
G1 Y97.8125
G1 X64.4125
G1 Y92.4
G3 X66.0 Y90.8125 I1.5875 J0.0
G1 X67.4125
G1 Y78.4875
G1 X64.4
G3 X62.8125 Y76.9 I0.0 J-1.5875
G1 Y48.7149
G1 F2000.0 X61.7682 Y47.7776
G3 F4000.0 X61.4883 Y48.0625 I-3.2953 J-2.9576
G3 X58.9219 Y47.4603 I-1.0811 J-1.1625
G2 X56.6227 Y43.3804 I-14.4219 J5.4397
G3 X57.8712 Y40.8125 I1.2486 J-0.9804
G1 X61.1
G3 X62.6875 Y42.4 I0.0 J1.5875
G1 Y45.9
G3 X62.5683 Y46.5036 I-1.5875 J0.0
G3 X61.7682 Y47.7776 I-4.0953 J-1.6836
G1 F2000.0 Z-6.35
G3 F4000.0 X61.4883 Y48.0625 I-3.2953 J-2.9576
G3 X58.9219 Y47.4603 I-1.0811 J-1.1625
G2 X56.6227 Y43.3804 I-14.4219 J5.4397
G3 X57.8712 Y40.8125 I1.2486 J-0.9804
G1 X61.1
G3 X62.6875 Y42.4 I0.0 J1.5875
G1 Y45.9
G3 X62.5683 Y46.5036 I-1.5875 J0.0
G3 X61.7682 Y47.7776 I-4.0953 J-1.6836
G0 Z3.0
G0 X57.6486 Y52.9673
G0 Z-2.175
G1 F2000.0 Z-6.35
G3 F4000.0 X56.1311 Y52.0124 I2.7586 J-6.0673
G3 X56.165 Y52.9 I-11.6311 J0.8876
G3 X56.1214 Y53.9075 I-11.665 J0.0
G3 X57.4981 Y53.0383 I4.2213 J5.1611
G1 X57.6486 Y52.9673
G0 Z3.0
G0 X60.0812 Y39.545
G0 Z-2.175
G1 F2000.0 Z-6.35
G1 F4000.0 X61.1
G3 X62.7478 Y40.0686 I0.0 J2.855
G3 X64.4 Y39.5425 I1.6522 J2.3314
G1 X64.4126
G3 X63.4794 Y38.9206 I1.0874 J-2.6425
G1 X61.9794 Y37.4206
G3 X61.8342 Y37.264 I2.0206 J-2.0206
G3 X60.0812 Y39.545 I-2.8342 J-0.364
G0 Z3.0
G0 X37.5017 Y43.5675
G0 Z-2.175
G1 F2000.0 Z-6.35
G1 F4000.0 X37.2645
G3 X37.2223 Y43.7837 I-6.5645 J-1.1675
G3 X37.5017 Y43.5675 I7.2777 J9.1163
G0 Z3.0
G0 X63.3975 Y82.2036
G0 Z-2.175
G1 F2000.0 Z-6.35
G1 F4000.0 Y87.6714
G3 X63.6025 Y87.5642 I2.6025 J4.7286
G1 Y82.2383
G3 X63.3975 Y82.2036 I0.7975 J-5.3383
G1 F2000.0 X63.6334 Y80.9557
G3 F4000.0 X62.75 Y80.6834 I0.7666 J-4.0557
G3 X62.1275 Y80.8976 I-1.65 J-3.7834
G1 Y90.9717
G3 X64.8725 Y88.4295 I3.8725 J1.4283
G1 Y81.0275
G1 X64.4
G3 X63.6334 Y80.9557 I0.0 J-4.1275
G1 F2000.0 X63.8693 Y79.7078
G3 F4000.0 X62.75 Y79.233 I0.5307 J-2.8078
G3 X61.1 Y79.7575 I-1.65 J-2.333
G1 X60.8575
G1 Y96.5425
G1 X63.1425
G1 Y92.4
G3 X66.0 Y89.5425 I2.8575 J0.0
G1 X66.1425
G1 Y79.7575
G1 X64.4
G3 X63.8693 Y79.7078 I0.0 J-2.8575
G0 Z3.0
G0 X105.3675 Y45.2325
G0 Z-2.175
G1 F2000.0 Z-6.35
G1 F4000.0 X106.0325
G1 Y43.9663
G3 X106.0444 Y43.5675 I6.6675 J0.0
G1 X105.3418
G3 X105.3675 Y44.152 I-6.6418 J0.5845
G1 Y45.2325
G1 F2000.0 X104.0975
G1 F4000.0 Y46.5025
G1 X107.3025
G1 Y43.9663
G3 X107.567 Y42.2975 I5.3975 J0.0
G1 X103.7689
G3 X104.0975 Y44.152 I-5.0689 J1.8545
G1 Y45.2325
G1 F2000.0 X102.8275
G1 F4000.0 Y47.7725
G1 X108.5725
G1 Y43.9663
G3 X109.8018 Y41.0275 I4.1275 J0.0
G1 X101.397
G3 X102.8275 Y44.152 I-2.697 J3.1245
G1 Y45.2325
G1 F2000.0 X101.5575
G1 F4000.0 Y49.0425
G1 X109.8425
G1 Y43.9663
G3 X112.6621 Y41.1091 I2.8575 J0.0
G1 X116.5007 Y41.0582
G1 X117.8014 Y39.7575
G1 X83.5
G1 X81.0874
G3 X82.7141 Y41.5063 I-1.0874 J2.6425
G1 X98.6621 Y41.2947
G3 X101.5575 Y44.152 I0.0379 J2.8572
G1 Y45.2325
G0 Z3.0
G0 X52.285 Y51.8538
G0 Z-2.175
G1 F2000.0 Z-6.35
G3 F4000.0 X52.355 Y52.9 I-7.785 J1.0462
G3 X40.5725 Y59.7026 I-7.855 J0.0
G3 Y46.0974 I3.9275 J-6.8026
G3 X52.285 Y51.8538 I3.9275 J6.8026
G1 F2000.0 X51.0288 Y52.0226
G3 F4000.0 X51.0875 Y52.9 I-6.5288 J0.8774
G3 X41.2063 Y58.6049 I-6.5875 J0.0
G3 Y47.1951 I3.2938 J-5.7049
G3 X51.0288 Y52.0226 I3.2938 J5.7049
G0 Z3.0
G0 X53.5437 Y51.6847
G0 Z-2.175
G1 F2000.0 Z-6.35
G2 F4000.0 X39.9375 Y44.9976 I-9.0437 J1.2153
G2 Y60.8024 I4.5625 J7.9024
G2 X53.625 Y52.9 I4.5625 J-7.9024
G2 X53.5437 Y51.6847 I-9.125 J0.0
G1 F2000.0 X54.8024 Y51.5155
G2 F4000.0 X39.3025 Y43.8977 I-10.3024 J1.3845
G2 Y61.9023 I5.1975 J9.0023
G2 X54.895 Y52.9 I5.1975 J-9.0023
G2 X54.8024 Y51.5155 I-10.395 J0.0
G1 F2000.0 X56.2426 Y50.3295
G3 F4000.0 X55.3594 Y48.804 I4.1646 J-3.4295
G2 X53.6282 Y45.732 I-10.8594 J4.096
G3 X52.4773 Y42.2975 I4.2431 J-3.332
G1 X49.0714
G3 X47.5669 Y42.0836 I0.0 J-5.3975
G2 X41.4331 I-3.0669 J10.5664
G3 X39.9286 Y42.2975 I-1.5045 J-5.1836
G1 X36.0965
G3 X35.0783 Y45.5565 I-5.3965 J0.1025
G2 X44.6799 Y64.5023 I9.6975 J6.9913
G2 X55.3129 Y57.1102 I-0.1799 J-11.6023
G3 X58.0399 Y54.1869 I5.0297 J1.9584
G1 X58.3973 Y54.0183
G3 X59.0025 Y53.7764 I2.3027 J4.8817
G1 Y52.1089
G3 X56.2426 Y50.3295 I1.4047 J-5.2089
G1 F2000.0 X57.223 Y49.5222
G3 F4000.0 X56.5477 Y48.3558 I3.1842 J-2.6222
G2 X54.627 Y44.9476 I-12.0477 J4.5442
G3 X53.9813 Y41.0275 I3.2442 J-2.5476
G1 X49.0714
G3 X47.9209 Y40.8639 I0.0 J-4.1275
G2 X41.0791 I-3.4209 J11.7861
G3 X39.9286 Y41.0275 I-1.1505 J-3.9639
G1 X34.5926
G3 X34.0481 Y44.8138 I-3.8926 J1.3725
G2 X44.6847 Y65.7724 I10.7277 J7.734
G2 X56.4964 Y57.571 I-0.1847 J-12.8724
G3 X58.5818 Y55.3355 I3.8462 J1.4976
G1 X58.9391 Y55.167
G3 X60.2725 Y54.7947 I1.7609 J3.733
G1 Y51.0228
G3 X57.223 Y49.5222 I0.1347 J-4.1228
G1 F2000.0 X58.2034 Y48.7149
G3 F4000.0 X57.736 Y47.9076 I2.2039 J-1.8149
G2 X55.6258 Y44.1632 I-13.236 J4.9924
G3 X56.7905 Y39.7575 I2.2454 J-1.7632
G1 X49.0714
G3 X48.2749 Y39.6442 I0.0 J-2.8575
G2 X40.7251 I-3.7749 J13.0058
G3 X39.9286 Y39.7575 I-0.7965 J-2.7442
G1 X31.7874
G3 X33.0179 Y44.0711 I-1.0874 J2.6425
G2 X44.6894 Y67.0424 I11.7579 J8.4767
G2 X57.6798 Y58.0318 I-0.1894 J-14.1424
G3 X59.1236 Y56.4842 I2.6628 J1.0368
G1 X59.4809 Y56.3156
G3 X61.5425 Y56.1695 I1.2191 J2.5844
G1 Y49.5195
G3 X58.2034 Y48.7149 I-1.1353 J-2.6195
G0 Z3.0
G0 X62.8125
G0 Z-2.175
G1 F2000.0 Z-6.35
G1 F4000.0 Y42.4
G3 X64.4 Y40.8125 I1.5875 J0.0
G1 X80.0
G3 X81.5875 Y42.4 I0.0 J1.5875
G1 Y42.7913
G1 X98.6789 Y42.5646
G3 X100.2875 Y44.152 I0.0211 J1.5874
G1 Y50.3125
G1 X111.1125
G1 Y43.9663
G3 X112.6789 Y42.379 I1.5875 J0.0
G1 X117.0337 Y42.3212
G1 X119.5775 Y39.7775
G3 X120.7702 Y39.3141 I1.1225 J1.1225
G1 X130.4125 Y39.7407
G1 Y38.4875
G1 X83.5
G1 X65.5
G3 X64.3775 Y38.0225 I0.0 J-1.5875
G1 X62.8775 Y36.5225
G3 X62.4125 Y35.4 I1.1225 J-1.1225
G1 Y30.9875
G1 X60.5875
G1 Y36.9
G3 X59.0 Y38.4875 I-1.5875 J0.0
G1 X49.0714
G3 X48.6289 Y38.4246 I0.0 J-1.5875
G2 X40.3711 I-4.1289 J14.2254
G3 X39.9286 Y38.4875 I-0.4425 J-1.5246
G1 X20.0
G1 X11.0
G1 X10.5875
G1 Y40.8125
G1 X11.0
G1 X20.0
G1 X30.7
G3 X31.9877 Y43.3284 I0.0 J1.5875
G2 X44.6941 Y68.3125 I12.7881 J9.2194
G2 X58.8633 Y58.4926 I-0.1941 J-15.4125
G3 X59.6654 Y57.6328 I1.4793 J0.576
G1 X60.0227 Y57.4642
G3 X62.0095 Y58.0026 I0.6773 J1.4358
G1 X62.3238 Y58.4612
G3 X62.5823 Y59.1104 I-1.3095 J0.8974
G1 X62.668 Y59.6518
G3 X62.6875 Y59.9 I-1.568 J0.2482
G1 Y76.9
G3 X61.1 Y78.4875 I-1.5875 J0.0
G1 X59.5875
G1 Y97.8125
G1 X64.4125
G1 Y92.4
G3 X66.0 Y90.8125 I1.5875 J0.0
G1 X67.4125
G1 Y78.4875
G1 X64.4
G3 X62.8125 Y76.9 I0.0 J-1.5875
G1 Y48.7149
G1 F2000.0 X61.7682 Y47.7776
G1 Z-7.9
G3 F4000.0 X61.4883 Y48.0625 I-3.2953 J-2.9576
G3 X58.9219 Y47.4603 I-1.0811 J-1.1625
G2 X56.6227 Y43.3804 I-14.4219 J5.4397
G3 X57.8712 Y40.8125 I1.2486 J-0.9804
G1 X61.1
G3 X62.6875 Y42.4 I0.0 J1.5875
G1 Y45.9
G3 X62.5683 Y46.5036 I-1.5875 J0.0
G3 X61.7682 Y47.7776 I-4.0953 J-1.6836
G0 Z3.0
G0 X57.6486 Y52.9673
G0 Z-5.35
G1 F2000.0 Z-7.9
G3 F4000.0 X56.1311 Y52.0124 I2.7586 J-6.0673
G3 X56.165 Y52.9 I-11.6311 J0.8876
G3 X56.1214 Y53.9075 I-11.665 J0.0
G3 X57.4981 Y53.0383 I4.2213 J5.1611
G1 X57.6486 Y52.9673
G0 Z3.0
G0 X60.0812 Y39.545
G0 Z-5.35
G1 F2000.0 Z-7.9
G1 F4000.0 X61.1
G3 X62.7478 Y40.0686 I0.0 J2.855
G3 X64.4 Y39.5425 I1.6522 J2.3314
G1 X64.4126
G3 X63.4794 Y38.9206 I1.0874 J-2.6425
G1 X61.9794 Y37.4206
G3 X61.8342 Y37.264 I2.0206 J-2.0206
G3 X60.0812 Y39.545 I-2.8342 J-0.364
G0 Z3.0
G0 X37.5017 Y43.5675
G0 Z-5.35
G1 F2000.0 Z-7.9
G1 F4000.0 X37.2645
G3 X37.2223 Y43.7837 I-6.5645 J-1.1675
G3 X37.5017 Y43.5675 I7.2777 J9.1163
G0 Z3.0
G0 X63.3975 Y82.2036
G0 Z-5.35
G1 F2000.0 Z-7.9
G1 F4000.0 Y87.6714
G3 X63.6025 Y87.5642 I2.6025 J4.7286
G1 Y82.2383
G3 X63.3975 Y82.2036 I0.7975 J-5.3383
G1 F2000.0 X63.6334 Y80.9557
G3 F4000.0 X62.75 Y80.6834 I0.7666 J-4.0557
G3 X62.1275 Y80.8976 I-1.65 J-3.7834
G1 Y90.9717
G3 X64.8725 Y88.4295 I3.8725 J1.4283
G1 Y81.0275
G1 X64.4
G3 X63.6334 Y80.9557 I0.0 J-4.1275
G1 F2000.0 X63.8693 Y79.7078
G3 F4000.0 X62.75 Y79.233 I0.5307 J-2.8078
G3 X61.1 Y79.7575 I-1.65 J-2.333
G1 X60.8575
G1 Y96.5425
G1 X63.1425
G1 Y92.4
G3 X66.0 Y89.5425 I2.8575 J0.0
G1 X66.1425
G1 Y79.7575
G1 X64.4
G3 X63.8693 Y79.7078 I0.0 J-2.8575
G0 Z3.0
G0 X105.3675 Y45.2325
G0 Z-5.35
G1 F2000.0 Z-7.9
G1 F4000.0 X106.0325
G1 Y43.9663
G3 X106.0444 Y43.5675 I6.6675 J0.0
G1 X105.3418
G3 X105.3675 Y44.152 I-6.6418 J0.5845
G1 Y45.2325
G1 F2000.0 X104.0975
G1 F4000.0 Y46.5025
G1 X107.3025
G1 Y43.9663
G3 X107.567 Y42.2975 I5.3975 J0.0
G1 X103.7689
G3 X104.0975 Y44.152 I-5.0689 J1.8545
G1 Y45.2325
G1 F2000.0 X102.8275
G1 F4000.0 Y47.7725
G1 X108.5725
G1 Y43.9663
G3 X109.8018 Y41.0275 I4.1275 J0.0
G1 X101.397
G3 X102.8275 Y44.152 I-2.697 J3.1245
G1 Y45.2325
G1 F2000.0 X101.5575
G1 F4000.0 Y49.0425
G1 X109.8425
G1 Y43.9663
G3 X112.6621 Y41.1091 I2.8575 J0.0
G1 X116.5007 Y41.0582
G1 X117.8014 Y39.7575
G1 X83.5
G1 X81.0874
G3 X82.7141 Y41.5063 I-1.0874 J2.6425
G1 X98.6621 Y41.2947
G3 X101.5575 Y44.152 I0.0379 J2.8572
G1 Y45.2325
G0 Z3.0
G0 X52.285 Y51.8538
G0 Z-5.35
G1 F2000.0 Z-7.9
G3 F4000.0 X52.355 Y52.9 I-7.785 J1.0462
G3 X40.5725 Y59.7026 I-7.855 J0.0
G3 Y46.0974 I3.9275 J-6.8026
G3 X52.285 Y51.8538 I3.9275 J6.8026
G1 F2000.0 X51.0288 Y52.0226
G3 F4000.0 X51.0875 Y52.9 I-6.5288 J0.8774
G3 X41.2063 Y58.6049 I-6.5875 J0.0
G3 Y47.1951 I3.2938 J-5.7049
G3 X51.0288 Y52.0226 I3.2938 J5.7049
G0 Z3.0
G0 X53.5437 Y51.6847
G0 Z-5.35
G1 F2000.0 Z-7.9
G2 F4000.0 X39.9375 Y44.9976 I-9.0437 J1.2153
G2 Y60.8024 I4.5625 J7.9024
G2 X53.625 Y52.9 I4.5625 J-7.9024
G2 X53.5437 Y51.6847 I-9.125 J0.0
G1 F2000.0 X54.8024 Y51.5155
G2 F4000.0 X39.3025 Y43.8977 I-10.3024 J1.3845
G2 Y61.9023 I5.1975 J9.0023
G2 X54.895 Y52.9 I5.1975 J-9.0023
G2 X54.8024 Y51.5155 I-10.395 J0.0
G1 F2000.0 X56.2426 Y50.3295
G3 F4000.0 X55.3594 Y48.804 I4.1646 J-3.4295
G2 X53.6282 Y45.732 I-10.8594 J4.096
G3 X52.4773 Y42.2975 I4.2431 J-3.332
G1 X49.0714
G3 X47.5669 Y42.0836 I0.0 J-5.3975
G2 X41.4331 I-3.0669 J10.5664
G3 X39.9286 Y42.2975 I-1.5045 J-5.1836
G1 X36.0965
G3 X35.0783 Y45.5565 I-5.3965 J0.1025
G2 X44.6799 Y64.5023 I9.6975 J6.9913
G2 X55.3129 Y57.1102 I-0.1799 J-11.6023
G3 X58.0399 Y54.1869 I5.0297 J1.9584
G1 X58.3973 Y54.0183
G3 X59.0025 Y53.7764 I2.3027 J4.8817
G1 Y52.1089
G3 X56.2426 Y50.3295 I1.4047 J-5.2089
G1 F2000.0 X57.223 Y49.5222
G3 F4000.0 X56.5477 Y48.3558 I3.1842 J-2.6222
G2 X54.627 Y44.9476 I-12.0477 J4.5442
G3 X53.9813 Y41.0275 I3.2442 J-2.5476
G1 X49.0714
G3 X47.9209 Y40.8639 I0.0 J-4.1275
G2 X41.0791 I-3.4209 J11.7861
G3 X39.9286 Y41.0275 I-1.1505 J-3.9639
G1 X34.5926
G3 X34.0481 Y44.8138 I-3.8926 J1.3725
G2 X44.6847 Y65.7724 I10.7277 J7.734
G2 X56.4964 Y57.571 I-0.1847 J-12.8724
G3 X58.5818 Y55.3355 I3.8462 J1.4976
G1 X58.9391 Y55.167
G3 X60.2725 Y54.7947 I1.7609 J3.733
G1 Y51.0228
G3 X57.223 Y49.5222 I0.1347 J-4.1228
G1 F2000.0 X58.2034 Y48.7149
G3 F4000.0 X57.736 Y47.9076 I2.2039 J-1.8149
G2 X55.6258 Y44.1632 I-13.236 J4.9924
G3 X56.7905 Y39.7575 I2.2454 J-1.7632
G1 X49.0714
G3 X48.2749 Y39.6442 I0.0 J-2.8575
G2 X40.7251 I-3.7749 J13.0058
G3 X39.9286 Y39.7575 I-0.7965 J-2.7442
G1 X31.7874
G3 X33.0179 Y44.0711 I-1.0874 J2.6425
G2 X44.6894 Y67.0424 I11.7579 J8.4767
G2 X57.6798 Y58.0318 I-0.1894 J-14.1424
G3 X59.1236 Y56.4842 I2.6628 J1.0368
G1 X59.4809 Y56.3156
G3 X61.5425 Y56.1695 I1.2191 J2.5844
G1 Y49.5195
G3 X58.2034 Y48.7149 I-1.1353 J-2.6195
G0 Z3.0
G0 X62.8125
G0 Z-5.35
G1 F2000.0 Z-7.9
G1 F4000.0 Y42.4
G3 X64.4 Y40.8125 I1.5875 J0.0
G1 X80.0
G3 X81.5875 Y42.4 I0.0 J1.5875
G1 Y42.7913
G1 X98.6789 Y42.5646
G3 X100.2875 Y44.152 I0.0211 J1.5874
G1 Y50.3125
G1 X111.1125
G1 Y43.9663
G3 X112.6789 Y42.379 I1.5875 J0.0
G1 X117.0337 Y42.3212
G1 X119.5775 Y39.7775
G3 X120.7702 Y39.3141 I1.1225 J1.1225
G1 X130.4125 Y39.7407
G1 Y38.4875
G1 X83.5
G1 X65.5
G3 X64.3775 Y38.0225 I0.0 J-1.5875
G1 X62.8775 Y36.5225
G3 X62.4125 Y35.4 I1.1225 J-1.1225
G1 Y30.9875
G1 X60.5875
G1 Y36.9
G3 X59.0 Y38.4875 I-1.5875 J0.0
G1 X49.0714
G3 X48.6289 Y38.4246 I0.0 J-1.5875
G2 X40.3711 I-4.1289 J14.2254
G3 X39.9286 Y38.4875 I-0.4425 J-1.5246
G1 X20.0
G1 X11.0
G1 X10.5875
G1 Y40.8125
G1 X11.0
G1 X20.0
G1 X30.7
G3 X31.9877 Y43.3284 I0.0 J1.5875
G2 X44.6941 Y68.3125 I12.7881 J9.2194
G2 X58.8633 Y58.4926 I-0.1941 J-15.4125
G3 X59.6654 Y57.6328 I1.4793 J0.576
G1 X60.0227 Y57.4642
G3 X62.0095 Y58.0026 I0.6773 J1.4358
G1 X62.3238 Y58.4612
G3 X62.5823 Y59.1104 I-1.3095 J0.8974
G1 X62.668 Y59.6518
G3 X62.6875 Y59.9 I-1.568 J0.2482
G1 Y76.9
G3 X61.1 Y78.4875 I-1.5875 J0.0
G1 X59.5875
G1 Y97.8125
G1 X64.4125
G1 Y92.4
G3 X66.0 Y90.8125 I1.5875 J0.0
G1 X67.4125
G1 Y78.4875
G1 X64.4
G3 X62.8125 Y76.9 I0.0 J-1.5875
G1 Y48.7149
G1 F2000.0 X61.7682 Y47.7776
G1 Z-8.1
G3 F4000.0 X61.4883 Y48.0625 I-3.2953 J-2.9576
G3 X58.9219 Y47.4603 I-1.0811 J-1.1625
G2 X56.6227 Y43.3804 I-14.4219 J5.4397
G3 X57.8712 Y40.8125 I1.2486 J-0.9804
G1 X61.1
G3 X62.6875 Y42.4 I0.0 J1.5875
G1 Y45.9
G3 X62.5683 Y46.5036 I-1.5875 J0.0
G3 X61.7682 Y47.7776 I-4.0953 J-1.6836
G0 Z3.0
G0 X57.6486 Y52.9673
G0 Z-6.9
G1 F2000.0 Z-8.1
G3 F4000.0 X56.1311 Y52.0124 I2.7586 J-6.0673
G3 X56.165 Y52.9 I-11.6311 J0.8876
G3 X56.1214 Y53.9075 I-11.665 J0.0
G3 X57.4981 Y53.0383 I4.2213 J5.1611
G1 X57.6486 Y52.9673
G0 Z3.0
G0 X60.0812 Y39.545
G0 Z-6.9
G1 F2000.0 Z-8.1
G1 F4000.0 X61.1
G3 X62.7478 Y40.0686 I0.0 J2.855
G3 X64.4 Y39.5425 I1.6522 J2.3314
G1 X64.4126
G3 X63.4794 Y38.9206 I1.0874 J-2.6425
G1 X61.9794 Y37.4206
G3 X61.8342 Y37.264 I2.0206 J-2.0206
G3 X60.0812 Y39.545 I-2.8342 J-0.364
G0 Z3.0
G0 X37.5017 Y43.5675
G0 Z-6.9
G1 F2000.0 Z-8.1
G1 F4000.0 X37.2645
G3 X37.2223 Y43.7837 I-6.5645 J-1.1675
G3 X37.5017 Y43.5675 I7.2777 J9.1163
G0 Z3.0
G0 X63.3975 Y82.2036
G0 Z-6.9
G1 F2000.0 Z-8.1
G1 F4000.0 Y87.6714
G3 X63.6025 Y87.5642 I2.6025 J4.7286
G1 Y82.2383
G3 X63.3975 Y82.2036 I0.7975 J-5.3383
G1 F2000.0 X63.6334 Y80.9557
G3 F4000.0 X62.75 Y80.6834 I0.7666 J-4.0557
G3 X62.1275 Y80.8976 I-1.65 J-3.7834
G1 Y90.9717
G3 X64.8725 Y88.4295 I3.8725 J1.4283
G1 Y81.0275
G1 X64.4
G3 X63.6334 Y80.9557 I0.0 J-4.1275
G1 F2000.0 X63.8693 Y79.7078
G3 F4000.0 X62.75 Y79.233 I0.5307 J-2.8078
G3 X61.1 Y79.7575 I-1.65 J-2.333
G1 X60.8575
G1 Y96.5425
G1 X63.1425
G1 Y92.4
G3 X66.0 Y89.5425 I2.8575 J0.0
G1 X66.1425
G1 Y79.7575
G1 X64.4
G3 X63.8693 Y79.7078 I0.0 J-2.8575
G0 Z3.0
G0 X105.3675 Y45.2325
G0 Z-6.9
G1 F2000.0 Z-8.1
G1 F4000.0 X106.0325
G1 Y43.9663
G3 X106.0444 Y43.5675 I6.6675 J0.0
G1 X105.3418
G3 X105.3675 Y44.152 I-6.6418 J0.5845
G1 Y45.2325
G1 F2000.0 X104.0975
G1 F4000.0 Y46.5025
G1 X107.3025
G1 Y43.9663
G3 X107.567 Y42.2975 I5.3975 J0.0
G1 X103.7689
G3 X104.0975 Y44.152 I-5.0689 J1.8545
G1 Y45.2325
G1 F2000.0 X102.8275
G1 F4000.0 Y47.7725
G1 X108.5725
G1 Y43.9663
G3 X109.8018 Y41.0275 I4.1275 J0.0
G1 X101.397
G3 X102.8275 Y44.152 I-2.697 J3.1245
G1 Y45.2325
G1 F2000.0 X101.5575
G1 F4000.0 Y49.0425
G1 X109.8425
G1 Y43.9663
G3 X112.6621 Y41.1091 I2.8575 J0.0
G1 X116.5007 Y41.0582
G1 X117.8014 Y39.7575
G1 X83.5
G1 X81.0874
G3 X82.7141 Y41.5063 I-1.0874 J2.6425
G1 X98.6621 Y41.2947
G3 X101.5575 Y44.152 I0.0379 J2.8572
G1 Y45.2325
G0 Z3.0
G0 X52.285 Y51.8538
G0 Z-6.9
G1 F2000.0 Z-8.1
G3 F4000.0 X52.355 Y52.9 I-7.785 J1.0462
G3 X40.5725 Y59.7026 I-7.855 J0.0
G3 Y46.0974 I3.9275 J-6.8026
G3 X52.285 Y51.8538 I3.9275 J6.8026
G1 F2000.0 X51.0288 Y52.0226
G3 F4000.0 X51.0875 Y52.9 I-6.5288 J0.8774
G3 X41.2063 Y58.6049 I-6.5875 J0.0
G3 Y47.1951 I3.2938 J-5.7049
G3 X51.0288 Y52.0226 I3.2938 J5.7049
G0 Z3.0
G0 X53.5437 Y51.6847
G0 Z-6.9
G1 F2000.0 Z-8.1
G2 F4000.0 X39.9375 Y44.9976 I-9.0437 J1.2153
G2 Y60.8024 I4.5625 J7.9024
G2 X53.625 Y52.9 I4.5625 J-7.9024
G2 X53.5437 Y51.6847 I-9.125 J0.0
G1 F2000.0 X54.8024 Y51.5155
G2 F4000.0 X39.3025 Y43.8977 I-10.3024 J1.3845
G2 Y61.9023 I5.1975 J9.0023
G2 X54.895 Y52.9 I5.1975 J-9.0023
G2 X54.8024 Y51.5155 I-10.395 J0.0
G1 F2000.0 X56.2426 Y50.3295
G3 F4000.0 X55.3594 Y48.804 I4.1646 J-3.4295
G2 X53.6282 Y45.732 I-10.8594 J4.096
G3 X52.4773 Y42.2975 I4.2431 J-3.332
G1 X49.0714
G3 X47.5669 Y42.0836 I0.0 J-5.3975
G2 X41.4331 I-3.0669 J10.5664
G3 X39.9286 Y42.2975 I-1.5045 J-5.1836
G1 X36.0965
G3 X35.0783 Y45.5565 I-5.3965 J0.1025
G2 X44.6799 Y64.5023 I9.6975 J6.9913
G2 X55.3129 Y57.1102 I-0.1799 J-11.6023
G3 X58.0399 Y54.1869 I5.0297 J1.9584
G1 X58.3973 Y54.0183
G3 X59.0025 Y53.7764 I2.3027 J4.8817
G1 Y52.1089
G3 X56.2426 Y50.3295 I1.4047 J-5.2089
G1 F2000.0 X57.223 Y49.5222
G3 F4000.0 X56.5477 Y48.3558 I3.1842 J-2.6222
G2 X54.627 Y44.9476 I-12.0477 J4.5442
G3 X53.9813 Y41.0275 I3.2442 J-2.5476
G1 X49.0714
G3 X47.9209 Y40.8639 I0.0 J-4.1275
G2 X41.0791 I-3.4209 J11.7861
G3 X39.9286 Y41.0275 I-1.1505 J-3.9639
G1 X34.5926
G3 X34.0481 Y44.8138 I-3.8926 J1.3725
G2 X44.6847 Y65.7724 I10.7277 J7.734
G2 X56.4964 Y57.571 I-0.1847 J-12.8724
G3 X58.5818 Y55.3355 I3.8462 J1.4976
G1 X58.9391 Y55.167
G3 X60.2725 Y54.7947 I1.7609 J3.733
G1 Y51.0228
G3 X57.223 Y49.5222 I0.1347 J-4.1228
G1 F2000.0 X58.2034 Y48.7149
G3 F4000.0 X57.736 Y47.9076 I2.2039 J-1.8149
G2 X55.6258 Y44.1632 I-13.236 J4.9924
G3 X56.7905 Y39.7575 I2.2454 J-1.7632
G1 X49.0714
G3 X48.2749 Y39.6442 I0.0 J-2.8575
G2 X40.7251 I-3.7749 J13.0058
G3 X39.9286 Y39.7575 I-0.7965 J-2.7442
G1 X31.7874
G3 X33.0179 Y44.0711 I-1.0874 J2.6425
G2 X44.6894 Y67.0424 I11.7579 J8.4767
G2 X57.6798 Y58.0318 I-0.1894 J-14.1424
G3 X59.1236 Y56.4842 I2.6628 J1.0368
G1 X59.4809 Y56.3156
G3 X61.5425 Y56.1695 I1.2191 J2.5844
G1 Y49.5195
G3 X58.2034 Y48.7149 I-1.1353 J-2.6195
G0 Z3.0
G0 X62.8125
G0 Z-6.9
G1 F2000.0 Z-8.1
G1 F4000.0 Y42.4
G3 X64.4 Y40.8125 I1.5875 J0.0
G1 X80.0
G3 X81.5875 Y42.4 I0.0 J1.5875
G1 Y42.7913
G1 X98.6789 Y42.5646
G3 X100.2875 Y44.152 I0.0211 J1.5874
G1 Y50.3125
G1 X111.1125
G1 Y43.9663
G3 X112.6789 Y42.379 I1.5875 J0.0
G1 X117.0337 Y42.3212
G1 X119.5775 Y39.7775
G3 X120.7702 Y39.3141 I1.1225 J1.1225
G1 X130.4125 Y39.7407
G1 Y38.4875
G1 X83.5
G1 X65.5
G3 X64.3775 Y38.0225 I0.0 J-1.5875
G1 X62.8775 Y36.5225
G3 X62.4125 Y35.4 I1.1225 J-1.1225
G1 Y30.9875
G1 X60.5875
G1 Y36.9
G3 X59.0 Y38.4875 I-1.5875 J0.0
G1 X49.0714
G3 X48.6289 Y38.4246 I0.0 J-1.5875
G2 X40.3711 I-4.1289 J14.2254
G3 X39.9286 Y38.4875 I-0.4425 J-1.5246
G1 X20.0
G1 X11.0
G1 X10.5875
G1 Y40.8125
G1 X11.0
G1 X20.0
G1 X30.7
G3 X31.9877 Y43.3284 I0.0 J1.5875
G2 X44.6941 Y68.3125 I12.7881 J9.2194
G2 X58.8633 Y58.4926 I-0.1941 J-15.4125
G3 X59.6654 Y57.6328 I1.4793 J0.576
G1 X60.0227 Y57.4642
G3 X62.0095 Y58.0026 I0.6773 J1.4358
G1 X62.3238 Y58.4612
G3 X62.5823 Y59.1104 I-1.3095 J0.8974
G1 X62.668 Y59.6518
G3 X62.6875 Y59.9 I-1.568 J0.2482
G1 Y76.9
G3 X61.1 Y78.4875 I-1.5875 J0.0
G1 X59.5875
G1 Y97.8125
G1 X64.4125
G1 Y92.4
G3 X66.0 Y90.8125 I1.5875 J0.0
G1 X67.4125
G1 Y78.4875
G1 X64.4
G3 X62.8125 Y76.9 I0.0 J-1.5875
G1 Y48.7149
G0 Z3.0
G0 X72.9008 Y59.5792
G0 Z1.0
G1 F2000.0 Z-3.175
G1 F4000.0 X71.8898 Y60.518
G1 X74.3025 Y59.8287
G1 Y58.2776
G1 X72.9008 Y59.5792
G1 F2000.0 X72.0366 Y58.6485
G1 F4000.0 X69.8275 Y60.6999
G1 Y62.428
G1 X75.5725 Y60.7866
G1 Y55.3652
G1 X72.0366 Y58.6485
G1 F2000.0 X71.1725 Y57.7179
G1 F4000.0 X68.5575 Y60.1461
G1 Y64.1117
G1 X76.8425 Y61.7446
G1 Y52.4529
G1 X71.1725 Y57.7179
G1 F2000.0 X70.3083 Y56.7872
G1 F4000.0 X67.2875 Y59.5923
G1 Y65.7954
G1 X78.1125 Y62.7025
G1 Y49.5405
G1 X70.3083 Y56.7872
G0 Z3.0
G0 X72.9008 Y59.5792
G0 Z-2.175
G1 F2000.0 Z-6.35
G1 F4000.0 X71.8898 Y60.518
G1 X74.3025 Y59.8287
G1 Y58.2776
G1 X72.9008 Y59.5792
G1 F2000.0 X72.0366 Y58.6485
G1 F4000.0 X69.8275 Y60.6999
G1 Y62.428
G1 X75.5725 Y60.7866
G1 Y55.3652
G1 X72.0366 Y58.6485
G1 F2000.0 X71.1725 Y57.7179
G1 F4000.0 X68.5575 Y60.1461
G1 Y64.1117
G1 X76.8425 Y61.7446
G1 Y52.4529
G1 X71.1725 Y57.7179
G1 F2000.0 X70.3083 Y56.7872
G1 F4000.0 X67.2875 Y59.5923
G1 Y65.7954
G1 X78.1125 Y62.7025
G1 Y49.5405
G1 X70.3083 Y56.7872
G0 Z3.0
G0 X72.9008 Y59.5792
G0 Z-5.35
G1 F2000.0 Z-7.9
G1 F4000.0 X71.8898 Y60.518
G1 X74.3025 Y59.8287
G1 Y58.2776
G1 X72.9008 Y59.5792
G1 F2000.0 X72.0366 Y58.6485
G1 F4000.0 X69.8275 Y60.6999
G1 Y62.428
G1 X75.5725 Y60.7866
G1 Y55.3652
G1 X72.0366 Y58.6485
G1 F2000.0 X71.1725 Y57.7179
G1 F4000.0 X68.5575 Y60.1461
G1 Y64.1117
G1 X76.8425 Y61.7446
G1 Y52.4529
G1 X71.1725 Y57.7179
G1 F2000.0 X70.3083 Y56.7872
G1 F4000.0 X67.2875 Y59.5923
G1 Y65.7954
G1 X78.1125 Y62.7025
G1 Y49.5405
G1 X70.3083 Y56.7872
G0 Z3.0
G0 X72.9008 Y59.5792
G0 Z-6.9
G1 F2000.0 Z-8.1
G1 F4000.0 X71.8898 Y60.518
G1 X74.3025 Y59.8287
G1 Y58.2776
G1 X72.9008 Y59.5792
G1 F2000.0 X72.0366 Y58.6485
G1 F4000.0 X69.8275 Y60.6999
G1 Y62.428
G1 X75.5725 Y60.7866
G1 Y55.3652
G1 X72.0366 Y58.6485
G1 F2000.0 X71.1725 Y57.7179
G1 F4000.0 X68.5575 Y60.1461
G1 Y64.1117
G1 X76.8425 Y61.7446
G1 Y52.4529
G1 X71.1725 Y57.7179
G1 F2000.0 X70.3083 Y56.7872
G1 F4000.0 X67.2875 Y59.5923
G1 Y65.7954
G1 X78.1125 Y62.7025
G1 Y49.5405
G1 X70.3083 Y56.7872
( Cog placements 2.25mm )
S1000
G0 Z3.0
G0 X44.434 Y52.8216
G0 Z0.0
G1 F2000.0 Z-4.175
G2 F4000.0 X44.4488 Y52.9888 I0.066 J0.0784
G2 X44.6025 Y52.9 I0.0513 J-0.0888
G2 X44.4488 Y52.8112 I-0.1025 J0.0
G2 X44.434 Y52.8216 I0.0512 J0.0888
G1 F2000.0 X43.6165 Y51.8497
G2 F4000.0 X43.8138 Y54.0886 I0.8835 J1.0503
G2 X45.8725 Y52.9 I0.6863 J-1.1886
G2 X43.8138 Y51.7114 I-1.3725 J0.0
G2 X43.6165 Y51.8497 I0.6862 J1.1886
G1 F2000.0 X42.7989 Y50.8778
G2 F4000.0 X43.1788 Y55.1885 I1.7011 J2.0222
G2 X47.1425 Y52.9 I1.3213 J-2.2885
G2 X43.1788 Y50.6115 I-2.6425 J0.0
G2 X42.7989 Y50.8778 I1.3213 J2.2885
G1 F2000.0 X41.9814 Y49.906
G2 F4000.0 X42.5438 Y56.2883 I2.5186 J2.994
G2 X48.4125 Y52.9 I1.9563 J-3.3883
G2 X42.5438 Y49.5117 I-3.9125 J0.0
G2 X41.9814 Y49.906 I1.9562 J3.3883
G0 Z3.0
G0 X44.434 Y52.8216
G0 Z-3.175
G1 F2000.0 Z-5.95
G2 F4000.0 X44.4488 Y52.9888 I0.066 J0.0784
G2 X44.6025 Y52.9 I0.0513 J-0.0888
G2 X44.4488 Y52.8112 I-0.1025 J0.0
G2 X44.434 Y52.8216 I0.0512 J0.0888
G1 F2000.0 X43.6165 Y51.8497
G2 F4000.0 X43.8138 Y54.0886 I0.8835 J1.0503
G2 X45.8725 Y52.9 I0.6863 J-1.1886
G2 X43.8138 Y51.7114 I-1.3725 J0.0
G2 X43.6165 Y51.8497 I0.6862 J1.1886
G1 F2000.0 X42.7989 Y50.8778
G2 F4000.0 X43.1788 Y55.1885 I1.7011 J2.0222
G2 X47.1425 Y52.9 I1.3213 J-2.2885
G2 X43.1788 Y50.6115 I-2.6425 J0.0
G2 X42.7989 Y50.8778 I1.3212 J2.2885
G1 F2000.0 X41.9814 Y49.906
G2 F4000.0 X42.5438 Y56.2883 I2.5186 J2.994
G2 X48.4125 Y52.9 I1.9563 J-3.3883
G2 X42.5438 Y49.5117 I-3.9125 J0.0
G2 X41.9814 Y49.906 I1.9563 J3.3883
G0 Z3.0
G0 X44.434 Y52.8216
G0 Z-4.95
G1 F2000.0 Z-6.15
G2 F4000.0 X44.4488 Y52.9888 I0.066 J0.0784
G2 X44.6025 Y52.9 I0.0513 J-0.0888
G2 X44.4488 Y52.8112 I-0.1025 J0.0
G2 X44.434 Y52.8216 I0.0512 J0.0888
G1 F2000.0 X43.6165 Y51.8497
G2 F4000.0 X43.8138 Y54.0886 I0.8835 J1.0503
G2 X45.8725 Y52.9 I0.6863 J-1.1886
G2 X43.8138 Y51.7114 I-1.3725 J0.0
G2 X43.6165 Y51.8497 I0.6862 J1.1886
G1 F2000.0 X42.7989 Y50.8778
G2 F4000.0 X43.1788 Y55.1885 I1.7011 J2.0222
G2 X47.1425 Y52.9 I1.3213 J-2.2885
G2 X43.1788 Y50.6115 I-2.6425 J0.0
G2 X42.7989 Y50.8778 I1.3213 J2.2885
G1 F2000.0 X41.9814 Y49.906
G2 F4000.0 X42.5438 Y56.2883 I2.5186 J2.994
G2 X48.4125 Y52.9 I1.9563 J-3.3883
G2 X42.5438 Y49.5117 I-3.9125 J0.0
G2 X41.9814 Y49.906 I1.9562 J3.3883
( Back wall 1.5mm )
S1000
G0 Z3.0
G0 X28.5725 Y70.7239
G0 Z0.0
G1 F2000.0 Z-4.175
G1 F4000.0 Y72.03
G3 X29.4387 Y71.4617 I5.1275 J6.87
G3 X28.5725 Y70.7239 I15.0613 J-18.5617
G1 F2000.0 X28.9956 Y70.2504
G3 F4000.0 X27.9375 Y69.2434 I15.5044 J-17.3504
G1 Y73.4413
G3 X30.6278 Y71.5812 I5.7625 J5.4587
G3 X28.9956 Y70.2504 I13.8722 J-18.6812
G1 F2000.0 X29.8418 Y69.3035
G3 F4000.0 X26.6675 Y65.7816 I14.6582 J-16.4035
G1 Y81.9
G3 X25.7749 Y85.2325 I-6.6675 J0.0
G1 X27.0325
G1 Y78.9
G3 X33.7 Y72.2325 I6.6675 J0.0
G1 X33.7638
G3 X33.7832 Y72.1116 I10.7362 J1.6675
G3 X33.5007 Y71.9513 I10.7168 J-19.2116
G3 X29.8418 Y69.3035 I10.9993 J-19.0513
G1 F2000.0 X30.6881 Y68.3565
G3 F4000.0 X25.3975 Y60.9477 I13.8119 J-15.4565
G1 Y81.9
G3 X22.8196 Y86.5025 I-5.3975 J0.0
G1 X28.3025
G1 Y78.9
G3 X33.7 Y73.5025 I5.3975 J0.0
G1 X34.9133
G3 X35.2262 Y71.4383 I9.5867 J0.3975
G3 X34.1357 Y70.8514 I9.2738 J-18.5383
G3 X30.6881 Y68.3565 I10.3643 J-17.9514
G1 F2000.0 X31.5343 Y67.4095
G3 F4000.0 X26.7051 Y45.0275 I12.9657 J-14.5095
G1 X24.1275
G1 Y58.9
G1 Y81.9
G3 X20.0 Y86.0275 I-4.1275 J0.0
G1 X5.8275
G1 Y87.7725
G1 X29.5725
G1 Y78.9
G3 X33.7 Y74.7725 I4.1275 J0.0
G1 X36.2209
G3 X36.7879 Y70.765 I8.2791 J-0.8725
G3 X34.7707 Y69.7516 I7.7121 J-17.865
G3 X31.5343 Y67.4095 I9.7293 J-16.8516
G1 F2000.0 X32.3805 Y66.4625
G3 F4000.0 X28.7762 Y43.7575 I12.1195 J-13.5625
G1 X22.8575
G1 Y58.9
G1 Y81.9
G3 X20.0 Y84.7575 I-2.8575 J0.0
G1 X4.5575
G1 Y89.0425
G1 X30.8425
G1 Y78.9
G3 X33.7 Y76.0425 I2.8575 J0.0
G1 X37.7782
G3 X38.5612 Y70.0917 I6.7218 J-2.1425
G3 X35.4057 Y68.6517 I5.9388 J-17.1917
G3 X32.3805 Y66.4625 I9.0943 J-15.7517
G1 F2000.0 X33.2268 Y65.5155
G3 F4000.0 X31.1652 Y42.4875 I11.2732 J-12.6155
G1 X21.5875
G1 Y58.9
G1 Y81.9
G3 X20.0 Y83.4875 I-1.5875 J0.0
G1 X3.2875
G1 Y90.3125
G1 X32.1125
G1 Y89.9
G1 Y78.9
G3 X33.7 Y77.3125 I1.5875 J0.0
G1 X39.8256
G3 X40.8389 Y69.4176 I4.6744 J-3.4125
G3 X36.0407 Y67.5519 I3.6611 J-16.5176
G3 X33.2268 Y65.5155 I8.4593 J-14.6519
G0 Z3.0
G0 X28.5725 Y70.7239
G0 Z-3.175
G1 F2000.0 Z-5.4
G1 F4000.0 Y72.03
G3 X29.4387 Y71.4617 I5.1275 J6.87
G3 X28.5725 Y70.7239 I15.0613 J-18.5617
G1 F2000.0 X28.9956 Y70.2504
G3 F4000.0 X27.9375 Y69.2434 I15.5044 J-17.3504
G1 Y73.4413
G3 X30.6278 Y71.5812 I5.7625 J5.4587
G3 X28.9956 Y70.2504 I13.8722 J-18.6812
G1 F2000.0 X29.8418 Y69.3035
G3 F4000.0 X26.6675 Y65.7816 I14.6582 J-16.4035
G1 Y81.9
G3 X25.7749 Y85.2325 I-6.6675 J0.0
G1 X27.0325
G1 Y78.9
G3 X33.7 Y72.2325 I6.6675 J0.0
G1 X33.7638
G3 X33.7832 Y72.1116 I10.7362 J1.6675
G3 X33.5007 Y71.9513 I10.7168 J-19.2116
G3 X29.8418 Y69.3035 I10.9993 J-19.0513
G1 F2000.0 X30.6881 Y68.3565
G3 F4000.0 X25.3975 Y60.9477 I13.8119 J-15.4565
G1 Y81.9
G3 X22.8196 Y86.5025 I-5.3975 J0.0
G1 X28.3025
G1 Y78.9
G3 X33.7 Y73.5025 I5.3975 J0.0
G1 X34.9133
G3 X35.2262 Y71.4383 I9.5867 J0.3975
G3 X34.1357 Y70.8514 I9.2738 J-18.5383
G3 X30.6881 Y68.3565 I10.3643 J-17.9514
G1 F2000.0 X31.5343 Y67.4095
G3 F4000.0 X26.7051 Y45.0275 I12.9657 J-14.5095
G1 X24.1275
G1 Y58.9
G1 Y81.9
G3 X20.0 Y86.0275 I-4.1275 J0.0
G1 X5.8275
G1 Y87.7725
G1 X29.5725
G1 Y78.9
G3 X33.7 Y74.7725 I4.1275 J0.0
G1 X36.2209
G3 X36.7879 Y70.765 I8.2791 J-0.8725
G3 X34.7707 Y69.7516 I7.7121 J-17.865
G3 X31.5343 Y67.4095 I9.7293 J-16.8516
G1 F2000.0 X32.3805 Y66.4625
G3 F4000.0 X28.7762 Y43.7575 I12.1195 J-13.5625
G1 X22.8575
G1 Y58.9
G1 Y81.9
G3 X20.0 Y84.7575 I-2.8575 J0.0
G1 X4.5575
G1 Y89.0425
G1 X30.8425
G1 Y78.9
G3 X33.7 Y76.0425 I2.8575 J0.0
G1 X37.7782
G3 X38.5612 Y70.0917 I6.7218 J-2.1425
G3 X35.4057 Y68.6517 I5.9388 J-17.1917
G3 X32.3805 Y66.4625 I9.0943 J-15.7517
G1 F2000.0 X33.2268 Y65.5155
G3 F4000.0 X31.1652 Y42.4875 I11.2732 J-12.6155
G1 X21.5875
G1 Y58.9
G1 Y81.9
G3 X20.0 Y83.4875 I-1.5875 J0.0
G1 X3.2875
G1 Y90.3125
G1 X32.1125
G1 Y89.9
G1 Y78.9
G3 X33.7 Y77.3125 I1.5875 J0.0
G1 X39.8256
G3 X40.8389 Y69.4176 I4.6744 J-3.4125
G3 X36.0407 Y67.5519 I3.6611 J-16.5176
G3 X33.2268 Y65.5155 I8.4593 J-14.6519
G0 Z3.0
G0 X28.5725 Y70.7239
G0 Z-4.4
G1 F2000.0 Z-5.6
G1 F4000.0 Y72.03
G3 X29.4387 Y71.4617 I5.1275 J6.87
G3 X28.5725 Y70.7239 I15.0613 J-18.5617
G1 F2000.0 X28.9956 Y70.2504
G3 F4000.0 X27.9375 Y69.2434 I15.5044 J-17.3504
G1 Y73.4413
G3 X30.6278 Y71.5812 I5.7625 J5.4587
G3 X28.9956 Y70.2504 I13.8722 J-18.6812
G1 F2000.0 X29.8418 Y69.3035
G3 F4000.0 X26.6675 Y65.7816 I14.6582 J-16.4035
G1 Y81.9
G3 X25.7749 Y85.2325 I-6.6675 J0.0
G1 X27.0325
G1 Y78.9
G3 X33.7 Y72.2325 I6.6675 J0.0
G1 X33.7638
G3 X33.7832 Y72.1116 I10.7362 J1.6675
G3 X33.5007 Y71.9513 I10.7168 J-19.2116
G3 X29.8418 Y69.3035 I10.9993 J-19.0513
G1 F2000.0 X30.6881 Y68.3565
G3 F4000.0 X25.3975 Y60.9477 I13.8119 J-15.4565
G1 Y81.9
G3 X22.8196 Y86.5025 I-5.3975 J0.0
G1 X28.3025
G1 Y78.9
G3 X33.7 Y73.5025 I5.3975 J0.0
G1 X34.9133
G3 X35.2262 Y71.4383 I9.5867 J0.3975
G3 X34.1357 Y70.8514 I9.2738 J-18.5383
G3 X30.6881 Y68.3565 I10.3643 J-17.9514
G1 F2000.0 X31.5343 Y67.4095
G3 F4000.0 X26.7051 Y45.0275 I12.9657 J-14.5095
G1 X24.1275
G1 Y58.9
G1 Y81.9
G3 X20.0 Y86.0275 I-4.1275 J0.0
G1 X5.8275
G1 Y87.7725
G1 X29.5725
G1 Y78.9
G3 X33.7 Y74.7725 I4.1275 J0.0
G1 X36.2209
G3 X36.7879 Y70.765 I8.2791 J-0.8725
G3 X34.7707 Y69.7516 I7.7121 J-17.865
G3 X31.5343 Y67.4095 I9.7293 J-16.8516
G1 F2000.0 X32.3805 Y66.4625
G3 F4000.0 X28.7762 Y43.7575 I12.1195 J-13.5625
G1 X22.8575
G1 Y58.9
G1 Y81.9
G3 X20.0 Y84.7575 I-2.8575 J0.0
G1 X4.5575
G1 Y89.0425
G1 X30.8425
G1 Y78.9
G3 X33.7 Y76.0425 I2.8575 J0.0
G1 X37.7782
G3 X38.5612 Y70.0917 I6.7218 J-2.1425
G3 X35.4057 Y68.6517 I5.9388 J-17.1917
G3 X32.3805 Y66.4625 I9.0943 J-15.7517
G1 F2000.0 X33.2268 Y65.5155
G3 F4000.0 X31.1652 Y42.4875 I11.2732 J-12.6155
G1 X21.5875
G1 Y58.9
G1 Y81.9
G3 X20.0 Y83.4875 I-1.5875 J0.0
G1 X3.2875
G1 Y90.3125
G1 X32.1125
G1 Y89.9
G1 Y78.9
G3 X33.7 Y77.3125 I1.5875 J0.0
G1 X39.8256
G3 X40.8389 Y69.4176 I4.6744 J-3.4125
G3 X36.0407 Y67.5519 I3.6611 J-16.5176
G3 X33.2268 Y65.5155 I8.4593 J-14.6519
G0 Z3.0
G0 X53.7738 Y71.4383
G0 Z0.0
G1 F2000.0 Z-4.175
G3 F4000.0 X54.0873 Y73.5164 I-9.2738 J2.4617
G3 X55.267 Y73.735 I-0.3873 J5.3836
G3 X56.3025 Y73.0642 I3.433 J4.165
G1 Y69.9403
G3 X53.7738 Y71.4383 I-11.8025 J-17.0403
G1 F2000.0 X52.5463 Y71.7641
G3 F4000.0 X52.825 Y73.9 I-8.0463 J2.1359
G3 X52.7791 Y74.7725 I-8.325 J0.0
G1 X53.7
G3 X55.5634 Y75.2171 I0.0 J4.1275
G3 X57.5725 Y73.9295 I3.1366 J2.6829
G1 Y67.3133
G3 X52.2121 Y70.765 I-13.0725 J-14.4133
G3 X52.5463 Y71.7641 I-7.7121 J3.135
G1 F2000.0 X51.3188 Y72.09
G3 F4000.0 X51.555 Y73.9 I-6.8188 J1.81
G3 X51.2218 Y76.0425 I-7.055 J0.0
G1 X53.7
G3 X55.9469 Y77.1346 I0.0 J2.8575
G3 X58.7 Y75.0425 I2.7531 J0.7654
G1 X58.8425
G1 Y65.483
G1 X58.135 Y64.9378
G3 X50.4388 Y70.0917 I-13.635 J-12.0378
G3 X51.3188 Y72.09 I-5.9388 J3.8083
G1 F2000.0 X50.0938 Y72.4151
G3 F4000.0 X50.2875 Y73.9 I-5.5938 J1.4849
G3 X49.1744 Y77.3125 I-5.7875 J0.0
G1 X53.7
G3 X55.2875 Y78.9 I0.0 J1.5875
G1 Y92.3125
G1 X57.1125
G1 Y77.9
G3 X58.7 Y76.3125 I1.5875 J0.0
G1 X60.1125
G1 Y64.8603
G3 X60.0664 Y64.826 I0.9229 J-1.2917
G1 X58.031 Y63.2574
G3 X57.9375 Y63.1795 I0.969 J-1.2574
G3 X48.1611 Y69.4176 I-13.4375 J-10.2795
G3 X50.0938 Y72.4151 I-3.6611 J4.4824
G0 Z3.0
G0 X53.7738 Y71.4383
G0 Z-3.175
G1 F2000.0 Z-5.4
G3 F4000.0 X54.0873 Y73.5164 I-9.2738 J2.4617
G3 X55.267 Y73.735 I-0.3873 J5.3836
G3 X56.3025 Y73.0642 I3.433 J4.165
G1 Y69.9403
G3 X53.7738 Y71.4383 I-11.8025 J-17.0403
G1 F2000.0 X52.5463 Y71.7641
G3 F4000.0 X52.825 Y73.9 I-8.0463 J2.1359
G3 X52.7791 Y74.7725 I-8.325 J0.0
G1 X53.7
G3 X55.5634 Y75.2171 I0.0 J4.1275
G3 X57.5725 Y73.9295 I3.1366 J2.6829
G1 Y67.3133
G3 X52.2121 Y70.765 I-13.0725 J-14.4133
G3 X52.5463 Y71.7641 I-7.7121 J3.135
G1 F2000.0 X51.3188 Y72.09
G3 F4000.0 X51.555 Y73.9 I-6.8188 J1.81
G3 X51.2218 Y76.0425 I-7.055 J0.0
G1 X53.7
G3 X55.9469 Y77.1346 I0.0 J2.8575
G3 X58.7 Y75.0425 I2.7531 J0.7654
G1 X58.8425
G1 Y65.483
G1 X58.135 Y64.9378
G3 X50.4388 Y70.0917 I-13.635 J-12.0378
G3 X51.3188 Y72.09 I-5.9388 J3.8083
G1 F2000.0 X50.0938 Y72.4151
G3 F4000.0 X50.2875 Y73.9 I-5.5938 J1.4849
G3 X49.1744 Y77.3125 I-5.7875 J0.0
G1 X53.7
G3 X55.2875 Y78.9 I0.0 J1.5875
G1 Y92.3125
G1 X57.1125
G1 Y77.9
G3 X58.7 Y76.3125 I1.5875 J0.0
G1 X60.1125
G1 Y64.8603
G3 X60.0664 Y64.826 I0.9229 J-1.2917
G1 X58.031 Y63.2574
G3 X57.9375 Y63.1795 I0.969 J-1.2574
G3 X48.1611 Y69.4176 I-13.4375 J-10.2795
G3 X50.0938 Y72.4151 I-3.6611 J4.4824
G0 Z3.0
G0 X53.7738 Y71.4383
G0 Z-4.4
G1 F2000.0 Z-5.6
G3 F4000.0 X54.0873 Y73.5164 I-9.2738 J2.4617
G3 X55.267 Y73.735 I-0.3873 J5.3836
G3 X56.3025 Y73.0642 I3.433 J4.165
G1 Y69.9403
G3 X53.7738 Y71.4383 I-11.8025 J-17.0403
G1 F2000.0 X52.5463 Y71.7641
G3 F4000.0 X52.825 Y73.9 I-8.0463 J2.1359
G3 X52.7791 Y74.7725 I-8.325 J0.0
G1 X53.7
G3 X55.5634 Y75.2171 I0.0 J4.1275
G3 X57.5725 Y73.9295 I3.1366 J2.6829
G1 Y67.3133
G3 X52.2121 Y70.765 I-13.0725 J-14.4133
G3 X52.5463 Y71.7641 I-7.7121 J3.135
G1 F2000.0 X51.3188 Y72.09
G3 F4000.0 X51.555 Y73.9 I-6.8188 J1.81
G3 X51.2218 Y76.0425 I-7.055 J0.0
G1 X53.7
G3 X55.9469 Y77.1346 I0.0 J2.8575
G3 X58.7 Y75.0425 I2.7531 J0.7654
G1 X58.8425
G1 Y65.483
G1 X58.135 Y64.9378
G3 X50.4388 Y70.0917 I-13.635 J-12.0378
G3 X51.3188 Y72.09 I-5.9388 J3.8083
G1 F2000.0 X50.0938 Y72.4151
G3 F4000.0 X50.2875 Y73.9 I-5.5938 J1.4849
G3 X49.1744 Y77.3125 I-5.7875 J0.0
G1 X53.7
G3 X55.2875 Y78.9 I0.0 J1.5875
G1 Y92.3125
G1 X57.1125
G1 Y77.9
G3 X58.7 Y76.3125 I1.5875 J0.0
G1 X60.1125
G1 Y64.8603
G3 X60.0664 Y64.826 I0.9229 J-1.2917
G1 X58.031 Y63.2574
G3 X57.9375 Y63.1795 I0.969 J-1.2574
G3 X48.1611 Y69.4176 I-13.4375 J-10.2795
G3 X50.0938 Y72.4151 I-3.6611 J4.4824
G0 Z3.0
G0 X65.5575
G0 Z0.0
G1 F2000.0 Z-4.175
G1 F4000.0 Y75.0425
G1 X65.7
G3 X66.1425 Y75.077 I0.0 J2.8575
G1 Y65.2756
G1 X65.9781 Y61.8194
G1 X65.5575 Y61.9596
G1 Y72.4151
G1 F2000.0 X64.2875
G1 F4000.0 Y76.3125
G1 X65.7
G3 X67.2872 Y77.8672 I0.0 J1.5875
G1 X67.4125 Y83.9252
G1 Y79.4
G1 Y65.2454
G1 X67.1862 Y60.4875
G1 X65.9576
G1 X64.2875 Y61.0442
G1 Y72.4151
G1 F2000.0 X65.5575
G1 Z-5.4
G1 F4000.0 Y75.0425
G1 X65.7
G3 X66.1425 Y75.077 I0.0 J2.8575
G1 Y65.2756
G1 X65.9781 Y61.8194
G1 X65.5575 Y61.9596
G1 Y72.4151
G1 F2000.0 X64.2875
G1 F4000.0 Y76.3125
G1 X65.7
G3 X67.2872 Y77.8672 I0.0 J1.5875
G1 X67.4125 Y83.9252
G1 Y79.4
G1 Y65.2454
G1 X67.1862 Y60.4875
G1 X65.9576
G1 X64.2875 Y61.0442
G1 Y72.4151
G1 F2000.0 X65.5575
G1 Z-5.6
G1 F4000.0 Y75.0425
G1 X65.7
G3 X66.1425 Y75.077 I0.0 J2.8575
G1 Y65.2756
G1 X65.9781 Y61.8194
G1 X65.5575 Y61.9596
G1 Y72.4151
G1 F2000.0 X64.2875
G1 F4000.0 Y76.3125
G1 X65.7
G3 X67.2872 Y77.8672 I0.0 J1.5875
G1 X67.4125 Y83.9252
G1 Y79.4
G1 Y65.2454
G1 X67.1862 Y60.4875
G1 X65.9576
G1 X64.2875 Y61.0442
G1 Y72.4151
( Escapement axis 3.5mm1 )
S1000
G0 Z3.0
G0 X44.3775 Y73.6965
G0 Z0.0
G1 F2000.0 Z-4.175
G2 F4000.0 X44.3813 Y74.1057 I0.1225 J0.2035
G2 X44.7375 Y73.9 I0.1188 J-0.2057
G2 X44.3813 Y73.6943 I-0.2375 J0.0
G2 X44.3775 Y73.6965 I0.1187 J0.2057
G1 F2000.0 X44.0499 Y73.1526
G2 F4000.0 X44.0638 Y74.6556 I0.4501 J0.7474
G2 X45.3725 Y73.9 I0.4363 J-0.7556
G2 X44.0638 Y73.1444 I-0.8725 J0.0
G2 X44.0499 Y73.1526 I0.4363 J0.7556
G1 F2000.0 X43.3948 Y72.0646
G2 F4000.0 X43.4288 Y75.7555 I1.1052 J1.8354
G2 X46.6425 Y73.9 I1.0713 J-1.8555
G2 X43.4288 Y72.0445 I-2.1425 J0.0
G2 X43.3948 Y72.0646 I1.0713 J1.8555
G1 F2000.0 X42.7396 Y70.9766
G2 F4000.0 X42.7938 Y76.8553 I1.7604 J2.9234
G2 X47.9125 Y73.9 I1.7063 J-2.9553
G2 X42.7938 Y70.9447 I-3.4125 J0.0
G2 X42.7396 Y70.9766 I1.7062 J2.9553
G0 Z3.0
G0 X44.3775 Y73.6965
G0 Z-3.175
G1 F2000.0 Z-4.6
G2 F4000.0 X44.3813 Y74.1057 I0.1225 J0.2035
G2 X44.7375 Y73.9 I0.1188 J-0.2057
G2 X44.3813 Y73.6943 I-0.2375 J0.0
G2 X44.3775 Y73.6965 I0.1187 J0.2057
G1 F2000.0 X44.0499 Y73.1526
G2 F4000.0 X44.0638 Y74.6556 I0.4501 J0.7474
G2 X45.3725 Y73.9 I0.4363 J-0.7556
G2 X44.0638 Y73.1444 I-0.8725 J0.0
G2 X44.0499 Y73.1526 I0.4363 J0.7556
G1 F2000.0 X43.3948 Y72.0646
G2 F4000.0 X43.4288 Y75.7555 I1.1052 J1.8354
G2 X46.6425 Y73.9 I1.0713 J-1.8555
G2 X43.4288 Y72.0445 I-2.1425 J0.0
G2 X43.3948 Y72.0646 I1.0713 J1.8555
G1 F2000.0 X42.7396 Y70.9766
G2 F4000.0 X42.7938 Y76.8553 I1.7604 J2.9234
G2 X47.9125 Y73.9 I1.7063 J-2.9553
G2 X42.7938 Y70.9447 I-3.4125 J0.0
G2 X42.7396 Y70.9766 I1.7062 J2.9553
G0 Z3.0
G0 X44.3775 Y73.6965
G0 Z-3.6
G1 F2000.0 Z-4.8
G2 F4000.0 X44.3813 Y74.1057 I0.1225 J0.2035
G2 X44.7375 Y73.9 I0.1188 J-0.2057
G2 X44.3813 Y73.6943 I-0.2375 J0.0
G2 X44.3775 Y73.6965 I0.1187 J0.2057
G1 F2000.0 X44.0499 Y73.1526
G2 F4000.0 X44.0638 Y74.6556 I0.4501 J0.7474
G2 X45.3725 Y73.9 I0.4363 J-0.7556
G2 X44.0638 Y73.1444 I-0.8725 J0.0
G2 X44.0499 Y73.1526 I0.4363 J0.7556
G1 F2000.0 X43.3948 Y72.0646
G2 F4000.0 X43.4288 Y75.7555 I1.1052 J1.8354
G2 X46.6425 Y73.9 I1.0713 J-1.8555
G2 X43.4288 Y72.0445 I-2.1425 J0.0
G2 X43.3948 Y72.0646 I1.0713 J1.8555
G1 F2000.0 X42.7396 Y70.9766
G2 F4000.0 X42.7938 Y76.8553 I1.7604 J2.9234
G2 X47.9125 Y73.9 I1.7063 J-2.9553
G2 X42.7938 Y70.9447 I-3.4125 J0.0
G2 X42.7396 Y70.9766 I1.7062 J2.9553
( Drill to wall 1mm )
S1000
G0 Z3.0
G0 X19.0 Y8.4
G98
G81 X19.0 Y8.4 Z-13.5 R3.0 F2000.0
G81 Y26.4 Z-13.5
G81 X17.0 Y46.4 Z-13.5
G81 X44.5 Y52.9 Z-13.5
G81 Y73.9 Z-13.5
G81 X60.7 Y102.9 Z-13.5
G81 X70.8063 Y49.1124 Z-13.5
G81 X105.7 Y45.9 Z-13.5
G81 X6.7 Y86.9 Z-13.5
G80
( Tape rest 4.25mm )
S1000
G0 Z3.0
G0 X13.1275 Y33.0275
G0 Z0.0
G1 F2000.0 Z-4.175
G1 F4000.0 Y34.2725
G1 X127.8725
G1 Y33.0275
G1 X13.1275
G1 F2000.0 Y31.7575
G1 F4000.0 X11.8575
G1 Y35.5425
G1 X129.1425
G1 Y31.7575
G1 X13.1275
G1 F2000.0 Y30.4875
G1 F4000.0 X10.5875
G1 Y36.8125
G1 X130.4125
G1 Y30.4875
G1 X13.1275
G0 Z3.0
G0 Y33.0275
G0 Z-3.175
G1 F2000.0 Z-5.3
G1 F4000.0 Y34.2725
G1 X127.8725
G1 Y33.0275
G1 X13.1275
G1 F2000.0 Y31.7575
G1 F4000.0 X11.8575
G1 Y35.5425
G1 X129.1425
G1 Y31.7575
G1 X13.1275
G1 F2000.0 Y30.4875
G1 F4000.0 X10.5875
G1 Y36.8125
G1 X130.4125
G1 Y30.4875
G1 X13.1275
G0 Z3.0
G0 Y33.0275
G0 Z-4.3
G1 F2000.0 Z-5.5
G1 F4000.0 Y34.2725
G1 X127.8725
G1 Y33.0275
G1 X13.1275
G1 F2000.0 Y31.7575
G1 F4000.0 X11.8575
G1 Y35.5425
G1 X129.1425
G1 Y31.7575
G1 X13.1275
G1 F2000.0 Y30.4875
G1 F4000.0 X10.5875
G1 Y36.8125
G1 X130.4125
G1 Y30.4875
G1 X13.1275
( Holes )
S1000
G0 Z3.0
G0 X27.0875 Y39.4875
G0 Z1.0
G1 F2000.0 Z-3.175
G1 F4000.0 Y39.5125
G1 X28.9125
G1 Y39.4875
G1 X27.0875
G1 F2000.0 Z-6.35
G1 F4000.0 Y39.5125
G1 X28.9125
G1 Y39.4875
G1 X27.0875
G1 F2000.0 Z-9.525
G1 F4000.0 Y39.5125
G1 X28.9125
G1 Y39.4875
G1 X27.0875
G1 F2000.0 Z-12.7
G1 F4000.0 Y39.5125
G1 X28.9125
G1 Y39.4875
G1 X27.0875
G1 F2000.0 Z-13.3
G1 F4000.0 Y39.5125
G1 X28.9125
G1 Y39.4875
G1 X27.0875
G1 F2000.0 Z-13.5
G1 F4000.0 Y39.5125
G1 X28.9125
G1 Y39.4875
G1 X27.0875
G0 Z3.0
G0 X74.0875
G0 Z1.0
G1 F2000.0 Z-3.175
G1 F4000.0 Y39.5125
G1 X75.9125
G1 Y39.4875
G1 X74.0875
G1 F2000.0 Z-6.35
G1 F4000.0 Y39.5125
G1 X75.9125
G1 Y39.4875
G1 X74.0875
G1 F2000.0 Z-9.525
G1 F4000.0 Y39.5125
G1 X75.9125
G1 Y39.4875
G1 X74.0875
G1 F2000.0 Z-12.7
G1 F4000.0 Y39.5125
G1 X75.9125
G1 Y39.4875
G1 X74.0875
G1 F2000.0 Z-13.3
G1 F4000.0 Y39.5125
G1 X75.9125
G1 Y39.4875
G1 X74.0875
G1 F2000.0 Z-13.5
G1 F4000.0 Y39.5125
G1 X75.9125
G1 Y39.4875
G1 X74.0875
G0 Z3.0
G0 X96.0875
G0 Z1.0
G1 F2000.0 Z-3.175
G1 F4000.0 Y39.5125
G1 X97.9125
G1 Y39.4875
G1 X96.0875
G1 F2000.0 Z-6.35
G1 F4000.0 Y39.5125
G1 X97.9125
G1 Y39.4875
G1 X96.0875
G1 F2000.0 Z-9.525
G1 F4000.0 Y39.5125
G1 X97.9125
G1 Y39.4875
G1 X96.0875
G1 F2000.0 Z-12.7
G1 F4000.0 Y39.5125
G1 X97.9125
G1 Y39.4875
G1 X96.0875
G1 F2000.0 Z-13.3
G1 F4000.0 Y39.5125
G1 X97.9125
G1 Y39.4875
G1 X96.0875
G1 F2000.0 Z-13.5
G1 F4000.0 Y39.5125
G1 X97.9125
G1 Y39.4875
G1 X96.0875
( Set screw head )
S1000
G0 Z3.0
G0 X12.8575 Y14.2575
G0 Z1.0
G1 F2000.0 Z-3.175
G1 F4000.0 Y20.5425
G1 X13.1425
G1 Y14.2575
G1 X12.8575
G1 F2000.0 Y12.9875
G1 F4000.0 X11.5875
G1 Y21.8125
G1 X14.4125
G1 Y12.9875
G1 X12.8575
G1 F2000.0 Y14.2575
G1 Z-6.35
G1 F4000.0 Y20.5425
G1 X13.1425
G1 Y14.2575
G1 X12.8575
G1 F2000.0 Y12.9875
G1 F4000.0 X11.5875
G1 Y21.8125
G1 X14.4125
G1 Y12.9875
G1 X12.8575
G1 F2000.0 Y14.2575
G1 Z-8.8
G1 F4000.0 Y20.5425
G1 X13.1425
G1 Y14.2575
G1 X12.8575
G1 F2000.0 Y12.9875
G1 F4000.0 X11.5875
G1 Y21.8125
G1 X14.4125
G1 Y12.9875
G1 X12.8575
G1 F2000.0 Y14.2575
G1 Z-9.0
G1 F4000.0 Y20.5425
G1 X13.1425
G1 Y14.2575
G1 X12.8575
G1 F2000.0 Y12.9875
G1 F4000.0 X11.5875
G1 Y21.8125
G1 X14.4125
G1 Y12.9875
G1 X12.8575
( Set screw body )
S1000
G0 Z3.0
G0 X17.4925 Y16.8925
G0 Z1.0
G1 F2000.0 Z-3.175
G1 F4000.0 Y17.9075
G1 X20.5075
G1 Y16.8925
G1 X17.4925
G1 F2000.0 Y16.2575
G1 F4000.0 X16.8575
G1 Y18.5425
G1 X21.1425
G1 Y16.2575
G1 X17.4925
G1 F2000.0 Y14.9875
G1 F4000.0 X15.5875
G1 Y19.8125
G1 X22.4125
G1 Y14.9875
G1 X17.4925
G1 F2000.0 Y16.8925
G1 Z-6.35
G1 F4000.0 Y17.9075
G1 X20.5075
G1 Y16.8925
G1 X17.4925
G1 F2000.0 Y16.2575
G1 F4000.0 X16.8575
G1 Y18.5425
G1 X21.1425
G1 Y16.2575
G1 X17.4925
G1 F2000.0 Y14.9875
G1 F4000.0 X15.5875
G1 Y19.8125
G1 X22.4125
G1 Y14.9875
G1 X17.4925
G1 F2000.0 Y16.8925
G1 Z-6.8
G1 F4000.0 Y17.9075
G1 X20.5075
G1 Y16.8925
G1 X17.4925
G1 F2000.0 Y16.2575
G1 F4000.0 X16.8575
G1 Y18.5425
G1 X21.1425
G1 Y16.2575
G1 X17.4925
G1 F2000.0 Y14.9875
G1 F4000.0 X15.5875
G1 Y19.8125
G1 X22.4125
G1 Y14.9875
G1 X17.4925
G1 F2000.0 Y16.8925
G1 Z-7.0
G1 F4000.0 Y17.9075
G1 X20.5075
G1 Y16.8925
G1 X17.4925
G1 F2000.0 Y16.2575
G1 F4000.0 X16.8575
G1 Y18.5425
G1 X21.1425
G1 Y16.2575
G1 X17.4925
G1 F2000.0 Y14.9875
G1 F4000.0 X15.5875
G1 Y19.8125
G1 X22.4125
G1 Y14.9875
G1 X17.4925
( Magnet holder )
S1000
G0 Z3.0
G0 X103.7625 Y33.6625
G0 Z-3.225
G1 F2000.0 Z-7.4
G1 F4000.0 Y34.1375
G1 X115.9875
G1 Y33.6625
G1 X103.7625
G1 F2000.0 Y33.0275
G1 F4000.0 X103.1275
G1 Y34.7725
G1 X116.6225
G1 Y33.0275
G1 X103.7625
G1 F2000.0 Y31.7575
G1 F4000.0 X101.8575
G1 Y36.0425
G1 X118.1308
G3 X117.8925 Y34.9 I2.6192 J-1.1425
G1 Y31.7575
G1 X103.7625
G1 F2000.0 Y30.4875
G1 F4000.0 X100.5875
G1 Y37.3125
G1 X119.8
G1 X120.4053
G1 X119.4114 Y35.7534
G3 X119.1625 Y34.9 I1.3386 J-0.8534
G1 Y30.4875
G1 X103.7625
G0 Z3.0
G0 Y33.6625
G0 Z-6.4
G1 F2000.0 Z-7.6
G1 F4000.0 Y34.1375
G1 X115.9875
G1 Y33.6625
G1 X103.7625
G1 F2000.0 Y33.0275
G1 F4000.0 X103.1275
G1 Y34.7725
G1 X116.6225
G1 Y33.0275
G1 X103.7625
G1 F2000.0 Y31.7575
G1 F4000.0 X101.8575
G1 Y36.0425
G1 X118.1308
G3 X117.8925 Y34.9 I2.6192 J-1.1425
G1 Y31.7575
G1 X103.7625
G1 F2000.0 Y30.4875
G1 F4000.0 X100.5875
G1 Y37.3125
G1 X119.8
G1 X120.4053
G1 X119.4114 Y35.7534
G3 X119.1625 Y34.9 I1.3386 J-0.8534
G1 Y30.4875
G1 X103.7625
( Magnet holder sides )
S1000
G0 Z3.0
G0 X100.1225 Y30.0225
G0 Z-3.225
G1 F2000.0 Z-7.4
G1 F4000.0 X100.5875 Y30.4875
G1 Y37.3125
G1 X100.1225 Y37.7775
G1 X100.5875 Y37.3125
G1 X119.8
G1 X120.4053
G1 X119.4114 Y35.7534
G3 X119.1625 Y34.9 I1.3386 J-0.8534
G1 Y30.4875
G1 X119.6275 Y30.0225
G1 X119.1625 Y30.4875
G1 X100.5875
G1 X100.1225 Y30.0225
G1 F2000.0 Z-7.6
G1 F4000.0 X100.5875 Y30.4875
G1 Y37.3125
G1 X100.1225 Y37.7775
G1 X100.5875 Y37.3125
G1 X119.8
G1 X120.4053
G1 X119.4114 Y35.7534
G3 X119.1625 Y34.9 I1.3386 J-0.8534
G1 Y30.4875
G1 X119.6275 Y30.0225
G1 X119.1625 Y30.4875
G1 X100.5875
G1 X100.1225 Y30.0225
( Outline )
S1000
G0 Z3.0
G0 X10.4569 Y2.5271
G0 Z1.0
G1 F2000.0 Z-3.175
G3 F4000.0 X12.0 Y1.3125 I1.5431 J0.3729
G1 X22.0
G3 X23.5875 Y2.9 I0.0 J1.5875
G1 Y25.8125
G1 X27.0
G1 X45.4125
G1 Y25.4
G3 X47.0 Y23.8125 I1.5875 J0.0
G1 X130.0
G3 X131.5875 Y25.4 I0.0 J1.5875
G1 Y27.4
G1 Y37.15
G3 X130.0 Y38.7375 I-1.5875 J0.0
G1 X120.8772
G1 X118.044 Y43.2448
G3 X116.7 Y43.9875 I-1.344 J-0.8448
G1 X113.0174
G3 X111.1158 Y49.618 I-20.4146 J-3.7581
G3 X110.6843 Y50.1455 I-1.4158 J-0.718
G3 X100.7157 I-4.9843 J-6.3067
G3 X100.2842 Y49.618 I0.9843 J-1.2455
G3 X98.3826 Y43.9875 I18.5131 J-9.3887
G1 X79.5875
G1 Y61.9882
G3 X78.4703 Y63.5045 I-1.5875 J0.0
G1 X68.5875 Y66.5697
G1 Y76.4
G1 Y91.4
G1 Y106.9
G3 X67.0 Y108.4875 I-1.5875 J0.0
G1 X54.0
G3 X52.4125 Y106.9 I0.0 J-1.5875
G1 Y88.4
G1 Y78.4875
G1 X34.0875
G1 Y90.9
G3 X32.5 Y92.4875 I-1.5875 J0.0
G1 X2.7
G3 X1.1125 Y90.9 I0.0 J-1.5875
G1 Y82.9
G3 X2.7 Y81.3125 I1.5875 J0.0
G1 X10.4125
G1 Y27.4
G1 Y2.9
G3 X10.4569 Y2.5271 I1.5875 J0.0
G1 F2000.0 Z-6.35
G3 F4000.0 X12.0 Y1.3125 I1.5431 J0.3729
G1 X22.0
G3 X23.5875 Y2.9 I0.0 J1.5875
G1 Y25.8125
G1 X27.0
G1 X45.4125
G1 Y25.4
G3 X47.0 Y23.8125 I1.5875 J0.0
G1 X130.0
G3 X131.5875 Y25.4 I0.0 J1.5875
G1 Y27.4
G1 Y37.15
G3 X130.0 Y38.7375 I-1.5875 J0.0
G1 X120.8772
G1 X118.044 Y43.2448
G3 X116.7 Y43.9875 I-1.344 J-0.8448
G1 X113.0174
G3 X111.1158 Y49.618 I-20.4146 J-3.7581
G3 X110.6843 Y50.1455 I-1.4158 J-0.718
G3 X100.7157 I-4.9843 J-6.3067
G3 X100.2842 Y49.618 I0.9843 J-1.2455
G3 X98.3826 Y43.9875 I18.5131 J-9.3887
G1 X79.5875
G1 Y61.9882
G3 X78.4703 Y63.5045 I-1.5875 J0.0
G1 X68.5875 Y66.5697
G1 Y76.4
G1 Y91.4
G1 Y106.9
G3 X67.0 Y108.4875 I-1.5875 J0.0
G1 X54.0
G3 X52.4125 Y106.9 I0.0 J-1.5875
G1 Y88.4
G1 Y78.4875
G1 X34.0875
G1 Y90.9
G3 X32.5 Y92.4875 I-1.5875 J0.0
G1 X2.7
G3 X1.1125 Y90.9 I0.0 J-1.5875
G1 Y82.9
G3 X2.7 Y81.3125 I1.5875 J0.0
G1 X10.4125
G1 Y27.4
G1 Y2.9
G3 X10.4569 Y2.5271 I1.5875 J0.0
G1 F2000.0 Z-9.525
G3 F4000.0 X12.0 Y1.3125 I1.5431 J0.3729
G1 X22.0
G3 X23.5875 Y2.9 I0.0 J1.5875
G1 Y25.8125
G1 X27.0
G1 X45.4125
G1 Y25.4
G3 X47.0 Y23.8125 I1.5875 J0.0
G1 X130.0
G3 X131.5875 Y25.4 I0.0 J1.5875
G1 Y27.4
G1 Y37.15
G3 X130.0 Y38.7375 I-1.5875 J0.0
G1 X120.8772
G1 X118.044 Y43.2448
G3 X116.7 Y43.9875 I-1.344 J-0.8448
G1 X113.0174
G3 X111.1158 Y49.618 I-20.4146 J-3.7581
G3 X110.6843 Y50.1455 I-1.4158 J-0.718
G3 X100.7157 I-4.9843 J-6.3067
G3 X100.2842 Y49.618 I0.9843 J-1.2455
G3 X98.3826 Y43.9875 I18.5131 J-9.3887
G1 X79.5875
G1 Y61.9882
G3 X78.4703 Y63.5045 I-1.5875 J0.0
G1 X68.5875 Y66.5697
G1 Y76.4
G1 Y91.4
G1 Y106.9
G3 X67.0 Y108.4875 I-1.5875 J0.0
G1 X54.0
G3 X52.4125 Y106.9 I0.0 J-1.5875
G1 Y88.4
G1 Y78.4875
G1 X34.0875
G1 Y90.9
G3 X32.5 Y92.4875 I-1.5875 J0.0
G1 X2.7
G3 X1.1125 Y90.9 I0.0 J-1.5875
G1 Y82.9
G3 X2.7 Y81.3125 I1.5875 J0.0
G1 X10.4125
G1 Y27.4
G1 Y2.9
G3 X10.4569 Y2.5271 I1.5875 J0.0
G1 F2000.0 Z-12.7
G3 F4000.0 X12.0 Y1.3125 I1.5431 J0.3729
G1 X22.0
G3 X23.5875 Y2.9 I0.0 J1.5875
G1 Y25.8125
G1 X27.0
G1 X45.4125
G1 Y25.4
G3 X47.0 Y23.8125 I1.5875 J0.0
G1 X57.2545
G1 X58.7545 Z-10.5
G1 X61.9295
G1 X63.4295 Z-12.7
G1 X130.0
G3 X131.5875 Y25.4 I0.0 J1.5875
G1 Y27.4
G1 Y37.15
G3 X131.2071 Y38.181 I-1.5875 J0.0
G3 X130.0 Y38.7375 Z-10.7504 I-1.2071 J-1.031
G1 X129.7071 Z-10.5
G1 X126.5321
G1 X125.0321 Z-12.7
G1 X120.8772
G1 X118.044 Y43.2448
G3 X116.7 Y43.9875 I-1.344 J-0.8448
G1 X113.0174
G3 X111.1158 Y49.618 I-20.4146 J-3.7581
G3 X110.6843 Y50.1455 I-1.4158 J-0.718
G3 X100.7157 I-4.9843 J-6.3067
G3 X100.2842 Y49.618 I0.9843 J-1.2455
G3 X98.3826 Y43.9875 I18.5131 J-9.3887
G1 X79.5875
G1 Y61.9882
G3 X78.4703 Y63.5045 I-1.5875 J0.0
G1 X68.5875 Y66.5697
G1 Y76.4
G1 Y91.4
G1 Y106.9
G3 X67.0 Y108.4875 I-1.5875 J0.0
G1 X54.0
G3 X52.4125 Y106.9 I0.0 J-1.5875
G1 Y92.4105
G1 Y90.9105 Z-10.5
G1 Y88.4
G1 Y87.7355
G1 Y86.2355 Z-12.7
G1 Y78.4875
G1 X34.0875
G1 Y90.9
G3 X32.5 Y92.4875 I-1.5875 J0.0
G1 X2.7
G3 X1.1125 Y90.9 I0.0 J-1.5875
G1 Y88.4222
G1 Y86.9222 Z-10.5
G1 Y83.7472
G1 Y82.9 Z-11.7425
G3 X1.2529 Y82.2472 Z-12.7 I1.5875 J0.0
G3 X2.7 Y81.3125 I1.4471 J0.6528
G1 X10.4125
G1 Y27.4
G1 Y14.4338
G1 Y12.9338 Z-10.5
G1 Y9.7588
G1 Y8.2588 Z-12.7
G1 Y2.9
G3 X10.4569 Y2.5271 I1.5875 J0.0
G1 F2000.0 Z-13.3
G3 F4000.0 X12.0 Y1.3125 I1.5431 J0.3729
G1 X22.0
G3 X23.5875 Y2.9 I0.0 J1.5875
G1 Y25.8125
G1 X27.0
G1 X45.4125
G1 Y25.4
G3 X47.0 Y23.8125 I1.5875 J0.0
G1 X57.2545
G1 X58.7545 Z-10.5
G1 X61.9295
G1 X63.4295 Z-13.3
G1 X130.0
G3 X131.5875 Y25.4 I0.0 J1.5875
G1 Y27.4
G1 Y37.15
G3 X131.2071 Y38.181 I-1.5875 J0.0
G3 X130.0 Y38.7375 Z-10.8187 I-1.2071 J-1.031
G1 X129.7071 Z-10.5
G1 X126.5321
G1 X125.0321 Z-13.3
G1 X120.8772
G1 X118.044 Y43.2448
G3 X116.7 Y43.9875 I-1.344 J-0.8448
G1 X113.0174
G3 X111.1158 Y49.618 I-20.4146 J-3.7581
G3 X110.6843 Y50.1455 I-1.4158 J-0.718
G3 X100.7157 I-4.9843 J-6.3067
G3 X100.2842 Y49.618 I0.9843 J-1.2455
G3 X98.3826 Y43.9875 I18.5131 J-9.3887
G1 X79.5875
G1 Y61.9882
G3 X78.4703 Y63.5045 I-1.5875 J0.0
G1 X68.5875 Y66.5697
G1 Y76.4
G1 Y91.4
G1 Y106.9
G3 X67.0 Y108.4875 I-1.5875 J0.0
G1 X54.0
G3 X52.4125 Y106.9 I0.0 J-1.5875
G1 Y92.4105
G1 Y90.9105 Z-10.5
G1 Y88.4
G1 Y87.7355
G1 Y86.2355 Z-13.3
G1 Y78.4875
G1 X34.0875
G1 Y90.9
G3 X32.5 Y92.4875 I-1.5875 J0.0
G1 X2.7
G3 X1.1125 Y90.9 I0.0 J-1.5875
G1 Y88.4222
G1 Y86.9222 Z-10.5
G1 Y83.7472
G1 Y82.9 Z-12.0814
G3 X1.2529 Y82.2472 Z-13.3 I1.5875 J0.0
G3 X2.7 Y81.3125 I1.4471 J0.6528
G1 X10.4125
G1 Y27.4
G1 Y14.4338
G1 Y12.9338 Z-10.5
G1 Y9.7588
G1 Y8.2588 Z-13.3
G1 Y2.9
G3 X10.4569 Y2.5271 I1.5875 J0.0
G1 F2000.0 Z-13.5
G3 F4000.0 X12.0 Y1.3125 I1.5431 J0.3729
G1 X22.0
G3 X23.5875 Y2.9 I0.0 J1.5875
G1 Y25.8125
G1 X27.0
G1 X45.4125
G1 Y25.4
G3 X47.0 Y23.8125 I1.5875 J0.0
G1 X57.2545
G1 X58.7545 Z-10.5
G1 X61.9295
G1 X63.4295 Z-13.5
G1 X130.0
G3 X131.5875 Y25.4 I0.0 J1.5875
G1 Y27.4
G1 Y37.15
G3 X131.2071 Y38.181 I-1.5875 J0.0
G3 X130.0 Y38.7375 Z-10.8415 I-1.2071 J-1.031
G1 X129.7071 Z-10.5
G1 X126.5321
G1 X125.0321 Z-13.5
G1 X120.8772
G1 X118.044 Y43.2448
G3 X116.7 Y43.9875 I-1.344 J-0.8448
G1 X113.0174
G3 X111.1158 Y49.618 I-20.4146 J-3.7581
G3 X110.6843 Y50.1455 I-1.4158 J-0.718
G3 X100.7157 I-4.9843 J-6.3067
G3 X100.2842 Y49.618 I0.9843 J-1.2455
G3 X98.3826 Y43.9875 I18.5131 J-9.3887
G1 X79.5875
G1 Y61.9882
G3 X78.4703 Y63.5045 I-1.5875 J0.0
G1 X68.5875 Y66.5697
G1 Y76.4
G1 Y91.4
G1 Y106.9
G3 X67.0 Y108.4875 I-1.5875 J0.0
G1 X54.0
G3 X52.4125 Y106.9 I0.0 J-1.5875
G1 Y92.4105
G1 Y90.9105 Z-10.5
G1 Y88.4
G1 Y87.7355
G1 Y86.2355 Z-13.5
G1 Y78.4875
G1 X34.0875
G1 Y90.9
G3 X32.5 Y92.4875 I-1.5875 J0.0
G1 X2.7
G3 X1.1125 Y90.9 I0.0 J-1.5875
G1 Y88.4222
G1 Y86.9222 Z-10.5
G1 Y83.7472
G1 Y82.9 Z-12.1944
G3 X1.2529 Y82.2472 Z-13.5 I1.5875 J0.0
G3 X2.7 Y81.3125 I1.4471 J0.6528
G1 X10.4125
G1 Y27.4
G1 Y14.4338
G1 Y12.9338 Z-10.5
G1 Y9.7588
G1 Y8.2588 Z-13.5
G1 Y2.9
G3 X10.4569 Y2.5271 I1.5875 J0.0
G0 Z3.0
M5
M30
