( Knas mechanical pick-and-place tape feeder v1.0 by Karl Ekdahl is licensed under a Creative Commons Attribution-NonCommercial 4.0 International License. )
( Made using CamBam - http://www.cambam.co.uk )
( feeder4_alu2_clean 12/17/2015 6:23:01 PM )
( T1 : 1.5875 )
G21 G90 G64 G40
G0 Z3.0
( T1 : 1.5875 )
T1 M6
( Drill2 )
G17
M3 S1000
G0 X15.8317 Y11.9785
G98
G81 X15.8317 Y11.9785 Z-3.5 R3.0 F50.0
G81 X17.8559 Y23.6782 Z-3.5
G80
( Outlines2 )
S1000
G0 Z3.0
G0 X3.1221 Y2.6371
G0 Z1.0
G1 F50.0 Z-0.5
G3 F250.0 X3.2311 Y2.5307 I0.6064 J0.5122
G3 X4.4993 Y1.469 I3.6651 J3.0898
G3 X4.5581 Y1.4382 I0.3969 J0.6874
G3 X7.6793 Y0.8993 I2.5381 J5.3912
G3 X8.2519 Y2.1444 I-0.0777 J0.7899
G1 X7.2561 Y3.567
G1 X6.5741 Y5.0162
G3 X6.4964 Y5.1469 I-0.7182 J-0.338
G2 X5.1387 Y7.5652 I9.3353 J6.8316
G1 X12.0984 Y8.9715
G3 X13.4349 Y7.827 I3.7334 J3.007
G3 X19.5506 Y8.9536 I2.3969 J4.1515
G1 X24.6545 Y7.7116
G2 X27.5292 Y2.2918 I-16.7922 J-12.379
G3 X28.2775 Y1.7628 I0.7483 J0.2648
G1 X28.8183
G3 X29.6121 Y2.5524 I0.0 J0.7938
G1 X29.6461 Y9.0125
G1 X31.808 Y9.3971
G1 X31.8962
G1 X38.4234
G1 X52.6085 Y3.8807
G3 X53.6216 Y4.2981 I0.2877 J0.7398
G1 X57.6216 Y13.2981
G3 X57.1704 Y14.3654 I-0.7253 J0.3224
G1 X46.1995 Y18.4041
G3 X45.936 Y18.4529 I-0.2742 J-0.7449
G1 X44.8344 Y18.8641
G3 X44.5568 Y18.9142 I-0.2776 J-0.7436
G1 X36.3317
G1 X32.7041
G1 X32.2132
G3 X31.8534 Y18.9791 I-0.317 J-0.7277
G3 X30.1611 Y18.4764 I0.2045 J-3.7882
G3 X29.587 Y18.0696 I1.8969 J-3.2855
G1 X19.4172 Y28.2394
G3 X19.1069 Y28.4312 I-0.5613 J-0.5613
G3 X14.0473 Y23.6081 I-1.251 J-3.753
G1 X13.0901 Y15.9109
G3 X11.2764 Y13.4714 I2.7416 J-3.9324
G1 X11.1922 Y13.4563
G3 X11.0632 Y13.4219 I0.1395 J-0.7814
G1 X2.68 Y11.789
G3 X2.5576 Y11.7548 I0.1518 J-0.7791
G1 X0.7436 Y11.3994
G3 X0.1059 Y10.547 I0.1526 J-0.7789
G3 X3.088 Y2.6804 I15.7259 J1.4629
G3 X3.1221 Y2.6371 I0.6405 J0.4689
G1 F50.0 Z-1.0
G3 F250.0 X3.2311 Y2.5307 I0.6064 J0.5122
G3 X4.4993 Y1.469 I3.6651 J3.0898
G3 X4.5581 Y1.4382 I0.3969 J0.6874
G3 X7.6793 Y0.8993 I2.5381 J5.3912
G3 X8.2519 Y2.1444 I-0.0777 J0.7899
G1 X7.2561 Y3.567
G1 X6.5741 Y5.0162
G3 X6.4964 Y5.1469 I-0.7182 J-0.338
G2 X5.1387 Y7.5652 I9.3353 J6.8316
G1 X12.0984 Y8.9715
G3 X13.4349 Y7.827 I3.7334 J3.007
G3 X19.5506 Y8.9536 I2.3969 J4.1515
G1 X24.6545 Y7.7116
G2 X27.5292 Y2.2918 I-16.7922 J-12.379
G3 X28.2775 Y1.7628 I0.7483 J0.2648
G1 X28.8183
G3 X29.6121 Y2.5524 I0.0 J0.7938
G1 X29.6461 Y9.0125
G1 X31.808 Y9.3971
G1 X31.8962
G1 X38.4234
G1 X52.6085 Y3.8807
G3 X53.6216 Y4.2981 I0.2877 J0.7398
G1 X57.6216 Y13.2981
G3 X57.1704 Y14.3654 I-0.7253 J0.3224
G1 X46.1995 Y18.4041
G3 X45.936 Y18.4529 I-0.2742 J-0.7449
G1 X44.8344 Y18.8641
G3 X44.5568 Y18.9142 I-0.2776 J-0.7436
G1 X36.3317
G1 X32.7041
G1 X32.2132
G3 X31.8534 Y18.9791 I-0.317 J-0.7277
G3 X30.1611 Y18.4764 I0.2045 J-3.7882
G3 X29.587 Y18.0696 I1.8969 J-3.2855
G1 X19.4172 Y28.2394
G3 X19.1069 Y28.4312 I-0.5613 J-0.5613
G3 X14.0473 Y23.6081 I-1.251 J-3.753
G1 X13.0901 Y15.9109
G3 X11.2764 Y13.4714 I2.7416 J-3.9324
G1 X11.1922 Y13.4563
G3 X11.0632 Y13.4219 I0.1395 J-0.7814
G1 X2.68 Y11.789
G3 X2.5576 Y11.7548 I0.1518 J-0.7791
G1 X0.7436 Y11.3994
G3 X0.1059 Y10.547 I0.1526 J-0.7789
G3 X3.088 Y2.6804 I15.7259 J1.4629
G3 X3.1221 Y2.6371 I0.6405 J0.4689
G1 F50.0 Z-1.5
G3 F250.0 X3.2311 Y2.5307 I0.6064 J0.5122
G3 X4.4993 Y1.469 I3.6651 J3.0898
G3 X4.5581 Y1.4382 I0.3969 J0.6874
G3 X7.6793 Y0.8993 I2.5381 J5.3912
G3 X8.2519 Y2.1444 I-0.0777 J0.7899
G1 X7.2561 Y3.567
G1 X6.5741 Y5.0162
G3 X6.4964 Y5.1469 I-0.7182 J-0.338
G2 X5.1387 Y7.5652 I9.3353 J6.8316
G1 X12.0984 Y8.9715
G3 X13.4349 Y7.827 I3.7334 J3.007
G3 X19.5506 Y8.9536 I2.3969 J4.1515
G1 X24.6545 Y7.7116
G2 X27.5292 Y2.2918 I-16.7922 J-12.379
G3 X28.2775 Y1.7628 I0.7483 J0.2648
G1 X28.8183
G3 X29.6121 Y2.5524 I0.0 J0.7938
G1 X29.6461 Y9.0125
G1 X31.808 Y9.3971
G1 X31.8962
G1 X38.4234
G1 X52.6085 Y3.8807
G3 X53.6216 Y4.2981 I0.2877 J0.7398
G1 X57.6216 Y13.2981
G3 X57.1704 Y14.3654 I-0.7253 J0.3224
G1 X46.1995 Y18.4041
G3 X45.936 Y18.4529 I-0.2742 J-0.7449
G1 X44.8344 Y18.8641
G3 X44.5568 Y18.9142 I-0.2776 J-0.7436
G1 X36.3317
G1 X32.7041
G1 X32.2132
G3 X31.8534 Y18.9791 I-0.317 J-0.7277
G3 X30.1611 Y18.4764 I0.2045 J-3.7882
G3 X29.587 Y18.0696 I1.8969 J-3.2855
G1 X19.4172 Y28.2394
G3 X19.1069 Y28.4312 I-0.5613 J-0.5613
G3 X14.0473 Y23.6081 I-1.251 J-3.753
G1 X13.0901 Y15.9109
G3 X11.2764 Y13.4714 I2.7416 J-3.9324
G1 X11.1922 Y13.4563
G3 X11.0632 Y13.4219 I0.1395 J-0.7814
G1 X2.68 Y11.789
G3 X2.5576 Y11.7548 I0.1518 J-0.7791
G1 X0.7436 Y11.3994
G3 X0.1059 Y10.547 I0.1526 J-0.7789
G3 X3.088 Y2.6804 I15.7259 J1.4629
G3 X3.1221 Y2.6371 I0.6405 J0.4689
G1 F50.0 Z-2.0
G3 F250.0 X3.2311 Y2.5307 I0.6064 J0.5122
G3 X4.4993 Y1.469 I3.6651 J3.0898
G3 X4.5581 Y1.4382 I0.3969 J0.6874
G3 X7.6793 Y0.8993 I2.5381 J5.3912
G3 X8.2519 Y2.1444 I-0.0777 J0.7899
G1 X7.2561 Y3.567
G1 X6.5741 Y5.0162
G3 X6.4964 Y5.1469 I-0.7182 J-0.338
G2 X5.1387 Y7.5652 I9.3353 J6.8316
G1 X12.0984 Y8.9715
G3 X13.4349 Y7.827 I3.7334 J3.007
G3 X19.5506 Y8.9536 I2.3969 J4.1515
G1 X24.6545 Y7.7116
G2 X27.5292 Y2.2918 I-16.7922 J-12.379
G3 X28.2775 Y1.7628 I0.7483 J0.2648
G1 X28.8183
G3 X29.6121 Y2.5524 I0.0 J0.7938
G1 X29.6461 Y9.0125
G1 X31.808 Y9.3971
G1 X31.8962
G1 X38.4234
G1 X52.6085 Y3.8807
G3 X53.6216 Y4.2981 I0.2877 J0.7398
G1 X57.6216 Y13.2981
G3 X57.1704 Y14.3654 I-0.7253 J0.3224
G1 X46.1995 Y18.4041
G3 X45.936 Y18.4529 I-0.2742 J-0.7449
G1 X44.8344 Y18.8641
G3 X44.5568 Y18.9142 I-0.2776 J-0.7436
G1 X36.3317
G1 X32.7041
G1 X32.2132
G3 X31.8534 Y18.9791 I-0.317 J-0.7277
G3 X30.1611 Y18.4764 I0.2045 J-3.7882
G3 X29.587 Y18.0696 I1.8969 J-3.2855
G1 X19.4172 Y28.2394
G3 X19.1069 Y28.4312 I-0.5613 J-0.5613
G3 X14.0473 Y23.6081 I-1.251 J-3.753
G1 X13.0901 Y15.9109
G3 X11.2764 Y13.4714 I2.7416 J-3.9324
G1 X11.1922 Y13.4563
G3 X11.0632 Y13.4219 I0.1395 J-0.7814
G1 X2.68 Y11.789
G3 X2.5576 Y11.7548 I0.1518 J-0.7791
G1 X0.7436 Y11.3994
G3 X0.1059 Y10.547 I0.1526 J-0.7789
G3 X3.088 Y2.6804 I15.7259 J1.4629
G3 X3.1221 Y2.6371 I0.6405 J0.4689
G1 F50.0 Z-2.5
G3 F250.0 X3.2311 Y2.5307 I0.6064 J0.5122
G3 X4.4993 Y1.469 I3.6651 J3.0898
G3 X4.5581 Y1.4382 I0.3969 J0.6874
G3 X7.6793 Y0.8993 I2.5381 J5.3912
G3 X8.2519 Y2.1444 I-0.0777 J0.7899
G1 X7.2561 Y3.567
G1 X6.5741 Y5.0162
G3 X6.4964 Y5.1469 I-0.7182 J-0.338
G2 X5.1387 Y7.5652 I9.3353 J6.8316
G1 X10.7301 Y8.695
G1 X11.6144 Y8.8737 Z-2.0
G1 X12.0984 Y8.9715
G3 X13.0554 Y8.0706 I3.7334 J3.007
G3 X13.4349 Y7.827 Z-2.4509 I2.7763 J3.908
G3 X13.4884 Y7.7966 Z-2.5 I2.3969 J4.1515
G3 X19.5506 Y8.9536 I2.3434 J4.1819
G1 X24.6545 Y7.7116
G2 X27.5292 Y2.2918 I-16.7922 J-12.379
G3 X28.2775 Y1.7628 I0.7483 J0.2648
G1 X28.8183
G3 X29.6121 Y2.5524 I0.0 J0.7938
G1 X29.6461 Y9.0125
G1 X31.808 Y9.3971
G1 X31.8962
G1 X38.4234
G1 X52.6085 Y3.8807
G3 X53.6216 Y4.2981 I0.2877 J0.7398
G1 X54.0964 Y5.3665
G1 X54.2995 Y5.8235 Z-2.0
G1 X54.9442 Y7.2741
G1 X55.1473 Y7.731 Z-2.5
G1 X57.6216 Y13.2981
G3 X57.1704 Y14.3654 I-0.7253 J0.3224
G1 X46.1995 Y18.4041
G3 X45.936 Y18.4529 I-0.2742 J-0.7449
G1 X44.8344 Y18.8641
G3 X44.5568 Y18.9142 I-0.2776 J-0.7436
G1 X36.3317
G1 X32.7041
G1 X32.2132
G3 X31.8534 Y18.9791 I-0.317 J-0.7277
G3 X30.1611 Y18.4764 I0.2045 J-3.7882
G3 X29.587 Y18.0696 I1.8969 J-3.2855
G1 X19.4172 Y28.2394
G3 X19.1069 Y28.4312 I-0.5613 J-0.5613
G3 X15.5942 Y27.9239 I-1.251 J-3.753
G3 X15.1892 Y27.6003 Z-2.0 I2.2617 J-3.2458
G3 X14.2551 Y26.3167 I2.6667 J-2.9221
G3 X14.0718 Y25.8317 Z-2.5 I3.6008 J-1.6385
G3 X14.0473 Y23.6081 I3.7841 J-1.1536
G1 X13.0901 Y15.9109
G3 X11.2764 Y13.4714 I2.7416 J-3.9324
G1 X11.1922 Y13.4563
G3 X11.0632 Y13.4219 I0.1395 J-0.7814
G1 X2.68 Y11.789
G3 X2.5576 Y11.7548 I0.1518 J-0.7791
G1 X0.7436 Y11.3994
G3 X0.1059 Y10.547 I0.1526 J-0.7789
G3 X3.088 Y2.6804 I15.7259 J1.4629
G3 X3.1221 Y2.6371 I0.6405 J0.4689
G1 F50.0 Z-3.0
G3 F250.0 X3.2311 Y2.5307 I0.6064 J0.5122
G3 X4.4993 Y1.469 I3.6651 J3.0898
G3 X4.5581 Y1.4382 I0.3969 J0.6874
G3 X7.6793 Y0.8993 I2.5381 J5.3912
G3 X8.2519 Y2.1444 I-0.0777 J0.7899
G1 X7.2561 Y3.567
G1 X6.5741 Y5.0162
G3 X6.4964 Y5.1469 I-0.7182 J-0.338
G2 X5.1387 Y7.5652 I9.3353 J6.8316
G1 X10.7301 Y8.695
G1 X11.6144 Y8.8737 Z-2.0
G1 X12.0984 Y8.9715
G3 X13.0554 Y8.0706 I3.7334 J3.007
G3 X13.4349 Y7.827 Z-2.9017 I2.7763 J3.908
G3 X13.4884 Y7.7966 Z-3.0 I2.3969 J4.1515
G3 X19.5506 Y8.9536 I2.3434 J4.1819
G1 X24.6545 Y7.7116
G2 X27.5292 Y2.2918 I-16.7922 J-12.379
G3 X28.2775 Y1.7628 I0.7483 J0.2648
G1 X28.8183
G3 X29.6121 Y2.5524 I0.0 J0.7938
G1 X29.6461 Y9.0125
G1 X31.808 Y9.3971
G1 X31.8962
G1 X38.4234
G1 X52.6085 Y3.8807
G3 X53.6216 Y4.2981 I0.2877 J0.7398
G1 X54.0964 Y5.3665
G1 X54.2995 Y5.8235 Z-2.0
G1 X54.9442 Y7.2741
G1 X55.1473 Y7.731 Z-3.0
G1 X57.6216 Y13.2981
G3 X57.1704 Y14.3654 I-0.7253 J0.3224
G1 X46.1995 Y18.4041
G3 X45.936 Y18.4529 I-0.2742 J-0.7449
G1 X44.8344 Y18.8641
G3 X44.5568 Y18.9142 I-0.2776 J-0.7436
G1 X36.3317
G1 X32.7041
G1 X32.2132
G3 X31.8534 Y18.9791 I-0.317 J-0.7277
G3 X30.1611 Y18.4764 I0.2045 J-3.7882
G3 X29.587 Y18.0696 I1.8969 J-3.2855
G1 X19.4172 Y28.2394
G3 X19.1069 Y28.4312 I-0.5613 J-0.5613
G3 X15.5942 Y27.9239 I-1.251 J-3.753
G3 X15.1892 Y27.6003 Z-2.0 I2.2617 J-3.2458
G3 X14.2551 Y26.3167 I2.6667 J-2.9221
G3 X14.0718 Y25.8317 Z-3.0 I3.6008 J-1.6385
G3 X14.0473 Y23.6081 I3.7841 J-1.1536
G1 X13.0901 Y15.9109
G3 X11.2764 Y13.4714 I2.7416 J-3.9324
G1 X11.1922 Y13.4563
G3 X11.0632 Y13.4219 I0.1395 J-0.7814
G1 X2.68 Y11.789
G3 X2.5576 Y11.7548 I0.1518 J-0.7791
G1 X0.7436 Y11.3994
G3 X0.1059 Y10.547 I0.1526 J-0.7789
G3 X3.088 Y2.6804 I15.7259 J1.4629
G3 X3.1221 Y2.6371 I0.6405 J0.4689
G1 F50.0 Z-3.5
G3 F250.0 X3.2311 Y2.5307 I0.6064 J0.5122
G3 X4.4993 Y1.469 I3.6651 J3.0898
G3 X4.5581 Y1.4382 I0.3969 J0.6874
G3 X7.6793 Y0.8993 I2.5381 J5.3912
G3 X8.2519 Y2.1444 I-0.0777 J0.7899
G1 X7.2561 Y3.567
G1 X6.5741 Y5.0162
G3 X6.4964 Y5.1469 I-0.7182 J-0.338
G2 X5.1387 Y7.5652 I9.3353 J6.8316
G1 X10.7301 Y8.695
G1 X11.6144 Y8.8737 Z-2.0
G1 X12.0984 Y8.9715
G3 X13.0554 Y8.0706 I3.7334 J3.007
G3 X13.4349 Y7.827 Z-3.3526 I2.7763 J3.908
G3 X13.4884 Y7.7966 Z-3.5 I2.3969 J4.1515
G3 X19.5506 Y8.9536 I2.3434 J4.1819
G1 X24.6545 Y7.7116
G2 X27.5292 Y2.2918 I-16.7922 J-12.379
G3 X28.2775 Y1.7628 I0.7483 J0.2648
G1 X28.8183
G3 X29.6121 Y2.5524 I0.0 J0.7938
G1 X29.6461 Y9.0125
G1 X31.808 Y9.3971
G1 X31.8962
G1 X38.4234
G1 X52.6085 Y3.8807
G3 X53.6216 Y4.2981 I0.2877 J0.7398
G1 X54.0964 Y5.3665
G1 X54.2995 Y5.8235 Z-2.0
G1 X54.9442 Y7.2741
G1 X55.1473 Y7.731 Z-3.5
G1 X57.6216 Y13.2981
G3 X57.1704 Y14.3654 I-0.7253 J0.3224
G1 X46.1995 Y18.4041
G3 X45.936 Y18.4529 I-0.2742 J-0.7449
G1 X44.8344 Y18.8641
G3 X44.5568 Y18.9142 I-0.2776 J-0.7436
G1 X36.3317
G1 X32.7041
G1 X32.2132
G3 X31.8534 Y18.9791 I-0.317 J-0.7277
G3 X30.1611 Y18.4764 I0.2045 J-3.7882
G3 X29.587 Y18.0696 I1.8969 J-3.2855
G1 X19.4172 Y28.2394
G3 X19.1069 Y28.4312 I-0.5613 J-0.5613
G3 X15.5942 Y27.9239 I-1.251 J-3.753
G3 X15.1892 Y27.6003 Z-2.0 I2.2617 J-3.2458
G3 X14.2551 Y26.3167 I2.6667 J-2.9221
G3 X14.0718 Y25.8317 Z-3.5 I3.6008 J-1.6385
G3 X14.0473 Y23.6081 I3.7841 J-1.1536
G1 X13.0901 Y15.9109
G3 X11.2764 Y13.4714 I2.7416 J-3.9324
G1 X11.1922 Y13.4563
G3 X11.0632 Y13.4219 I0.1395 J-0.7814
G1 X2.68 Y11.789
G3 X2.5576 Y11.7548 I0.1518 J-0.7791
G1 X0.7436 Y11.3994
G3 X0.1059 Y10.547 I0.1526 J-0.7789
G3 X3.088 Y2.6804 I15.7259 J1.4629
G3 X3.1221 Y2.6371 I0.6405 J0.4689
G0 Z3.0
M5
M30
