( Knas mechanical pick-and-place tape feeder v1.0 by Karl Ekdahl is licensed under a Creative Commons Attribution-NonCommercial 4.0 International License. )
( Made using CamBam - http://www.cambam.co.uk )
( feeder4_alu2_clean 12/17/2015 2:58:00 PM )
( T2 : 3.175 )
G21 G90 G64 G40
G0 Z3.0
( T2 : 3.175 )
T2 M6
( Pocket1 )
G17
M3 S1000
G0 X39.5875 Y7.5875
G0 Z1.0
G1 F250.0 Z-1.8
G1 F500.0 Y7.9125
G1 X46.4125
G1 Y7.5875
G1 X39.5875
G1 F250.0 Z-2.0
G1 F500.0 Y7.9125
G1 X46.4125
G1 Y7.5875
G1 X39.5875
( Profile1 )
S1000
G0 Z3.0
G0 X1.5484 Y9.0875
G0 Z1.0
G1 F250.0 Z-1.8
G1 F500.0 X1.0
G3 X-0.5875 Y7.5 I0.0 J-1.5875
G1 Y3.5
G3 X1.0 Y1.9125 I1.5875 J0.0
G1 X1.2479
G3 X2.6018 Y2.6711 I0.0 J1.5875
G2 X2.6062 Y2.6754 I0.0107 J-0.0065
G2 X2.6231 Y2.6711 I0.0062 J-0.0108
G3 X2.6232 Y2.6709 I1.3539 J0.8289
G3 X2.6233 Y2.6708 I1.3768 J0.7903
G2 X2.625 Y2.6646 I-0.0108 J-0.0062
G2 X2.6233 Y2.6583 I-0.0125 J0.0
G3 X2.4125 Y1.8679 I1.3767 J-0.7905
G1 Y1.75
G3 X4.0 Y0.1625 I1.5875 J0.0
G1 X8.0
G3 X9.5875 Y1.75 I0.0 J1.5875
G1 Y5.4125
G1 X9.8
G1 X25.4125
G1 Y1.75
G3 X27.0 Y0.1625 I1.5875 J0.0
G1 X38.0
G3 X39.5875 Y1.75 I0.0 J1.5875
G1 Y5.4125
G1 X45.5
G3 X46.002 Y5.494 I0.0 J1.5875
G1 X47.502 Y5.994
G3 Y9.006 I-0.502 J1.506
G1 X46.002 Y9.506
G3 X45.5 Y9.5875 I-0.502 J-1.506
G1 X39.5851
G3 X38.0 Y11.0875 I-1.5851 J-0.0875
G1 X9.8
G1 X8.0
G1 X4.0449
G3 X2.7803 Y8.5404 I0.0 J-1.5875
G2 X2.7828 Y8.5328 I-0.01 J-0.0076
G2 X2.78 Y8.5248 I-0.0125 J0.0
G1 X2.7799
G2 X2.7641 Y8.522 I-0.0095 J0.0081
G2 X2.7608 Y8.5248 I0.0063 J0.0108
G3 X1.5484 Y9.0875 I-1.2124 J-1.0248
G1 F250.0 Z-3.5
G1 F500.0 X1.0
G3 X-0.4748 Y8.0875 I0.0 J-1.5875
G3 X-0.5851 Y7.5875 Z-2.5 I1.4748 J-0.5875
G3 X-0.5875 Y7.5 I1.5851 J-0.0875
G1 Y4.4125
G1 Y3.9125 Z-3.5
G1 Y3.5
G3 X1.0 Y1.9125 I1.5875 J0.0
G1 X1.2479
G3 X2.6018 Y2.6711 I0.0 J1.5875
G2 X2.6062 Y2.6754 I0.0107 J-0.0065
G2 X2.6231 Y2.6711 I0.0062 J-0.0108
G3 X2.6232 Y2.6709 I1.3539 J0.8289
G3 X2.6233 Y2.6708 I1.3768 J0.7903
G2 X2.625 Y2.6646 I-0.0108 J-0.0062
G2 X2.6233 Y2.6583 I-0.0125 J0.0
G3 X2.4125 Y1.8679 I1.3767 J-0.7905
G1 Y1.75
G3 X4.0 Y0.1625 I1.5875 J0.0
G1 X8.0
G3 X9.5875 Y1.75 I0.0 J1.5875
G1 Y5.4125
G1 X9.8
G1 X25.4125
G1 Y1.75
G3 X27.0 Y0.1625 I1.5875 J0.0
G1 X38.0
G3 X39.5875 Y1.75 I0.0 J1.5875
G1 Y5.4125
G1 X45.5
G3 X46.002 Y5.494 I0.0 J1.5875
G1 X47.502 Y5.994
G3 Y9.006 I-0.502 J1.506
G1 X46.002 Y9.506
G3 X45.5 Y9.5875 I-0.502 J-1.506
G1 X39.5851
G3 X38.0 Y11.0875 I-1.5851 J-0.0875
G1 X32.0875
G1 X31.5875 Z-2.5
G1 X28.4125
G1 X27.9125 Z-3.5
G1 X9.8
G1 X8.0
G1 X4.0449
G3 X2.7803 Y8.5404 I0.0 J-1.5875
G2 X2.7828 Y8.5328 I-0.01 J-0.0076
G2 X2.78 Y8.5248 I-0.0125 J0.0
G1 X2.7799
G2 X2.7641 Y8.522 I-0.0095 J0.0081
G2 X2.7608 Y8.5248 I0.0063 J0.0108
G3 X1.5484 Y9.0875 I-1.2124 J-1.0248
G0 Z3.0
M5
M30
